;FLAVOR:Marlin
;TIME:4473
;Filament used: 2.94972m
;Layer height: 0.2
;MINX:76.2
;MINY:70.335
;MINZ:0.2
;MAXX:144.665
;MAXY:148.8
;MAXZ:6
;Generated with Creality Slicer 4.8.2-254
M140 S50
M105
M190 S50
M104 S200
M105
M109 S200
M82 ;absolute extrusion mode

G28 ;Home

G92 E0 ;Reset Extruder
G1 Z2.0 F3000 ;Move Z Axis up
G1 X10.1 Y20 Z0.28 F5000.0 ;Move to start position
G1 X10.1 Y200.0 Z0.28 F1500.0 E15 ;Draw the first line
G1 X10.4 Y200.0 Z0.28 F5000.0 ;Move to side a little
G1 X10.4 Y20 Z0.28 F1500.0 E30 ;Draw the second line
G92 E0 ;Reset Extruder
G1 Z2.0 F3000 ;Move Z Axis up

G92 E0
G92 E0
G1 F2700 E-5
;LAYER_COUNT:30
;LAYER:0
M107
;MESH:Raspi4 Move Down Test v3.stl
G0 F6000 X138.456 Y147.034 Z0.2
;TYPE:WALL-INNER
G1 F2700 E0
G1 F1200 X139 Y147.105 E0.01825
G1 X139.544 Y147.034 E0.03649
G1 X140.052 Y146.824 E0.05478
G1 X140.489 Y146.489 E0.07309
G1 X140.824 Y146.052 E0.0914
G1 X141.034 Y145.544 E0.10969
G1 X141.105 Y145 E0.12793
G1 X141.034 Y144.456 E0.14618
G1 X140.824 Y143.948 E0.16446
G1 X140.489 Y143.511 E0.18278
G1 X140.052 Y143.176 E0.20109
G1 X139.544 Y142.966 E0.21938
G1 X139 Y142.895 E0.23762
G1 X138.456 Y142.966 E0.25587
G1 X137.948 Y143.176 E0.27415
G1 X137.511 Y143.511 E0.29247
G1 X137.176 Y143.948 E0.31078
G1 X136.966 Y144.456 E0.32906
G1 X136.895 Y145 E0.34731
G1 X136.966 Y145.544 E0.36556
G1 X137.176 Y146.052 E0.38384
G1 X137.511 Y146.489 E0.40215
G1 X137.948 Y146.824 E0.42047
G1 X138.456 Y147.034 E0.43875
G0 F6000 X138.56 Y146.644
;TYPE:WALL-OUTER
G1 F1200 X139 Y146.702 E0.45351
G1 X139.44 Y146.644 E0.46827
G1 X139.851 Y146.474 E0.48307
G1 X140.204 Y146.204 E0.49785
G1 X140.474 Y145.851 E0.51263
G1 X140.644 Y145.44 E0.52742
G1 X140.702 Y145 E0.54218
G1 X140.644 Y144.56 E0.55694
G1 X140.474 Y144.149 E0.57174
G1 X140.204 Y143.796 E0.58652
G1 X139.851 Y143.526 E0.6013
G1 X139.44 Y143.356 E0.61609
G1 X139 Y143.298 E0.63086
G1 X138.56 Y143.356 E0.64562
G1 X138.149 Y143.526 E0.66041
G1 X137.796 Y143.796 E0.67519
G1 X137.526 Y144.149 E0.68997
G1 X137.356 Y144.56 E0.70477
G1 X137.298 Y145 E0.71953
G1 X137.356 Y145.44 E0.73429
G1 X137.526 Y145.851 E0.74908
G1 X137.796 Y146.204 E0.76386
G1 X138.149 Y146.474 E0.77864
G1 X138.56 Y146.644 E0.79344
G0 F6000 X138.447 Y147.069
G1 F2700 E-4.20656
G0 F6000 X137.625 Y146.375
G0 X137.317 Y145.971
G0 X137.123 Y145.502
G0 X137.056 Y145
G0 X137.123 Y144.498
G0 X137.317 Y144.029
G0 X137.625 Y143.625
G0 X139 Y142.703
G0 X139 Y144.17
G0 X138.997 Y124.829
G0 X139.001 Y126.298
G0 X138.462 Y126.035
;TYPE:WALL-INNER
G1 F2700 E0.79344
G1 F1200 X139.001 Y126.106 E0.81152
G1 X139.552 Y126.031 E0.83001
G1 X140.054 Y125.823 E0.84809
G1 X140.494 Y125.482 E0.8666
G1 X140.824 Y125.051 E0.88466
G1 X141.035 Y124.538 E0.90311
G1 X141.106 Y123.999 E0.92119
G1 X141.031 Y123.448 E0.93968
G1 X140.823 Y122.946 E0.95776
G1 X140.482 Y122.506 E0.97627
G1 X140.051 Y122.176 E0.99433
G1 X139.538 Y121.965 E1.01278
G1 X138.999 Y121.894 E1.03086
G1 X138.448 Y121.969 E1.04935
G1 X137.946 Y122.177 E1.06743
G1 X137.506 Y122.517 E1.08592
G1 X137.177 Y122.947 E1.10393
G1 X136.966 Y123.456 E1.12225
G1 X136.894 Y124 E1.14051
G1 X136.969 Y124.552 E1.15903
G1 X137.177 Y125.054 E1.17711
G1 X137.518 Y125.494 E1.19562
G1 X137.949 Y125.824 E1.21368
G1 X138.462 Y126.035 E1.23213
G0 F6000 X138.566 Y125.645
;TYPE:WALL-OUTER
G1 F1200 X139 Y125.702 E1.24668
G1 X139.447 Y125.642 E1.26169
G1 X139.851 Y125.474 E1.27624
G1 X140.208 Y125.198 E1.29125
G1 X140.474 Y124.85 E1.30581
G1 X140.645 Y124.434 E1.32077
G1 X140.702 Y124 E1.33533
G1 X140.642 Y123.553 E1.35033
G1 X140.474 Y123.149 E1.36489
G1 X140.198 Y122.792 E1.3799
G1 X139.85 Y122.526 E1.39446
G1 X139.434 Y122.355 E1.40942
G1 X139 Y122.298 E1.42398
G1 X138.553 Y122.358 E1.43898
G1 X138.149 Y122.526 E1.45354
G1 X137.792 Y122.802 E1.46854
G1 X137.526 Y123.149 E1.48309
G1 X137.356 Y123.56 E1.49788
G1 X137.298 Y124 E1.51264
G1 X137.358 Y124.447 E1.52764
G1 X137.526 Y124.851 E1.54219
G1 X137.802 Y125.208 E1.5572
G1 X138.15 Y125.474 E1.57177
G1 X138.566 Y125.645 E1.58673
G0 F6000 X138.453 Y126.07
G1 F2700 E-3.41327
G0 F6000 X137.632 Y125.379
G0 X137.318 Y124.972
G0 X137.125 Y124.51
G0 X137.056 Y124
G0 X137.123 Y123.498
G0 X137.317 Y123.029
G0 X137.621 Y122.632
G0 X138.999 Y121.702
G0 X139.003 Y123.171
G0 X139 Y96.83
G0 X139 Y98.297
G0 X138.456 Y98.034
;TYPE:WALL-INNER
G1 F2700 E1.58673
G1 F1200 X139 Y98.105 E1.60498
G1 X139.544 Y98.034 E1.62322
G1 X140.052 Y97.824 E1.64151
G1 X140.489 Y97.489 E1.65982
G1 X140.824 Y97.052 E1.67814
G1 X141.034 Y96.544 E1.69642
G1 X141.105 Y96 E1.71466
G1 X141.034 Y95.456 E1.73291
G1 X140.824 Y94.948 E1.75119
G1 X140.489 Y94.511 E1.76951
G1 X140.052 Y94.176 E1.78782
G1 X139.544 Y93.966 E1.80611
G1 X139 Y93.895 E1.82435
G1 X138.456 Y93.966 E1.8426
G1 X137.948 Y94.176 E1.86088
G1 X137.511 Y94.511 E1.8792
G1 X137.176 Y94.948 E1.89751
G1 X136.966 Y95.456 E1.91579
G1 X136.895 Y96 E1.93404
G1 X136.966 Y96.544 E1.95229
G1 X137.176 Y97.052 E1.97057
G1 X137.511 Y97.489 E1.98888
G1 X137.948 Y97.824 E2.0072
G1 X138.456 Y98.034 E2.02548
G0 F6000 X138.56 Y97.644
;TYPE:WALL-OUTER
G1 F1200 X139 Y97.702 E2.04024
G1 X139.44 Y97.644 E2.055
G1 X139.851 Y97.474 E2.0698
G1 X140.204 Y97.204 E2.08458
G1 X140.474 Y96.851 E2.09936
G1 X140.644 Y96.44 E2.11415
G1 X140.702 Y96 E2.12891
G1 X140.644 Y95.56 E2.14367
G1 X140.474 Y95.149 E2.15847
G1 X140.204 Y94.796 E2.17325
G1 X139.851 Y94.526 E2.18803
G1 X139.44 Y94.356 E2.20282
G1 X139 Y94.298 E2.21759
G1 X138.56 Y94.356 E2.23235
G1 X138.149 Y94.526 E2.24714
G1 X137.796 Y94.796 E2.26192
G1 X137.526 Y95.149 E2.2767
G1 X137.356 Y95.56 E2.2915
G1 X137.298 Y96 E2.30626
G1 X137.356 Y96.44 E2.32102
G1 X137.526 Y96.851 E2.33581
G1 X137.796 Y97.204 E2.35059
G1 X138.149 Y97.474 E2.36537
G1 X138.56 Y97.644 E2.38017
G0 F6000 X138.447 Y98.069
G1 F2700 E-2.61983
G0 F6000 X137.625 Y97.375
G0 X137.317 Y96.971
G0 X137.123 Y96.502
G0 X137.056 Y96
G0 X137.123 Y95.498
G0 X137.317 Y95.029
G0 X137.625 Y94.625
G0 X139 Y93.703
G0 X139 Y95.17
G0 X138.997 Y75.829
G0 X139.001 Y77.298
G0 X138.462 Y77.035
;TYPE:WALL-INNER
G1 F2700 E2.38017
G1 F1200 X139.001 Y77.106 E2.39825
G1 X139.552 Y77.031 E2.41674
G1 X140.054 Y76.823 E2.43482
G1 X140.494 Y76.482 E2.45333
G1 X140.824 Y76.051 E2.47139
G1 X141.035 Y75.538 E2.48984
G1 X141.106 Y74.999 E2.50792
G1 X141.031 Y74.448 E2.52641
G1 X140.823 Y73.946 E2.54449
G1 X140.482 Y73.506 E2.563
G1 X140.051 Y73.176 E2.58106
G1 X139.538 Y72.965 E2.59951
G1 X138.999 Y72.894 E2.61759
G1 X138.448 Y72.969 E2.63608
G1 X137.946 Y73.177 E2.65416
G1 X137.506 Y73.517 E2.67265
G1 X137.177 Y73.947 E2.69066
G1 X136.966 Y74.456 E2.70898
G1 X136.894 Y75 E2.72724
G1 X136.969 Y75.552 E2.74576
G1 X137.177 Y76.054 E2.76384
G1 X137.518 Y76.494 E2.78235
G1 X137.949 Y76.824 E2.80041
G1 X138.462 Y77.035 E2.81886
G0 F6000 X138.566 Y76.645
;TYPE:WALL-OUTER
G1 F1200 X139 Y76.702 E2.83341
G1 X139.447 Y76.642 E2.84842
G1 X139.851 Y76.474 E2.86297
G1 X140.208 Y76.198 E2.87798
G1 X140.474 Y75.85 E2.89255
G1 X140.645 Y75.434 E2.9075
G1 X140.702 Y75 E2.92206
G1 X140.642 Y74.553 E2.93706
G1 X140.474 Y74.149 E2.95162
G1 X140.198 Y73.792 E2.96663
G1 X139.85 Y73.526 E2.98119
G1 X139.434 Y73.355 E2.99615
G1 X139 Y73.298 E3.01071
G1 X138.553 Y73.358 E3.02571
G1 X138.149 Y73.526 E3.04027
G1 X137.792 Y73.802 E3.05527
G1 X137.526 Y74.149 E3.06982
G1 X137.356 Y74.56 E3.08461
G1 X137.298 Y75 E3.09937
G1 X137.358 Y75.447 E3.11437
G1 X137.526 Y75.851 E3.12892
G1 X137.802 Y76.208 E3.14393
G1 X138.15 Y76.474 E3.1585
G1 X138.566 Y76.645 E3.17346
G0 F6000 X138.453 Y77.07
G1 F2700 E-1.82654
G0 F6000 X137.383 Y76.63
G0 X138.415 Y75.589
G0 X81.589 Y75.585
G0 X82.63 Y76.617
G0 X81.552 Y77.031
;TYPE:WALL-INNER
G1 F2700 E3.17346
G1 F1200 X82.054 Y76.823 E3.19153
G1 X82.494 Y76.482 E3.21005
G1 X82.824 Y76.051 E3.2281
G1 X83.035 Y75.538 E3.24655
G1 X83.106 Y74.999 E3.26463
G1 X83.031 Y74.448 E3.28313
G1 X82.823 Y73.946 E3.3012
G1 X82.482 Y73.506 E3.31972
G1 X82.051 Y73.176 E3.33777
G1 X81.538 Y72.965 E3.35622
G1 X80.999 Y72.894 E3.3743
G1 X80.448 Y72.969 E3.3928
G1 X79.946 Y73.177 E3.41087
G1 X79.506 Y73.517 E3.42937
G1 X79.177 Y73.947 E3.44737
G1 X78.966 Y74.456 E3.4657
G1 X78.894 Y75 E3.48395
G1 X78.969 Y75.552 E3.50248
G1 X79.177 Y76.054 E3.52055
G1 X79.518 Y76.494 E3.53907
G1 X79.949 Y76.824 E3.55712
G1 X80.462 Y77.035 E3.57557
G1 X81.001 Y77.106 E3.59365
G1 X81.552 Y77.031 E3.61215
G0 F6000 X81.447 Y76.642
;TYPE:WALL-OUTER
G1 F1200 X81.851 Y76.474 E3.6267
G1 X82.208 Y76.198 E3.64171
G1 X82.474 Y75.85 E3.65628
G1 X82.645 Y75.434 E3.67124
G1 X82.702 Y75 E3.6858
G1 X82.642 Y74.553 E3.7008
G1 X82.474 Y74.149 E3.71535
G1 X82.198 Y73.792 E3.73036
G1 X81.85 Y73.526 E3.74493
G1 X81.434 Y73.355 E3.75989
G1 X81 Y73.298 E3.77445
G1 X80.553 Y73.358 E3.78945
G1 X80.149 Y73.526 E3.804
G1 X79.792 Y73.802 E3.81901
G1 X79.526 Y74.149 E3.83355
G1 X79.356 Y74.56 E3.84834
G1 X79.298 Y75 E3.8631
G1 X79.358 Y75.447 E3.8781
G1 X79.526 Y75.851 E3.89266
G1 X79.802 Y76.208 E3.90767
G1 X80.15 Y76.474 E3.92223
G1 X80.566 Y76.645 E3.93719
G1 X81 Y76.702 E3.95175
G1 X81.447 Y76.642 E3.96675
G0 F6000 X81.561 Y77.066
G1 F2700 E-1.03325
G0 F6000 X81.001 Y77.298
G0 X80.997 Y75.829
G0 X81 Y95.17
G0 X81 Y93.703
G0 X82.375 Y94.625
G0 X82.683 Y95.029
G0 X82.877 Y95.498
G0 X82.944 Y96
G0 X82.877 Y96.502
G0 X82.683 Y96.971
G0 X82.434 Y97.297
G0 X81.544 Y98.034
;TYPE:WALL-INNER
G1 F2700 E3.96675
G1 F1200 X82.052 Y97.824 E3.98504
G1 X82.489 Y97.489 E4.00335
G1 X82.824 Y97.052 E4.02166
G1 X83.034 Y96.544 E4.03995
G1 X83.105 Y96 E4.05819
G1 X83.034 Y95.456 E4.07644
G1 X82.824 Y94.948 E4.09472
G1 X82.489 Y94.511 E4.11304
G1 X82.052 Y94.176 E4.13135
G1 X81.544 Y93.966 E4.14964
G1 X81 Y93.895 E4.16788
G1 X80.456 Y93.966 E4.18613
G1 X79.948 Y94.176 E4.20441
G1 X79.511 Y94.511 E4.22273
G1 X79.176 Y94.948 E4.24104
G1 X78.966 Y95.456 E4.25932
G1 X78.895 Y96 E4.27757
G1 X78.966 Y96.544 E4.29582
G1 X79.176 Y97.052 E4.3141
G1 X79.511 Y97.489 E4.33241
G1 X79.948 Y97.824 E4.35073
G1 X80.456 Y98.034 E4.36901
G1 X81 Y98.105 E4.38726
G1 X81.544 Y98.034 E4.40551
G0 F6000 X81.44 Y97.644
;TYPE:WALL-OUTER
G1 F1200 X81.851 Y97.474 E4.4203
G1 X82.204 Y97.204 E4.43508
G1 X82.474 Y96.851 E4.44986
G1 X82.644 Y96.44 E4.46465
G1 X82.702 Y96 E4.47942
G1 X82.644 Y95.56 E4.49418
G1 X82.474 Y95.149 E4.50897
G1 X82.204 Y94.796 E4.52375
G1 X81.851 Y94.526 E4.53853
G1 X81.44 Y94.356 E4.55333
G1 X81 Y94.298 E4.56809
G1 X80.56 Y94.356 E4.58285
G1 X80.149 Y94.526 E4.59764
G1 X79.796 Y94.796 E4.61242
G1 X79.526 Y95.149 E4.6272
G1 X79.356 Y95.56 E4.642
G1 X79.298 Y96 E4.65676
G1 X79.356 Y96.44 E4.67152
G1 X79.526 Y96.851 E4.68631
G1 X79.796 Y97.204 E4.70109
G1 X80.149 Y97.474 E4.71588
G1 X80.56 Y97.644 E4.73067
G1 X81 Y97.702 E4.74543
G1 X81.44 Y97.644 E4.76019
G0 F6000 X81.553 Y98.069
G1 F2700 E-0.23981
G0 F6000 X81 Y98.297
G0 X81 Y96.83
G0 X81.003 Y123.171
G0 X80.999 Y121.702
G0 X82.368 Y122.621
G0 X82.682 Y123.028
G0 X82.875 Y123.49
G0 X82.944 Y124
G0 X82.878 Y124.496
G0 X82.683 Y124.969
G0 X82.438 Y125.292
G0 X81.552 Y126.031
;TYPE:WALL-INNER
G1 F2700 E4.76019
G1 F1200 X82.054 Y125.823 E4.77826
G1 X82.494 Y125.482 E4.79678
G1 X82.824 Y125.051 E4.81483
G1 X83.035 Y124.538 E4.83328
G1 X83.106 Y123.999 E4.85136
G1 X83.031 Y123.448 E4.86986
G1 X82.823 Y122.946 E4.88793
G1 X82.482 Y122.506 E4.90645
G1 X82.051 Y122.176 E4.9245
G1 X81.538 Y121.965 E4.94295
G1 X80.999 Y121.894 E4.96103
G1 X80.448 Y121.969 E4.97953
G1 X79.946 Y122.177 E4.9976
G1 X79.506 Y122.517 E5.0161
G1 X79.177 Y122.947 E5.0341
G1 X78.966 Y123.456 E5.05243
G1 X78.894 Y124 E5.07068
G1 X78.969 Y124.552 E5.08921
G1 X79.177 Y125.054 E5.10728
G1 X79.518 Y125.494 E5.1258
G1 X79.949 Y125.824 E5.14385
G1 X80.462 Y126.035 E5.1623
G1 X81.001 Y126.106 E5.18038
G1 X81.552 Y126.031 E5.19888
G0 F6000 X81.447 Y125.642
;TYPE:WALL-OUTER
G1 F1200 X81.851 Y125.474 E5.21343
G1 X82.208 Y125.198 E5.22844
G1 X82.474 Y124.85 E5.24301
G1 X82.645 Y124.434 E5.25797
G1 X82.702 Y124 E5.27253
G1 X82.642 Y123.553 E5.28753
G1 X82.474 Y123.149 E5.30208
G1 X82.198 Y122.792 E5.31709
G1 X81.85 Y122.526 E5.33166
G1 X81.434 Y122.355 E5.34662
G1 X81 Y122.298 E5.36118
G1 X80.553 Y122.358 E5.37618
G1 X80.149 Y122.526 E5.39073
G1 X79.792 Y122.802 E5.40574
G1 X79.526 Y123.149 E5.42028
G1 X79.356 Y123.56 E5.43507
G1 X79.298 Y124 E5.44983
G1 X79.358 Y124.447 E5.46484
G1 X79.526 Y124.851 E5.47939
G1 X79.802 Y125.208 E5.4944
G1 X80.15 Y125.474 E5.50896
G1 X80.566 Y125.645 E5.52392
G1 X81 Y125.702 E5.53848
G1 X81.447 Y125.642 E5.55348
G0 F6000 X81.561 Y126.066
G1 F2700 E0.55348
G0 F6000 X81.001 Y126.298
G0 X80.997 Y124.829
G0 X81 Y144.17
G0 X81 Y142.703
G0 X82.375 Y143.625
G0 X82.683 Y144.029
G0 X82.877 Y144.498
G0 X82.944 Y145
G0 X82.877 Y145.502
G0 X82.683 Y145.971
G0 X82.434 Y146.297
G0 X81.544 Y147.034
;TYPE:WALL-INNER
G1 F2700 E5.55348
G1 F1200 X82.052 Y146.824 E5.57177
G1 X82.489 Y146.489 E5.59008
G1 X82.824 Y146.052 E5.60839
G1 X83.034 Y145.544 E5.62668
G1 X83.105 Y145 E5.64492
G1 X83.034 Y144.456 E5.66317
G1 X82.824 Y143.948 E5.68145
G1 X82.489 Y143.511 E5.69977
G1 X82.052 Y143.176 E5.71808
G1 X81.544 Y142.966 E5.73637
G1 X81 Y142.895 E5.75461
G1 X80.456 Y142.966 E5.77286
G1 X79.948 Y143.176 E5.79114
G1 X79.511 Y143.511 E5.80946
G1 X79.176 Y143.948 E5.82777
G1 X78.966 Y144.456 E5.84605
G1 X78.895 Y145 E5.8643
G1 X78.966 Y145.544 E5.88255
G1 X79.176 Y146.052 E5.90083
G1 X79.511 Y146.489 E5.91914
G1 X79.948 Y146.824 E5.93746
G1 X80.456 Y147.034 E5.95574
G1 X81 Y147.105 E5.97399
G1 X81.544 Y147.034 E5.99224
G0 F6000 X81.44 Y146.644
;TYPE:WALL-OUTER
G1 F1200 X81.851 Y146.474 E6.00703
G1 X82.204 Y146.204 E6.02181
G1 X82.474 Y145.851 E6.03659
G1 X82.644 Y145.44 E6.05138
G1 X82.702 Y145 E6.06615
G1 X82.644 Y144.56 E6.08091
G1 X82.474 Y144.149 E6.0957
G1 X82.204 Y143.796 E6.11048
G1 X81.851 Y143.526 E6.12526
G1 X81.44 Y143.356 E6.14006
G1 X81 Y143.298 E6.15482
G1 X80.56 Y143.356 E6.16958
G1 X80.149 Y143.526 E6.18437
G1 X79.796 Y143.796 E6.19915
G1 X79.526 Y144.149 E6.21393
G1 X79.356 Y144.56 E6.22873
G1 X79.298 Y145 E6.24349
G1 X79.356 Y145.44 E6.25825
G1 X79.526 Y145.851 E6.27304
G1 X79.796 Y146.204 E6.28782
G1 X80.149 Y146.474 E6.30261
G1 X80.56 Y146.644 E6.3174
G1 X81 Y146.702 E6.33216
G1 X81.44 Y146.644 E6.34692
G0 F6000 X81.553 Y147.069
G1 F2700 E1.34692
G0 F6000 X82.99 Y146.149
G0 X82.99 Y148.19
G0 X143.4 Y148.4
;TYPE:WALL-INNER
G1 F2700 E6.34692
G1 F1200 X76.6 Y148.4 E8.5687
G1 X76.6 Y71.6 E11.12308
G1 X143.4 Y71.6 E13.34485
G1 X143.4 Y148.4 E15.89923
G0 F6000 X143.8 Y148.8
;TYPE:WALL-OUTER
G1 F1200 X76.2 Y148.8 E18.14762
G1 X76.2 Y71.2 E20.7286
G1 X143.8 Y71.2 E22.97699
G1 X143.8 Y148.8 E25.55797
G0 F6000 X143.53 Y148.53
G0 X143.29 Y148.01
G0 X143.01 Y148.01
;TYPE:SKIN
G1 F1200 X76.99 Y148.01 E27.75381
G1 X76.99 Y71.99 E30.28224
G1 X143.01 Y71.99 E32.47808
G1 X143.01 Y148.01 E35.00651
G1 F2700 E30.00651
G0 F6000 X143.29 Y148.01
G0 X140.569 Y148.58
G0 X139.952 Y147.092
G0 X140.569 Y146.567
G0 X140.768 Y146.768
G1 F2700 E35.00651
G1 F1200 X141.165 Y146.249 E35.02825
G1 X141.414 Y145.645 E35.04998
G1 X141.499 Y145 E35.07161
G1 X141.414 Y144.355 E35.09325
G1 X141.165 Y143.751 E35.11498
G1 X140.768 Y143.232 E35.13671
G1 X140.249 Y142.835 E35.15845
G1 X139.645 Y142.586 E35.18018
G1 X139 Y142.501 E35.20182
G1 X138.355 Y142.586 E35.22345
G1 X137.751 Y142.835 E35.24518
G1 X137.232 Y143.232 E35.26692
G1 X136.835 Y143.751 E35.28865
G1 X136.586 Y144.355 E35.31038
G1 X136.501 Y145 E35.33202
G1 X136.586 Y145.645 E35.35366
G1 X136.835 Y146.249 E35.37538
G1 X137.232 Y146.768 E35.39712
G1 X137.751 Y147.165 E35.41885
