;FLAVOR:Marlin
;TIME:3363
;Filament used: 2.128m
;Layer height: 0.2
;MINX:93.985
;MINY:39
;MINZ:0.2
;MAXX:125.952
;MAXY:169.8
;MAXZ:12
;Generated with Creality Slicer 4.8.2-254
M140 S50
M105
M190 S50
M104 S200
M105
M109 S200
M82 ;absolute extrusion mode

G28 ;Home

G92 E0 ;Reset Extruder
G1 Z2.0 F3000 ;Move Z Axis up
G1 X10.1 Y20 Z0.28 F5000.0 ;Move to start position
G1 X10.1 Y200.0 Z0.28 F1500.0 E15 ;Draw the first line
G1 X10.4 Y200.0 Z0.28 F5000.0 ;Move to side a little
G1 X10.4 Y20 Z0.28 F1500.0 E30 ;Draw the second line
G92 E0 ;Reset Extruder
G1 Z2.0 F3000 ;Move Z Axis up

G92 E0
G92 E0
G1 F2700 E-5
;LAYER_COUNT:60
;LAYER:0
M107
G0 F6000 X95.149 Y45.066 Z0.2
;TYPE:SKIRT
G1 F2700 E0
G1 F1200 X95.606 Y44.247 E0.03119
G1 X96.131 Y43.469 E0.06241
G1 X96.72 Y42.74 E0.09358
G1 X97.369 Y42.063 E0.12477
G1 X98.074 Y41.444 E0.15598
G1 X98.829 Y40.887 E0.18718
G1 X99.628 Y40.397 E0.21836
G1 X100.466 Y39.976 E0.24955
G1 X101.337 Y39.628 E0.28075
G1 X102.235 Y39.356 E0.31195
G1 X103.152 Y39.161 E0.34314
G1 X104.083 Y39.045 E0.37434
G1 X104.659 Y39.014 E0.39353
G1 X105.093 Y39.003 E0.40797
G1 X105.393 Y39 E0.41794
G1 X112.293 Y39 E0.64744
G1 X113.151 Y39.011 E0.67598
G1 X114.087 Y39.064 E0.70716
G1 X115.016 Y39.197 E0.73837
G1 X115.929 Y39.409 E0.76955
G1 X116.822 Y39.697 E0.80076
G1 X117.686 Y40.061 E0.83194
G1 X118.517 Y40.497 E0.86315
G1 X119.307 Y41.002 E0.89434
G1 X120.051 Y41.572 E0.92551
G1 X120.448 Y41.921 E0.94309
G1 X120.601 Y42.062 E0.95001
G1 X120.829 Y42.277 E0.96043
G1 X120.993 Y42.437 E0.96805
G1 X122.38 Y43.826 E1.03334
G1 X122.847 Y44.307 E1.05564
G1 X123.471 Y45.007 E1.08683
G1 X124.033 Y45.757 E1.118
G1 X124.529 Y46.553 E1.14919
G1 X124.956 Y47.389 E1.18042
G1 X125.31 Y48.257 E1.2116
G1 X125.588 Y49.153 E1.2428
G1 X125.79 Y50.069 E1.274
G1 X125.912 Y50.999 E1.30519
G1 X125.952 Y52.226 E1.34603
G1 X125.927 Y53.228 E1.37936
G1 X125.78 Y56.854 E1.50006
G1 X125.733 Y57.721 E1.52894
G1 X125.71 Y58.057 E1.54014
G1 X125.677 Y58.404 E1.55174
G1 X125.602 Y59.073 E1.57413
G1 X125.488 Y60.003 E1.60529
G1 X125.391 Y60.72 E1.62936
G1 X125.225 Y61.643 E1.66055
G1 X124.982 Y62.549 E1.69175
G1 X124.663 Y63.43 E1.72291
G1 X124.269 Y64.282 E1.75413
G1 X123.805 Y65.096 E1.78529
G1 X123.272 Y65.869 E1.81652
G1 X122.676 Y66.593 E1.84771
G1 X122.02 Y67.263 E1.8789
G1 X121.31 Y67.876 E1.9101
G1 X120.55 Y68.425 E1.94128
G1 X119.746 Y68.908 E1.97248
G1 X118.904 Y69.321 E2.00367
G1 X118.029 Y69.66 E2.03488
G1 X117.129 Y69.924 E2.06608
G1 X116.21 Y70.11 E2.09726
G1 X115.278 Y70.217 E2.12846
G1 X114.743 Y70.242 E2.14628
G1 X114.526 Y70.247 E2.1535
G1 X114.236 Y70.25 E2.16314
G1 X113.985 Y70.249 E2.17149
G1 X112.704 Y70.262 E2.2141
G1 X111.51 Y70.257 E2.25381
G1 X110.968 Y70.25 E2.27184
G1 X109.683 Y70.26 E2.31458
G1 X109.349 Y70.248 E2.3257
G1 X108.109 Y70.256 E2.36694
G1 X106.659 Y70.244 E2.41517
G1 X105.623 Y70.222 E2.44964
G1 X104.688 Y70.162 E2.4808
G1 X103.76 Y70.022 E2.51201
G1 X102.848 Y69.804 E2.5432
G1 X101.957 Y69.51 E2.57441
G1 X101.096 Y69.14 E2.60558
G1 X100.268 Y68.698 E2.63679
G1 X99.481 Y68.188 E2.66798
G1 X98.741 Y67.612 E2.69917
G1 X98.052 Y66.976 E2.73036
G1 X97.42 Y66.283 E2.76156
G1 X96.85 Y65.538 E2.79276
G1 X96.345 Y64.748 E2.82394
G1 X95.909 Y63.918 E2.85512
G1 X95.545 Y63.053 E2.88634
G1 X95.256 Y62.161 E2.91752
G1 X95.074 Y61.399 E2.94358
G1 X95.026 Y61.161 E2.95166
G1 X94.965 Y60.831 E2.96282
G1 X94.906 Y60.481 E2.97462
G1 X94.728 Y59.363 E3.01228
G1 X94.631 Y58.698 E3.03463
G1 X94.575 Y58.249 E3.04968
G1 X94.551 Y58.015 E3.0575
G1 X94.489 Y57.318 E3.08078
G1 X94.079 Y52.09 E3.25519
G1 X94.03 Y51.385 E3.2787
G1 X94.015 Y51.124 E3.28739
G1 X93.987 Y50.511 E3.3078
G1 X93.985 Y49.573 E3.339
G1 X94.062 Y48.638 E3.3702
G1 X94.218 Y47.714 E3.40137
G1 X94.453 Y46.806 E3.43257
G1 X94.764 Y45.921 E3.46377
G1 X95.149 Y45.066 E3.49495
G0 F6000 X95.553 Y45.155
G1 F1200 X96.009 Y44.356 E3.52555
G1 X96.534 Y43.599 E3.55619
G1 X97.122 Y42.891 E3.5868
G1 X97.769 Y42.236 E3.61742
G1 X98.471 Y41.64 E3.64805
G1 X99.221 Y41.107 E3.67866
G1 X100.016 Y40.641 E3.70931
G1 X100.847 Y40.246 E3.73991
G1 X101.71 Y39.925 E3.77053
G1 X102.597 Y39.679 E3.80115
G1 X103.503 Y39.512 E3.83179
G1 X104.671 Y39.413 E3.87078
G1 X105.097 Y39.403 E3.88495
G1 X105.393 Y39.4 E3.8948
G1 X112.293 Y39.4 E4.12429
G1 X113.145 Y39.411 E4.15263
G1 X114.064 Y39.464 E4.18325
G1 X114.975 Y39.597 E4.21387
G1 X115.871 Y39.808 E4.24448
G1 X116.746 Y40.096 E4.27512
G1 X117.592 Y40.459 E4.30574
G1 X118.403 Y40.894 E4.33635
G1 X119.174 Y41.398 E4.36699
G1 X120.177 Y42.215 E4.41001
G1 X120.33 Y42.356 E4.41693
G1 X120.549 Y42.564 E4.42698
G1 X120.806 Y42.816 E4.43895
G1 X122.093 Y44.104 E4.49951
G1 X122.56 Y44.585 E4.52181
G1 X123.172 Y45.273 E4.55244
G1 X123.722 Y46.011 E4.58305
G1 X124.206 Y46.794 E4.61366
G1 X124.62 Y47.617 E4.64431
G1 X124.961 Y48.472 E4.67492
G1 X125.227 Y49.353 E4.70553
G1 X125.415 Y50.254 E4.73614
G1 X125.525 Y51.169 E4.7668
G1 X125.552 Y52.217 E4.80166
G1 X125.533 Y53.03 E4.82871
G1 X125.38 Y56.837 E4.95544
G1 X125.334 Y57.699 E4.98415
G1 X125.311 Y58.025 E4.99502
G1 X125.279 Y58.359 E5.00618
G1 X125.205 Y59.024 E5.02843
G1 X125.091 Y59.949 E5.05943
G1 X124.994 Y60.666 E5.08349
G1 X124.831 Y61.572 E5.11411
G1 X124.59 Y62.461 E5.14475
G1 X124.273 Y63.325 E5.17536
G1 X123.882 Y64.159 E5.20599
G1 X123.421 Y64.955 E5.23659
G1 X122.891 Y65.708 E5.26721
G1 X122.299 Y66.413 E5.29783
G1 X121.647 Y67.064 E5.32848
G1 X120.942 Y67.655 E5.35907
G1 X120.188 Y68.183 E5.38969
G1 X119.391 Y68.644 E5.42031
G1 X118.557 Y69.034 E5.45094
G1 X117.692 Y69.35 E5.48157
G1 X116.803 Y69.59 E5.51219
G1 X115.897 Y69.751 E5.5428
G1 X114.734 Y69.842 E5.5816
G1 X114.517 Y69.847 E5.58882
G1 X114.237 Y69.85 E5.59813
G1 X113.982 Y69.849 E5.60661
G1 X112.705 Y69.862 E5.64909
G1 X111.515 Y69.857 E5.68867
G1 X110.97 Y69.85 E5.7068
G1 X109.68 Y69.86 E5.7497
G1 X109.352 Y69.848 E5.76062
G1 X108.113 Y69.856 E5.80183
G1 X106.668 Y69.844 E5.84989
G1 X105.632 Y69.822 E5.88436
G1 X104.713 Y69.762 E5.91499
G1 X103.803 Y69.623 E5.94561
G1 X102.909 Y69.406 E5.9762
G1 X102.036 Y69.111 E6.00685
G1 X101.193 Y68.743 E6.03745
G1 X100.384 Y68.302 E6.06809
G1 X99.617 Y67.793 E6.09871
G1 X98.897 Y67.219 E6.12933
G1 X98.23 Y66.585 E6.15994
G1 X97.62 Y65.895 E6.19057
G1 X97.072 Y65.155 E6.2212
G1 X96.59 Y64.371 E6.25181
G1 X96.179 Y63.547 E6.28244
G1 X95.84 Y62.691 E6.31306
G1 X95.577 Y61.809 E6.34367
G1 X95.466 Y61.32 E6.36035
G1 X95.418 Y61.082 E6.36842
G1 X95.359 Y60.764 E6.37918
G1 X95.301 Y60.418 E6.39085
G1 X95.124 Y59.305 E6.42833
G1 X95.027 Y58.64 E6.45069
G1 X94.972 Y58.205 E6.46527
G1 X94.949 Y57.979 E6.47282
G1 X94.887 Y57.287 E6.49593
G1 X94.479 Y52.062 E6.67025
G1 X94.43 Y51.357 E6.69375
G1 X94.415 Y51.106 E6.70211
G1 X94.387 Y50.493 E6.72252
G1 X94.385 Y49.572 E6.75316
G1 X94.463 Y48.655 E6.78377
G1 X94.62 Y47.748 E6.81438
G1 X94.855 Y46.857 E6.84503
G1 X95.167 Y45.991 E6.87565
G1 X95.553 Y45.155 E6.90627
G0 F6000 X95.956 Y45.247
G1 F1200 X96.413 Y44.468 E6.93631
G1 X96.936 Y43.732 E6.96634
G1 X97.523 Y43.045 E6.9964
G1 X98.168 Y42.413 E7.02643
G1 X98.867 Y41.841 E7.05647
G1 X99.613 Y41.333 E7.08649
G1 X100.402 Y40.892 E7.11655
G1 X101.226 Y40.523 E7.14658
G1 X102.08 Y40.229 E7.17662
G1 X102.956 Y40.011 E7.20665
G1 X103.848 Y39.872 E7.23667
G1 X104.682 Y39.813 E7.26448
G1 X105.102 Y39.803 E7.27845
G1 X105.393 Y39.8 E7.28813
G1 X112.293 Y39.8 E7.51763
G1 X113.139 Y39.811 E7.54577
G1 X114.041 Y39.864 E7.57582
G1 X114.934 Y39.996 E7.60585
G1 X115.813 Y40.207 E7.63591
G1 X116.669 Y40.495 E7.66595
G1 X117.496 Y40.857 E7.69598
G1 X118.288 Y41.291 E7.72601
G1 X119.038 Y41.794 E7.75605
G1 X119.906 Y42.509 E7.79345
G1 X120.059 Y42.65 E7.80037
G1 X120.27 Y42.85 E7.81004
G1 X120.434 Y43.01 E7.81766
G1 X121.806 Y44.383 E7.88222
G1 X122.273 Y44.864 E7.90452
G1 X122.873 Y45.539 E7.93456
G1 X123.411 Y46.265 E7.96461
G1 X123.882 Y47.035 E7.99463
G1 X124.284 Y47.844 E8.02468
G1 X124.612 Y48.685 E8.0547
G1 X124.865 Y49.552 E8.08474
G1 X125.039 Y50.438 E8.11477
G1 X125.135 Y51.336 E8.14481
G1 X125.152 Y52.207 E8.17379
G1 X125.128 Y53.195 E8.20666
G1 X124.974 Y56.97 E8.33232
G1 X124.935 Y57.677 E8.35587
G1 X124.912 Y57.994 E8.36644
G1 X124.882 Y58.315 E8.37716
G1 X124.808 Y58.976 E8.39929
G1 X124.695 Y59.895 E8.43008
G1 X124.598 Y60.612 E8.45415
G1 X124.437 Y61.501 E8.4842
G1 X124.199 Y62.372 E8.51423
G1 X123.884 Y63.219 E8.54428
G1 X123.496 Y64.034 E8.57431
G1 X123.037 Y64.812 E8.60435
G1 X122.511 Y65.546 E8.63439
G1 X121.922 Y66.231 E8.66443
G1 X121.275 Y66.861 E8.69447
G1 X120.575 Y67.431 E8.72449
G1 X119.827 Y67.937 E8.75453
G1 X119.037 Y68.375 E8.78457
G1 X118.212 Y68.742 E8.81461
G1 X117.357 Y69.034 E8.84466
G1 X116.48 Y69.249 E8.87469
G1 X115.587 Y69.386 E8.90474
G1 X114.725 Y69.442 E8.93347
G1 X114.508 Y69.447 E8.94069
G1 X114.238 Y69.45 E8.94967
G1 X113.979 Y69.449 E8.95828
G1 X112.707 Y69.462 E9.00059
G1 X111.52 Y69.457 E9.04007
G1 X110.972 Y69.45 E9.0583
G1 X109.677 Y69.46 E9.10137
G1 X109.355 Y69.448 E9.11209
G1 X108.116 Y69.456 E9.1533
G1 X106.676 Y69.444 E9.2012
G1 X105.64 Y69.422 E9.23566
G1 X104.739 Y69.363 E9.26569
G1 X103.847 Y69.224 E9.29572
G1 X102.97 Y69.007 E9.32577
G1 X102.116 Y68.713 E9.35581
G1 X101.292 Y68.345 E9.38582
G1 X100.503 Y67.906 E9.41585
G1 X99.756 Y67.398 E9.4459
G1 X99.057 Y66.826 E9.47594
G1 X98.411 Y66.195 E9.50598
G1 X97.823 Y65.509 E9.53603
G1 X97.299 Y64.774 E9.56605
G1 X96.842 Y63.995 E9.59609
G1 X96.455 Y63.179 E9.62613
G1 X96.142 Y62.332 E9.65616
G1 X95.858 Y61.241 E9.69366
G1 X95.81 Y61.003 E9.70173
G1 X95.753 Y60.697 E9.71208
G1 X95.696 Y60.354 E9.72365
G1 X95.52 Y59.247 E9.76093
G1 X95.423 Y58.582 E9.78328
G1 X95.37 Y58.16 E9.79743
G1 X95.348 Y57.943 E9.80468
G1 X95.286 Y57.256 E9.82763
G1 X94.878 Y52.034 E10.00184
G1 X94.829 Y51.329 E10.02534
G1 X94.815 Y51.087 E10.03341
G1 X94.787 Y50.474 E10.05382
G1 X94.785 Y49.571 E10.08385
G1 X94.864 Y48.672 E10.11387
G1 X95.022 Y47.782 E10.14393
G1 X95.258 Y46.911 E10.17395
G1 X95.57 Y46.063 E10.204
G1 X95.956 Y45.247 E10.23402
G1 F2700 E5.23402
;MESH:Butterfly_Knife_Handle2.STL
G0 F6000 X108.513 Y54.456
G0 X107.14 Y53.958
G0 X107.349 Y55.467
G0 X107.471 Y55.921
G0 X107.669 Y56.345
G0 X107.938 Y56.729
G0 X108.271 Y57.062
G0 X108.616 Y57.304
G0 X110 Y57.853
;TYPE:WALL-INNER
G1 F2700 E10.23402
G1 F1200 X110.496 Y57.809 E10.25058
G1 X110.976 Y57.68 E10.26712
G1 X111.426 Y57.471 E10.28362
G1 X111.833 Y57.186 E10.30014
G1 X112.186 Y56.833 E10.31675
G1 X112.471 Y56.426 E10.33327
G1 X112.68 Y55.976 E10.34978
G1 X112.809 Y55.496 E10.36631
G1 X112.853 Y55 E10.38287
G1 X112.809 Y54.504 E10.39943
G1 X112.68 Y54.024 E10.41596
G1 X112.471 Y53.574 E10.43246
G1 X112.186 Y53.167 E10.44899
G1 X111.833 Y52.814 E10.46559
G1 X111.426 Y52.529 E10.48212
G1 X110.976 Y52.32 E10.49862
G1 X110.496 Y52.191 E10.51515
G1 X110 Y52.147 E10.53172
G1 X109.504 Y52.191 E10.54828
G1 X109.024 Y52.32 E10.56481
G1 X108.574 Y52.529 E10.58131
G1 X108.167 Y52.814 E10.59784
G1 X107.814 Y53.167 E10.61444
G1 X107.529 Y53.574 E10.63097
G1 X107.32 Y54.024 E10.64747
G1 X107.191 Y54.504 E10.664
G1 X107.147 Y55 E10.68056
G1 X107.191 Y55.496 E10.69712
G1 X107.32 Y55.976 E10.71366
G1 X107.529 Y56.426 E10.73016
G1 X107.814 Y56.833 E10.74668
G1 X108.167 Y57.186 E10.76329
G1 X108.574 Y57.471 E10.77981
G1 X109.024 Y57.68 E10.79632
G1 X109.504 Y57.809 E10.81285
G1 X110 Y57.853 E10.82941
G0 F6000 X110 Y57.451
;TYPE:WALL-OUTER
G1 F1200 X110.426 Y57.414 E10.84363
G1 X110.839 Y57.303 E10.85786
G1 X111.225 Y57.123 E10.87202
G1 X111.575 Y56.878 E10.88623
G1 X111.878 Y56.575 E10.90048
G1 X112.123 Y56.225 E10.91469
G1 X112.303 Y55.839 E10.92886
G1 X112.414 Y55.426 E10.94308
G1 X112.451 Y55 E10.95731
G1 X112.414 Y54.574 E10.97153
G1 X112.303 Y54.161 E10.98575
G1 X112.123 Y53.775 E10.99992
G1 X111.878 Y53.425 E11.01413
G1 X111.575 Y53.122 E11.02838
G1 X111.225 Y52.877 E11.04259
G1 X110.839 Y52.697 E11.05675
G1 X110.426 Y52.586 E11.07098
G1 X110 Y52.549 E11.0852
G1 X109.574 Y52.586 E11.09942
G1 X109.161 Y52.697 E11.11365
G1 X108.775 Y52.877 E11.12781
G1 X108.425 Y53.122 E11.14202
G1 X108.122 Y53.425 E11.15627
G1 X107.877 Y53.775 E11.17048
G1 X107.697 Y54.161 E11.18465
G1 X107.586 Y54.574 E11.19887
G1 X107.549 Y55 E11.2131
G1 X107.586 Y55.426 E11.22732
G1 X107.697 Y55.839 E11.24154
G1 X107.877 Y56.225 E11.25571
G1 X108.122 Y56.575 E11.26992
G1 X108.425 Y56.878 E11.28417
G1 X108.775 Y57.123 E11.29838
G1 X109.161 Y57.303 E11.31254
G1 X109.574 Y57.414 E11.32677
G1 X110 Y57.451 E11.34099
G0 F6000 X110 Y57.891
G1 F2700 E6.34099
G0 F6000 X111.957 Y57.332
G0 X112.232 Y58.238
G0 X113.967 Y58.649
;TYPE:WALL-INNER
G1 F2700 E11.34099
G1 F1200 X112.404 Y58.646 E11.39298
G1 X112.203 Y58.484 E11.40156
G1 X111.885 Y58.635 E11.41327
G1 X111.8 Y58.617 E11.41616
G1 X111.427 Y58.618 E11.42857
G1 X111.13 Y58.655 E11.43852
G1 X110.808 Y58.638 E11.44925
G1 X110.463 Y58.647 E11.46072
G1 X110.086 Y58.589 E11.47341
G1 X109.961 Y58.588 E11.47757
G1 X109.578 Y58.646 E11.49045
G1 X109.235 Y58.638 E11.50186
G1 X108.918 Y58.655 E11.51242
G1 X108.624 Y58.618 E11.52228
G1 X108.253 Y58.617 E11.53462
G1 X108.18 Y58.633 E11.5371
G1 X108.08 Y58.585 E11.54079
G1 X106.356 Y58.622 E11.59815
G1 X106.102 Y57.042 E11.65137
G1 X105.624 Y50.942 E11.85488
G1 X105.62 Y50.879 E11.85698
G1 X105.603 Y50.6 E11.86628
G1 X105.62 Y50.6
G1 X105.684 Y50.6 E11.86818
G1 X112.752 Y50.6 E12.10326
G1 X114.358 Y52.206 E12.1788
G1 X114.162 Y57.056 E12.34024
G1 X113.967 Y58.649 E12.39362
G0 F6000 X114.321 Y59.05
;TYPE:WALL-OUTER
G1 F1200 X112.262 Y59.046 E12.46211
G1 X112.147 Y58.953 E12.46702
G1 X111.934 Y59.054 E12.47486
G1 X111.759 Y59.017 E12.48081
G1 X111.452 Y59.018 E12.49102
G1 X111.147 Y59.056 E12.50125
G1 X110.803 Y59.038 E12.5127
G1 X110.441 Y59.048 E12.52475
G1 X110.053 Y58.989 E12.5378
G1 X109.988 Y58.988 E12.53997
G1 X109.6 Y59.047 E12.55302
G1 X109.241 Y59.038 E12.56496
G1 X108.9 Y59.056 E12.57632
G1 X108.598 Y59.018 E12.58644
G1 X108.296 Y59.017 E12.59649
G1 X108.13 Y59.054 E12.60215
G1 X107.992 Y58.987 E12.60725
G1 X106.016 Y59.03 E12.67298
G1 X105.704 Y57.087 E12.73844
G1 X105.221 Y50.91 E12.94451
G1 X105.179 Y50.2 E12.96817
G1 X112.918 Y50.2 E13.22557
G1 X114.765 Y52.047 E13.31245
G1 X114.561 Y57.092 E13.48038
G1 X114.321 Y59.05 E13.54599
G0 F6000 X114.078 Y58.776
G0 X113.62 Y58.538
G0 X113.621 Y58.259
;TYPE:SKIN
G1 F1200 X112.543 Y58.256 E13.58185
G1 X112.257 Y58.026 E13.59405
G1 X111.834 Y58.227 E13.60963
G1 X111.402 Y58.228 E13.624
G1 X111.118 Y58.263 E13.63351
G1 X110.813 Y58.248 E13.64367
G1 X110.49 Y58.257 E13.65442
G1 X110.264 Y58.222 E13.66202
G1 X110.564 Y58.195 E13.67204
G1 X111.11 Y58.048 E13.69085
G1 X111.621 Y57.81 E13.7096
G1 X112.085 Y57.486 E13.72842
G1 X112.486 Y57.085 E13.74728
G1 X112.81 Y56.621 E13.76611
G1 X113.048 Y56.11 E13.78486
G1 X113.195 Y55.564 E13.80366
G1 X113.245 Y55 E13.82249
G1 X113.195 Y54.436 E13.84133
G1 X113.048 Y53.89 E13.86013
G1 X112.81 Y53.379 E13.87888
G1 X112.486 Y52.915 E13.8977
G1 X112.085 Y52.514 E13.91657
G1 X111.621 Y52.19 E13.93539
G1 X111.11 Y51.952 E13.95414
G1 X110.564 Y51.805 E13.97294
G1 X110 Y51.755 E13.99178
G1 X109.436 Y51.805 E14.01061
G1 X108.89 Y51.952 E14.02942
G1 X108.379 Y52.19 E14.04817
G1 X107.915 Y52.514 E14.06699
G1 X107.514 Y52.915 E14.08585
G1 X107.19 Y53.379 E14.10467
G1 X106.952 Y53.89 E14.12342
G1 X106.805 Y54.436 E14.14223
G1 X106.755 Y55 E14.16106
G1 X106.805 Y55.564 E14.17989
G1 X106.952 Y56.11 E14.1987
G1 X107.19 Y56.621 E14.21745
G1 X107.514 Y57.085 E14.23627
G1 X107.915 Y57.486 E14.25513
G1 X108.379 Y57.81 E14.27396
G1 X108.89 Y58.048 E14.2927
G1 X109.436 Y58.195 E14.31151
