;FLAVOR:Marlin
;TIME:4222
;Filament used: 2.78669m
;Layer height: 0.2
;MINX:70.2
;MINY:64.2
;MINZ:0.2
;MAXX:149.8
;MAXY:155.8
;MAXZ:5
;Generated with Creality Slicer 4.8.2-254
M140 S50
M105
M190 S50
M104 S200
M105
M109 S200
M82 ;absolute extrusion mode

G28 ;Home

G92 E0 ;Reset Extruder
G1 Z2.0 F3000 ;Move Z Axis up
G1 X10.1 Y20 Z0.28 F5000.0 ;Move to start position
G1 X10.1 Y200.0 Z0.28 F1500.0 E15 ;Draw the first line
G1 X10.4 Y200.0 Z0.28 F5000.0 ;Move to side a little
G1 X10.4 Y20 Z0.28 F1500.0 E30 ;Draw the second line
G92 E0 ;Reset Extruder
G1 Z2.0 F3000 ;Move Z Axis up

G92 E0
G92 E0
G1 F2700 E-5
;LAYER_COUNT:25
;LAYER:0
M107
G0 F6000 X72.08 Y67.039 Z0.2
;TYPE:SKIRT
G1 F2700 E0
G1 F1200 X72.485 Y66.602 E0.01982
G1 X72.602 Y66.485 E0.02532
G1 X73.188 Y65.955 E0.0516
G1 X73.824 Y65.488 E0.07784
G1 X74.504 Y65.087 E0.1041
G1 X75.222 Y64.757 E0.13038
G1 X75.969 Y64.502 E0.15664
G1 X76.738 Y64.323 E0.1829
G1 X77.522 Y64.223 E0.20918
G1 X78.117 Y64.2 E0.22899
G1 X141.883 Y64.2 E2.34985
G1 X142.672 Y64.24 E2.37613
G1 X143.452 Y64.359 E2.40237
G1 X144.217 Y64.557 E2.42866
G1 X144.957 Y64.831 E2.4549
G1 X145.666 Y65.179 E2.48117
G1 X146.337 Y65.597 E2.50746
G1 X146.961 Y66.08 E2.53371
G1 X147.398 Y66.485 E2.55353
G1 X147.515 Y66.602 E2.55903
G1 X148.045 Y67.188 E2.58531
G1 X148.512 Y67.824 E2.61155
G1 X148.913 Y68.504 E2.63781
G1 X149.243 Y69.222 E2.66409
G1 X149.498 Y69.969 E2.69034
G1 X149.677 Y70.738 E2.7166
G1 X149.777 Y71.522 E2.74289
G1 X149.8 Y72.117 E2.7627
G1 X149.8 Y147.883 E5.28268
G1 X149.76 Y148.672 E5.30896
G1 X149.641 Y149.452 E5.3352
G1 X149.443 Y150.217 E5.36149
G1 X149.169 Y150.957 E5.38773
G1 X148.821 Y151.666 E5.414
G1 X148.403 Y152.337 E5.44029
G1 X147.92 Y152.961 E5.46654
G1 X147.515 Y153.398 E5.48636
G1 X147.398 Y153.515 E5.49186
G1 X146.812 Y154.045 E5.51814
G1 X146.176 Y154.512 E5.54438
G1 X145.496 Y154.913 E5.57064
G1 X144.778 Y155.243 E5.59692
G1 X144.031 Y155.498 E5.62317
G1 X143.262 Y155.677 E5.64943
G1 X142.478 Y155.777 E5.67572
G1 X141.883 Y155.8 E5.69553
G1 X78.117 Y155.8 E7.81639
G1 X77.328 Y155.76 E7.84267
G1 X76.548 Y155.641 E7.86891
G1 X75.783 Y155.443 E7.89519
G1 X75.043 Y155.169 E7.92144
G1 X74.334 Y154.821 E7.94771
G1 X73.663 Y154.403 E7.974
G1 X73.039 Y153.92 E8.00025
G1 X72.602 Y153.515 E8.02006
G1 X72.485 Y153.398 E8.02557
G1 X71.955 Y152.812 E8.05185
G1 X71.488 Y152.176 E8.07809
G1 X71.087 Y151.496 E8.10435
G1 X70.757 Y150.778 E8.13063
G1 X70.502 Y150.031 E8.15688
G1 X70.323 Y149.262 E8.18314
G1 X70.223 Y148.478 E8.20943
G1 X70.2 Y147.883 E8.22924
G1 X70.2 Y72.117 E10.74922
G1 X70.24 Y71.328 E10.7755
G1 X70.359 Y70.548 E10.80174
G1 X70.557 Y69.783 E10.82802
G1 X70.831 Y69.043 E10.85427
G1 X71.179 Y68.334 E10.88054
G1 X71.597 Y67.663 E10.90683
G1 X72.08 Y67.039 E10.93308
G0 F6000 X72.475 Y67.194
G1 F1200 X72.767 Y66.884 E10.94724
G1 X72.884 Y66.767 E10.95275
G1 X73.456 Y66.253 E10.97832
G1 X74.078 Y65.8 E11.00392
G1 X74.743 Y65.414 E11.02949
G1 X75.445 Y65.099 E11.05508
G1 X76.176 Y64.859 E11.08067
G1 X76.927 Y64.696 E11.10623
G1 X77.692 Y64.612 E11.13183
G1 X78.117 Y64.6 E11.14597
G1 X141.883 Y64.6 E13.26683
G1 X142.651 Y64.64 E13.29241
G1 X143.411 Y64.759 E13.318
G1 X144.154 Y64.957 E13.34357
G1 X144.873 Y65.231 E13.36917
G1 X145.559 Y65.578 E13.39473
G1 X146.206 Y65.994 E13.42032
G1 X146.806 Y66.475 E13.4459
G1 X147.116 Y66.767 E13.46006
G1 X147.233 Y66.884 E13.46556
G1 X147.747 Y67.456 E13.49114
G1 X148.2 Y68.078 E13.51673
G1 X148.586 Y68.743 E13.54231
G1 X148.901 Y69.445 E13.5679
G1 X149.141 Y70.176 E13.59349
G1 X149.304 Y70.927 E13.61905
G1 X149.388 Y71.692 E13.64465
G1 X149.4 Y72.117 E13.65879
G1 X149.4 Y147.883 E16.17877
G1 X149.36 Y148.651 E16.20435
G1 X149.241 Y149.411 E16.22994
G1 X149.043 Y150.154 E16.25551
G1 X148.769 Y150.873 E16.2811
G1 X148.422 Y151.559 E16.30667
G1 X148.006 Y152.206 E16.33226
G1 X147.525 Y152.806 E16.35783
G1 X147.233 Y153.116 E16.372
G1 X147.116 Y153.233 E16.3775
G1 X146.544 Y153.747 E16.40308
G1 X145.922 Y154.2 E16.42867
G1 X145.257 Y154.586 E16.45425
G1 X144.555 Y154.901 E16.47984
G1 X143.824 Y155.141 E16.50543
G1 X143.073 Y155.304 E16.53099
G1 X142.308 Y155.388 E16.55659
G1 X141.883 Y155.4 E16.57073
G1 X78.117 Y155.4 E18.69159
G1 X77.349 Y155.36 E18.71717
G1 X76.589 Y155.241 E18.74276
G1 X75.846 Y155.043 E18.76833
G1 X75.127 Y154.769 E18.79392
G1 X74.441 Y154.422 E18.81949
G1 X73.794 Y154.006 E18.84508
G1 X73.194 Y153.525 E18.87065
G1 X72.884 Y153.233 E18.88482
G1 X72.767 Y153.116 E18.89032
G1 X72.253 Y152.544 E18.9159
G1 X71.8 Y151.922 E18.94149
G1 X71.414 Y151.257 E18.96706
G1 X71.099 Y150.555 E18.99266
G1 X70.859 Y149.824 E19.01825
G1 X70.696 Y149.073 E19.04381
G1 X70.612 Y148.308 E19.0694
G1 X70.6 Y147.883 E19.08354
G1 X70.6 Y72.117 E21.60353
G1 X70.64 Y71.349 E21.62911
G1 X70.759 Y70.589 E21.6547
G1 X70.957 Y69.846 E21.68027
G1 X71.231 Y69.127 E21.70586
G1 X71.578 Y68.441 E21.73143
G1 X71.994 Y67.794 E21.75702
G1 X72.475 Y67.194 E21.78259
G0 F6000 X72.392 Y67.928
G1 F1200 X73.05 Y67.167 E21.81605
G1 X73.167 Y67.05 E21.82156
G1 X73.724 Y66.55 E21.84645
G1 X74.33 Y66.113 E21.8713
G1 X74.98 Y65.742 E21.89619
G1 X75.666 Y65.443 E21.92108
G1 X76.38 Y65.219 E21.94597
G1 X77.113 Y65.072 E21.97084
G1 X78.117 Y65 E22.00432
G1 X141.883 Y65 E24.12518
G1 X142.63 Y65.04 E24.15006
G1 X143.368 Y65.159 E24.17493
G1 X144.09 Y65.357 E24.19983
G1 X144.786 Y65.63 E24.22469
G1 X145.449 Y65.977 E24.24958
G1 X146.072 Y66.392 E24.27448
G1 X146.833 Y67.05 E24.30794
G1 X146.95 Y67.167 E24.31344
G1 X147.45 Y67.724 E24.33834
G1 X147.887 Y68.33 E24.36319
G1 X148.258 Y68.98 E24.38808
G1 X148.557 Y69.666 E24.41297
G1 X148.781 Y70.38 E24.43786
G1 X148.928 Y71.113 E24.46272
G1 X149 Y72.117 E24.4962
G1 X149 Y147.883 E27.01619
G1 X148.96 Y148.63 E27.04107
G1 X148.841 Y149.368 E27.06593
G1 X148.643 Y150.09 E27.09083
G1 X148.37 Y150.786 E27.1157
G1 X148.023 Y151.449 E27.14059
G1 X147.608 Y152.072 E27.16549
G1 X146.95 Y152.833 E27.19895
G1 X146.833 Y152.95 E27.20445
G1 X146.276 Y153.45 E27.22935
G1 X145.67 Y153.887 E27.2542
G1 X145.02 Y154.258 E27.27909
G1 X144.334 Y154.557 E27.30398
G1 X143.62 Y154.781 E27.32887
G1 X142.887 Y154.928 E27.35373
G1 X141.883 Y155 E27.38721
G1 X78.117 Y155 E29.50808
G1 X77.37 Y154.96 E29.53296
G1 X76.632 Y154.841 E29.55782
G1 X75.91 Y154.643 E29.58272
G1 X75.214 Y154.37 E29.60759
G1 X74.551 Y154.023 E29.63248
G1 X73.928 Y153.608 E29.65737
G1 X73.167 Y152.95 E29.69084
G1 X73.05 Y152.833 E29.69634
G1 X72.55 Y152.276 E29.72123
G1 X72.113 Y151.67 E29.74608
G1 X71.742 Y151.02 E29.77098
G1 X71.443 Y150.334 E29.79587
G1 X71.219 Y149.62 E29.82075
G1 X71.072 Y148.887 E29.84562
G1 X71 Y147.883 E29.8791
G1 X71 Y72.117 E32.39909
G1 X71.04 Y71.37 E32.42397
G1 X71.159 Y70.632 E32.44883
G1 X71.357 Y69.91 E32.47373
G1 X71.63 Y69.214 E32.4986
G1 X71.977 Y68.551 E32.52349
G1 X72.392 Y67.928 E32.54838
G0 F6000 X72.789 Y68.067
G1 F1200 X73.333 Y67.45 E32.57574
G1 X73.45 Y67.333 E32.58125
G1 X73.991 Y66.849 E32.60539
G1 X74.582 Y66.426 E32.62956
G1 X75.216 Y66.072 E32.65371
G1 X75.885 Y65.789 E32.67787
G1 X76.581 Y65.581 E32.70203
G1 X77.296 Y65.451 E32.7262
G1 X78.117 Y65.4 E32.75356
G1 X141.883 Y65.4 E34.87443
G1 X142.608 Y65.44 E34.89858
G1 X143.325 Y65.559 E34.92275
G1 X144.024 Y65.757 E34.94692
G1 X144.697 Y66.03 E34.97107
G1 X145.336 Y66.375 E34.99523
G1 X145.933 Y66.789 E35.01939
G1 X146.55 Y67.333 E35.04675
G1 X146.667 Y67.45 E35.05225
G1 X147.151 Y67.991 E35.0764
G1 X147.574 Y68.582 E35.10057
G1 X147.928 Y69.216 E35.12472
G1 X148.211 Y69.885 E35.14888
G1 X148.419 Y70.581 E35.17304
G1 X148.549 Y71.296 E35.19721
G1 X148.6 Y72.117 E35.22457
G1 X148.6 Y147.883 E37.74456
G1 X148.56 Y148.608 E37.76871
G1 X148.441 Y149.325 E37.79288
G1 X148.243 Y150.024 E37.81705
G1 X147.97 Y150.697 E37.8412
G1 X147.625 Y151.336 E37.86535
G1 X147.211 Y151.933 E37.88952
G1 X146.667 Y152.55 E37.91688
G1 X146.55 Y152.667 E37.92238
G1 X146.009 Y153.151 E37.94652
G1 X145.418 Y153.574 E37.9707
G1 X144.784 Y153.928 E37.99485
G1 X144.115 Y154.211 E38.01901
G1 X143.419 Y154.419 E38.04317
G1 X142.704 Y154.549 E38.06734
G1 X141.883 Y154.6 E38.0947
G1 X78.117 Y154.6 E40.21556
G1 X77.392 Y154.56 E40.23971
G1 X76.675 Y154.441 E40.26389
G1 X75.976 Y154.243 E40.28805
G1 X75.303 Y153.97 E40.31221
G1 X74.664 Y153.625 E40.33636
G1 X74.067 Y153.211 E40.36052
G1 X73.45 Y152.667 E40.38788
G1 X73.333 Y152.55 E40.39339
G1 X72.849 Y152.009 E40.41753
G1 X72.426 Y151.418 E40.4417
G1 X72.072 Y150.784 E40.46585
G1 X71.789 Y150.115 E40.49001
G1 X71.581 Y149.419 E40.51417
G1 X71.451 Y148.704 E40.53835
G1 X71.4 Y147.883 E40.5657
G1 X71.4 Y72.117 E43.08569
G1 X71.44 Y71.392 E43.10984
G1 X71.559 Y70.675 E43.13402
G1 X71.757 Y69.976 E43.15818
G1 X72.03 Y69.303 E43.18233
G1 X72.375 Y68.664 E43.20649
G1 X72.789 Y68.067 E43.23065
G0 F6000 X73.185 Y68.211
G1 F1200 X73.616 Y67.733 E43.25206
G1 X73.733 Y67.616 E43.25756
G1 X74.258 Y67.147 E43.28098
G1 X74.833 Y66.741 E43.30439
G1 X75.451 Y66.403 E43.32782
G1 X76.102 Y66.136 E43.35122
G1 X76.78 Y65.946 E43.37464
G1 X77.475 Y65.833 E43.39806
G1 X78.117 Y65.8 E43.41944
G1 X141.883 Y65.8 E45.5403
G1 X142.586 Y65.84 E45.56372
G1 X143.28 Y65.959 E45.58714
G1 X143.955 Y66.157 E45.61054
G1 X144.604 Y66.429 E45.63394
G1 X145.218 Y66.774 E45.65737
G1 X145.789 Y67.185 E45.68077
G1 X146.267 Y67.616 E45.70218
G1 X146.384 Y67.733 E45.70768
G1 X146.853 Y68.258 E45.73109
G1 X147.259 Y68.833 E45.7545
G1 X147.597 Y69.451 E45.77793
G1 X147.864 Y70.102 E45.80134
G1 X148.054 Y70.78 E45.82475
G1 X148.167 Y71.475 E45.84817
G1 X148.2 Y72.117 E45.86956
G1 X148.2 Y147.883 E48.38954
G1 X148.16 Y148.586 E48.41296
G1 X148.041 Y149.28 E48.43638
G1 X147.843 Y149.955 E48.45978
G1 X147.571 Y150.604 E48.48318
G1 X147.226 Y151.218 E48.50661
G1 X146.815 Y151.789 E48.53001
G1 X146.384 Y152.267 E48.55141
G1 X146.267 Y152.384 E48.55692
G1 X145.742 Y152.853 E48.58033
G1 X145.167 Y153.259 E48.60374
G1 X144.549 Y153.597 E48.62717
G1 X143.898 Y153.864 E48.65057
G1 X143.22 Y154.054 E48.67399
G1 X142.525 Y154.167 E48.69741
G1 X141.883 Y154.2 E48.71879
G1 X78.117 Y154.2 E50.83966
G1 X77.414 Y154.16 E50.86308
G1 X76.72 Y154.041 E50.8865
G1 X76.045 Y153.843 E50.9099
G1 X75.396 Y153.571 E50.9333
G1 X74.782 Y153.226 E50.95673
G1 X74.211 Y152.815 E50.98013
G1 X73.733 Y152.384 E51.00153
G1 X73.616 Y152.267 E51.00704
G1 X73.147 Y151.742 E51.03045
G1 X72.741 Y151.167 E51.05386
G1 X72.403 Y150.549 E51.07729
G1 X72.136 Y149.898 E51.10069
G1 X71.946 Y149.22 E51.12411
G1 X71.833 Y148.525 E51.14753
G1 X71.8 Y147.883 E51.16891
G1 X71.8 Y72.117 E53.6889
G1 X71.84 Y71.414 E53.71232
G1 X71.959 Y70.72 E53.73574
G1 X72.157 Y70.045 E53.75913
G1 X72.429 Y69.396 E53.78254
G1 X72.774 Y68.782 E53.80596
G1 X73.185 Y68.211 E53.82936
G0 F6000 X73.582 Y68.359
G1 F1200 X73.899 Y68.016 E53.8449
G1 X74.016 Y67.899 E53.8504
G1 X74.525 Y67.446 E53.87306
G1 X75.083 Y67.057 E53.89569
G1 X75.683 Y66.735 E53.91834
G1 X76.317 Y66.486 E53.94099
G1 X76.976 Y66.313 E53.96365
G1 X77.65 Y66.219 E53.98629
G1 X78.117 Y66.2 E54.00183
G1 X141.883 Y66.2 E56.1227
G1 X142.563 Y66.24 E56.14535
G1 X143.233 Y66.359 E56.16799
G1 X143.885 Y66.556 E56.19064
G1 X144.509 Y66.828 E56.21328
G1 X145.097 Y67.172 E56.23594
G1 X145.641 Y67.582 E56.2586
G1 X145.984 Y67.899 E56.27413
G1 X146.101 Y68.016 E56.27963
G1 X146.554 Y68.525 E56.3023
G1 X146.943 Y69.083 E56.32492
G1 X147.265 Y69.683 E56.34757
G1 X147.514 Y70.317 E56.37022
G1 X147.687 Y70.976 E56.39289
G1 X147.781 Y71.65 E56.41552
G1 X147.8 Y72.117 E56.43106
G1 X147.8 Y147.883 E58.95105
G1 X147.76 Y148.563 E58.97371
G1 X147.641 Y149.233 E58.99634
G1 X147.444 Y149.885 E59.019
G1 X147.172 Y150.509 E59.04164
G1 X146.828 Y151.097 E59.06429
G1 X146.418 Y151.641 E59.08695
G1 X146.101 Y151.984 E59.10248
G1 X145.984 Y152.101 E59.10799
G1 X145.475 Y152.554 E59.13065
G1 X144.917 Y152.943 E59.15327
G1 X144.317 Y153.265 E59.17592
G1 X143.683 Y153.514 E59.19858
G1 X143.024 Y153.687 E59.22124
G1 X142.35 Y153.781 E59.24387
G1 X141.883 Y153.8 E59.25942
G1 X78.117 Y153.8 E61.38028
G1 X77.437 Y153.76 E61.40294
G1 X76.767 Y153.641 E61.42557
G1 X76.115 Y153.444 E61.44823
G1 X75.491 Y153.172 E61.47087
G1 X74.903 Y152.828 E61.49353
G1 X74.359 Y152.418 E61.51618
G1 X74.016 Y152.101 E61.53172
G1 X73.899 Y151.984 E61.53722
G1 X73.446 Y151.475 E61.55988
G1 X73.057 Y150.917 E61.58251
G1 X72.735 Y150.317 E61.60516
G1 X72.486 Y149.683 E61.62781
G1 X72.313 Y149.024 E61.65047
G1 X72.219 Y148.35 E61.67311
G1 X72.2 Y147.883 E61.68865
G1 X72.2 Y72.117 E64.20864
G1 X72.24 Y71.437 E64.23129
G1 X72.359 Y70.767 E64.25393
G1 X72.556 Y70.115 E64.27658
G1 X72.828 Y69.491 E64.29922
G1 X73.172 Y68.903 E64.32188
G1 X73.582 Y68.359 E64.34454
G0 F6000 X74.182 Y68.299
G1 F1200 X74.299 Y68.182 E64.35004
G1 X74.791 Y67.746 E64.3719
G1 X75.332 Y67.374 E64.39374
G1 X75.914 Y67.07 E64.41558
G1 X76.529 Y66.839 E64.43743
G1 X77.168 Y66.684 E64.4593
G1 X78.117 Y66.6 E64.49099
G1 X141.883 Y66.6 E66.61185
G1 X142.539 Y66.64 E66.63371
G1 X143.185 Y66.759 E66.65556
G1 X143.812 Y66.956 E66.67742
G1 X144.41 Y67.228 E66.69927
G1 X144.971 Y67.57 E66.72112
G1 X145.701 Y68.182 E66.75281
G1 X145.818 Y68.299 E66.75831
G1 X146.254 Y68.791 E66.78017
G1 X146.626 Y69.332 E66.80201
G1 X146.93 Y69.914 E66.82385
G1 X147.161 Y70.529 E66.8457
G1 X147.316 Y71.168 E66.86757
G1 X147.4 Y72.117 E66.89926
G1 X147.4 Y147.883 E69.41925
G1 X147.36 Y148.539 E69.4411
G1 X147.241 Y149.185 E69.46295
G1 X147.044 Y149.812 E69.48481
G1 X146.772 Y150.41 E69.50666
G1 X146.43 Y150.971 E69.52851
G1 X145.818 Y151.701 E69.5602
G1 X145.701 Y151.818 E69.5657
G1 X145.209 Y152.254 E69.58757
G1 X144.668 Y152.626 E69.6094
G1 X144.086 Y152.93 E69.63124
G1 X143.471 Y153.161 E69.65309
G1 X142.832 Y153.316 E69.67496
G1 X141.883 Y153.4 E69.70665
G1 X78.117 Y153.4 E71.82752
G1 X77.461 Y153.36 E71.84937
G1 X76.815 Y153.241 E71.87122
G1 X76.188 Y153.044 E71.89308
G1 X75.59 Y152.772 E71.91493
G1 X75.029 Y152.43 E71.93678
G1 X74.299 Y151.818 E71.96847
G1 X74.182 Y151.701 E71.97397
G1 X73.746 Y151.209 E71.99584
G1 X73.374 Y150.668 E72.01767
G1 X73.07 Y150.086 E72.03951
G1 X72.839 Y149.471 E72.06136
G1 X72.684 Y148.832 E72.08323
G1 X72.6 Y147.883 E72.11492
G1 X72.6 Y72.117 E74.63491
G1 X72.64 Y71.461 E74.65677
G1 X72.759 Y70.815 E74.67861
G1 X72.956 Y70.188 E74.70047
G1 X73.228 Y69.59 E74.72232
G1 X73.57 Y69.029 E74.74418
G1 X74.182 Y68.299 E74.77586
G0 F6000 X74.464 Y68.581
G1 F1200 X74.581 Y68.464 E74.78136
G1 X75.056 Y68.047 E74.80239
G1 X75.579 Y67.692 E74.82341
G1 X76.143 Y67.406 E74.84444
G1 X76.738 Y67.194 E74.86545
G1 X77.356 Y67.058 E74.8865
G1 X78.117 Y67 E74.91188
G1 X141.883 Y67 E77.03275
G1 X142.514 Y67.04 E77.05378
G1 X143.135 Y67.159 E77.07481
G1 X143.735 Y67.356 E77.09581
G1 X144.307 Y67.627 E77.11686
G1 X144.839 Y67.967 E77.13786
G1 X145.419 Y68.464 E77.16327
G1 X145.536 Y68.581 E77.16877
G1 X145.953 Y69.056 E77.18979
G1 X146.308 Y69.579 E77.21082
G1 X146.594 Y70.143 E77.23185
G1 X146.806 Y70.738 E77.25286
G1 X146.942 Y71.356 E77.2739
G1 X147 Y72.117 E77.29929
G1 X147 Y147.883 E79.81928
G1 X146.96 Y148.514 E79.84031
G1 X146.841 Y149.135 E79.86134
G1 X146.644 Y149.735 E79.88234
G1 X146.373 Y150.307 E79.90339
G1 X146.033 Y150.839 E79.92439
G1 X145.536 Y151.419 E79.9498
G1 X145.419 Y151.536 E79.9553
G1 X144.944 Y151.953 E79.97632
G1 X144.421 Y152.308 E79.99735
G1 X143.857 Y152.594 E80.01838
G1 X143.262 Y152.806 E80.03939
G1 X142.644 Y152.942 E80.06043
G1 X141.883 Y153 E80.08582
G1 X78.117 Y153 E82.20668
G1 X77.486 Y152.96 E82.22771
G1 X76.865 Y152.841 E82.24874
G1 X76.265 Y152.644 E82.26975
G1 X75.693 Y152.373 E82.2908
G1 X75.161 Y152.033 E82.3118
