;FLAVOR:Marlin
;TIME:1570
;Filament used: 0.709083m
;Layer height: 0.2
;MINX:69.05
;MINY:59.727
;MINZ:0.2
;MAXX:147.126
;MAXY:148.995
;MAXZ:5.6
;Generated with Creality Slicer 4.8.2-254
M140 S50
M105
M190 S50
M104 S200
M105
M109 S200
M82 ;absolute extrusion mode

G28 ;Home

G92 E0 ;Reset Extruder
G1 Z2.0 F3000 ;Move Z Axis up
G1 X10.1 Y20 Z0.28 F5000.0 ;Move to start position
G1 X10.1 Y200.0 Z0.28 F1500.0 E15 ;Draw the first line
G1 X10.4 Y200.0 Z0.28 F5000.0 ;Move to side a little
G1 X10.4 Y20 Z0.28 F1500.0 E30 ;Draw the second line
G92 E0 ;Reset Extruder
G1 Z2.0 F3000 ;Move Z Axis up

G92 E0
G92 E0
G1 F2700 E-5
;LAYER_COUNT:28
;LAYER:0
M107
G0 F6000 X104.212 Y63.709 Z0.2
;TYPE:SKIRT
G1 F2700 E0
G1 F1200 X104.644 Y63.048 E0.02626
G1 X105.141 Y62.434 E0.05254
G1 X105.53 Y62.029 E0.07121
G1 X105.647 Y61.916 E0.07662
G1 X106.242 Y61.397 E0.10289
G1 X106.887 Y60.941 E0.12916
G1 X107.574 Y60.552 E0.15542
G1 X108.297 Y60.235 E0.18167
G1 X109.049 Y59.992 E0.20796
G1 X109.821 Y59.827 E0.23422
G1 X110.606 Y59.741 E0.26048
G1 X111.088 Y59.727 E0.27652
G1 X111.436 Y59.728 E0.28809
G1 X112.225 Y59.77 E0.31437
G1 X113.005 Y59.892 E0.34063
G1 X113.769 Y60.092 E0.3669
G1 X114.509 Y60.368 E0.39317
G1 X115.217 Y60.718 E0.41944
G1 X115.886 Y61.137 E0.44569
G1 X116.509 Y61.622 E0.47195
G1 X116.857 Y61.941 E0.48765
G1 X116.973 Y62.054 E0.49304
G1 X117.51 Y62.633 E0.5193
G1 X117.985 Y63.263 E0.54555
G1 X118.395 Y63.938 E0.57181
G1 X118.734 Y64.651 E0.59807
G1 X119 Y65.395 E0.62435
G1 X119.188 Y66.162 E0.65062
G1 X119.299 Y66.944 E0.67689
G1 X119.328 Y67.47 E0.69441
G1 X119.438 Y72.478 E0.86101
G1 X119.551 Y79.787 E1.10414
G1 X119.523 Y80.577 E1.13043
G1 X119.416 Y81.359 E1.15669
G1 X119.23 Y82.126 E1.18294
G1 X118.967 Y82.871 E1.20921
G1 X118.631 Y83.586 E1.23549
G1 X118.224 Y84.262 E1.26173
G1 X117.75 Y84.894 E1.28801
G1 X117.314 Y85.376 E1.30963
G1 X117.197 Y85.495 E1.31518
G1 X116.616 Y86.03 E1.34145
G1 X115.983 Y86.503 E1.36773
G1 X115.306 Y86.909 E1.39398
G1 X114.591 Y87.245 E1.42026
G1 X113.846 Y87.507 E1.44653
G1 X113.079 Y87.692 E1.47277
G1 X112.296 Y87.799 E1.49905
G1 X111.635 Y87.827 E1.52106
G1 X110.845 Y87.827 E1.54733
G1 X110.056 Y87.787 E1.57361
G1 X109.276 Y87.668 E1.59985
G1 X108.511 Y87.47 E1.62613
G1 X107.771 Y87.196 E1.65238
G1 X107.062 Y86.848 E1.67865
G1 X106.391 Y86.43 E1.70494
G1 X105.767 Y85.947 E1.73119
G1 X105.283 Y85.495 E1.75321
G1 X105.166 Y85.376 E1.75876
G1 X104.642 Y84.786 E1.78501
G1 X104.18 Y84.146 E1.81126
G1 X103.785 Y83.462 E1.83753
G1 X103.461 Y82.742 E1.86379
G1 X103.212 Y81.992 E1.89008
G1 X103.039 Y81.222 E1.91633
G1 X102.946 Y80.437 E1.94262
G1 X102.929 Y79.787 E1.96425
G1 X102.945 Y78.748 E1.99881
G1 X102.518 Y78.175 E2.02257
G1 X102.318 Y77.873 E2.03462
G1 X101.916 Y77.193 E2.0609
G1 X101.584 Y76.476 E2.08718
G1 X101.327 Y75.73 E2.11342
G1 X101.147 Y74.961 E2.13969
G1 X101.076 Y74.488 E2.1556
G1 X101.034 Y74.135 E2.16742
G1 X100.98 Y73.347 E2.19369
G1 X101.007 Y72.557 E2.21998
G1 X101.113 Y71.775 E2.24623
G1 X101.297 Y71.007 E2.27249
G1 X101.559 Y70.262 E2.29876
G1 X101.894 Y69.547 E2.32502
G1 X102.3 Y68.87 E2.35128
G1 X102.772 Y68.237 E2.37754
G1 X103.143 Y67.833 E2.39578
G1 X103.151 Y67.47 E2.40786
G1 X103.208 Y66.683 E2.4341
G1 X103.344 Y65.905 E2.46037
G1 X103.559 Y65.145 E2.48664
G1 X103.849 Y64.41 E2.51292
G1 X104.212 Y63.709 E2.53918
G0 F6000 X104.608 Y63.825
G1 F1200 X105.039 Y63.187 E2.56479
G1 X105.533 Y62.598 E2.59036
G1 X105.808 Y62.317 E2.60343
G1 X105.925 Y62.204 E2.60884
G1 X106.505 Y61.699 E2.63442
G1 X107.135 Y61.257 E2.66002
G1 X107.807 Y60.883 E2.6856
G1 X108.514 Y60.581 E2.71117
G1 X109.249 Y60.354 E2.73675
G1 X110.003 Y60.204 E2.76232
G1 X111.087 Y60.127 E2.79847
G1 X111.435 Y60.128 E2.81004
G1 X112.203 Y60.17 E2.83562
G1 X112.963 Y60.292 E2.86123
G1 X113.705 Y60.492 E2.88679
G1 X114.423 Y60.768 E2.91237
G1 X115.109 Y61.116 E2.93795
G1 X115.754 Y61.535 E2.96354
G1 X116.578 Y62.227 E2.99932
G1 X116.694 Y62.34 E3.00471
G1 X117.216 Y62.905 E3.0303
G1 X117.677 Y63.521 E3.05589
G1 X118.071 Y64.181 E3.08145
G1 X118.395 Y64.879 E3.10705
G1 X118.645 Y65.606 E3.13262
G1 X118.818 Y66.356 E3.15822
G1 X118.928 Y67.478 E3.19571
G1 X119.038 Y72.485 E3.36229
G1 X119.151 Y79.794 E3.60541
G1 X119.123 Y80.562 E3.63098
G1 X119.015 Y81.324 E3.65657
G1 X118.829 Y82.07 E3.68214
G1 X118.566 Y82.793 E3.70773
G1 X118.23 Y83.485 E3.73332
G1 X117.824 Y84.138 E3.75889
G1 X117.352 Y84.745 E3.78447
G1 X117.029 Y85.096 E3.80033
G1 X116.912 Y85.215 E3.80588
G1 X116.345 Y85.735 E3.83147
G1 X115.727 Y86.193 E3.85706
G1 X115.065 Y86.584 E3.88263
G1 X114.366 Y86.905 E3.90821
G1 X113.637 Y87.151 E3.9338
G1 X112.887 Y87.32 E3.95937
G1 X112.123 Y87.411 E3.98496
G1 X111.635 Y87.427 E4.0012
G1 X110.845 Y87.427 E4.02748
G1 X110.077 Y87.387 E4.05306
G1 X109.317 Y87.268 E4.07864
G1 X108.574 Y87.07 E4.10422
G1 X107.855 Y86.796 E4.12981
G1 X107.169 Y86.449 E4.15538
G1 X106.522 Y86.033 E4.18096
G1 X105.922 Y85.552 E4.20654
G1 X105.568 Y85.215 E4.22279
G1 X105.451 Y85.096 E4.22834
G1 X104.941 Y84.52 E4.25393
G1 X104.494 Y83.895 E4.27949
G1 X104.114 Y83.226 E4.30508
G1 X103.805 Y82.522 E4.33065
G1 X103.571 Y81.789 E4.35624
G1 X103.414 Y81.036 E4.38183
G1 X103.337 Y80.271 E4.4074
G1 X103.329 Y79.794 E4.42327
G1 X103.348 Y78.594 E4.46318
G1 X102.851 Y77.954 E4.49013
G1 X102.651 Y77.652 E4.50218
G1 X102.26 Y76.989 E4.52778
G1 X101.941 Y76.29 E4.55334
G1 X101.695 Y75.561 E4.57893
G1 X101.473 Y74.44 E4.61694
G1 X101.431 Y74.087 E4.62876
G1 X101.38 Y73.32 E4.65433
G1 X101.409 Y72.551 E4.67992
G1 X101.517 Y71.79 E4.70549
G1 X101.704 Y71.044 E4.73107
G1 X101.968 Y70.321 E4.75667
G1 X102.304 Y69.63 E4.78222
G1 X102.711 Y68.977 E4.80781
G1 X103.184 Y68.37 E4.83341
G1 X103.54 Y68 E4.85049
G1 X103.551 Y67.479 E4.86782
G1 X103.607 Y66.712 E4.8934
G1 X103.743 Y65.955 E4.91898
G1 X103.957 Y65.216 E4.94457
G1 X104.247 Y64.503 E4.97017
G1 X104.608 Y63.825 E4.99572
G0 F6000 X105.005 Y63.943
G1 F1200 X105.433 Y63.33 E5.02058
G1 X106.086 Y62.605 E5.05303
G1 X106.203 Y62.492 E5.05844
G1 X106.768 Y62.002 E5.08332
G1 X107.382 Y61.575 E5.10819
G1 X108.039 Y61.216 E5.1331
G1 X108.729 Y60.929 E5.15795
G1 X109.447 Y60.717 E5.18285
G1 X110.183 Y60.583 E5.20773
G1 X111.086 Y60.527 E5.23782
G1 X111.434 Y60.528 E5.2494
G1 X112.181 Y60.57 E5.27428
G1 X112.919 Y60.692 E5.29916
G1 X113.64 Y60.891 E5.32404
G1 X114.336 Y61.167 E5.34894
G1 X114.998 Y61.515 E5.37382
G1 X115.619 Y61.932 E5.3987
G1 X116.298 Y62.514 E5.42844
G1 X116.414 Y62.627 E5.43383
G1 X116.922 Y63.177 E5.45873
G1 X117.367 Y63.778 E5.4836
G1 X117.746 Y64.423 E5.50848
G1 X118.054 Y65.104 E5.53334
G1 X118.288 Y65.815 E5.55824
G1 X118.444 Y66.547 E5.58313
G1 X118.528 Y67.487 E5.61452
G1 X118.638 Y72.491 E5.781
G1 X118.751 Y79.8 E6.02412
G1 X118.723 Y80.547 E6.04899
G1 X118.615 Y81.288 E6.07389
G1 X118.428 Y82.012 E6.09876
G1 X118.166 Y82.712 E6.12362
G1 X117.83 Y83.381 E6.14852
G1 X117.424 Y84.01 E6.17342
G1 X116.744 Y84.816 E6.2085
G1 X116.627 Y84.935 E6.21405
G1 X116.074 Y85.439 E6.23893
G1 X115.471 Y85.882 E6.26382
G1 X114.825 Y86.258 E6.28868
G1 X114.142 Y86.563 E6.31356
G1 X113.43 Y86.793 E6.33844
G1 X112.697 Y86.946 E6.36335
G1 X111.635 Y87.027 E6.39877
G1 X110.845 Y87.027 E6.42505
G1 X110.098 Y86.987 E6.44993
G1 X109.36 Y86.868 E6.47479
G1 X108.638 Y86.67 E6.49969
G1 X107.942 Y86.397 E6.52456
G1 X107.279 Y86.05 E6.54945
G1 X106.656 Y85.635 E6.57435
G1 X105.853 Y84.935 E6.60978
G1 X105.736 Y84.816 E6.61533
G1 X105.241 Y84.255 E6.64021
G1 X104.809 Y83.645 E6.66507
G1 X104.444 Y82.992 E6.68995
G1 X104.151 Y82.303 E6.71486
G1 X103.933 Y81.588 E6.73972
G1 X103.792 Y80.853 E6.76461
G1 X103.729 Y79.8 E6.7997
G1 X103.75 Y78.458 E6.84434
G1 X103.52 Y78.196 E6.85593
G1 X103.185 Y77.733 E6.87494
G1 X102.985 Y77.431 E6.88699
G1 X102.606 Y76.786 E6.91187
G1 X102.298 Y76.105 E6.93673
G1 X102.064 Y75.394 E6.96162
G1 X101.87 Y74.393 E6.99554
G1 X101.828 Y74.04 E7.00736
G1 X101.779 Y73.294 E7.03223
G1 X101.811 Y72.546 E7.05713
G1 X101.922 Y71.806 E7.08202
G1 X102.111 Y71.083 E7.10687
G1 X102.376 Y70.383 E7.13177
G1 X102.715 Y69.716 E7.15665
G1 X103.123 Y69.089 E7.18153
G1 X103.595 Y68.509 E7.2064
G1 X103.936 Y68.172 E7.22235
G1 X103.951 Y67.488 E7.2451
G1 X104.007 Y66.742 E7.26999
G1 X104.142 Y66.006 E7.29487
G1 X104.356 Y65.289 E7.31976
G1 X104.644 Y64.599 E7.34463
G1 X105.005 Y63.943 E7.36953
G0 F6000 X105.401 Y64.066
G1 F1200 X105.827 Y63.477 E7.39371
G1 X106.364 Y62.893 E7.4201
G1 X106.481 Y62.78 E7.42551
G1 X107.03 Y62.305 E7.44965
G1 X107.629 Y61.893 E7.47383
G1 X108.269 Y61.549 E7.498
G1 X108.943 Y61.278 E7.52216
G1 X109.642 Y61.082 E7.54631
G1 X110.359 Y60.965 E7.57047
G1 X111.085 Y60.927 E7.59465
G1 X111.433 Y60.928 E7.60623
G1 X112.158 Y60.97 E7.63038
G1 X112.874 Y61.092 E7.65454
G1 X113.573 Y61.291 E7.67871
G1 X114.245 Y61.566 E7.70286
G1 X114.883 Y61.913 E7.72701
G1 X115.479 Y62.328 E7.75117
G1 X116.019 Y62.8 E7.77502
G1 X116.135 Y62.913 E7.78041
G1 X116.627 Y63.448 E7.80459
G1 X117.057 Y64.034 E7.82876
G1 X117.42 Y64.663 E7.85291
G1 X117.711 Y65.328 E7.87706
G1 X117.928 Y66.021 E7.90121
G1 X118.067 Y66.734 E7.92537
G1 X118.128 Y67.496 E7.9508
G1 X118.238 Y72.497 E8.11717
G1 X118.351 Y79.806 E8.3603
G1 X118.322 Y80.532 E8.38446
G1 X118.214 Y81.25 E8.40861
G1 X118.028 Y81.952 E8.43277
G1 X117.765 Y82.629 E8.45692
G1 X117.429 Y83.273 E8.48108
G1 X117.025 Y83.877 E8.50525
G1 X116.458 Y84.535 E8.53414
G1 X116.341 Y84.654 E8.53969
G1 X115.804 Y85.143 E8.56385
G1 X115.217 Y85.571 E8.58801
G1 X114.586 Y85.931 E8.61217
G1 X113.919 Y86.219 E8.63634
G1 X113.225 Y86.433 E8.66049
G1 X112.512 Y86.569 E8.68464
G1 X111.635 Y86.627 E8.71387
G1 X110.845 Y86.627 E8.74014
G1 X110.12 Y86.587 E8.76429
G1 X109.403 Y86.468 E8.78847
G1 X108.704 Y86.27 E8.81263
G1 X108.031 Y85.997 E8.83679
G1 X107.392 Y85.652 E8.86094
G1 X106.795 Y85.238 E8.8851
G1 X106.139 Y84.654 E8.91432
G1 X106.022 Y84.535 E8.91987
G1 X105.542 Y83.99 E8.94402
G1 X105.125 Y83.395 E8.96819
G1 X104.775 Y82.759 E8.99233
G1 X104.498 Y82.087 E9.01651
G1 X104.296 Y81.389 E9.04068
G1 X104.173 Y80.674 E9.06481
G1 X104.129 Y79.806 E9.09371
G1 X104.152 Y78.31 E9.14348
G1 X103.987 Y78.136 E9.15145
G1 X103.518 Y77.512 E9.17741
G1 X103.318 Y77.21 E9.18946
G1 X102.951 Y76.583 E9.21363
G1 X102.655 Y75.92 E9.23777
G1 X102.434 Y75.228 E9.26194
G1 X102.267 Y74.346 E9.29179
G1 X102.225 Y73.993 E9.30362
G1 X102.179 Y73.268 E9.32778
G1 X102.213 Y72.542 E9.35195
G1 X102.327 Y71.825 E9.3761
G1 X102.518 Y71.124 E9.40026
G1 X102.786 Y70.449 E9.42442
G1 X103.126 Y69.807 E9.44858
G1 X103.534 Y69.206 E9.47274
G1 X104.006 Y68.654 E9.4969
G1 X104.332 Y68.349 E9.51175
G1 X104.351 Y67.496 E9.54012
G1 X104.406 Y66.772 E9.56427
G1 X104.541 Y66.058 E9.58844
G1 X104.754 Y65.364 E9.61259
G1 X105.042 Y64.697 E9.63675
G1 X105.401 Y64.066 E9.6609
G0 F6000 X105.439 Y64.798
G1 F1200 X105.797 Y64.192 E9.68431
G1 X106.221 Y63.63 E9.70772
G1 X106.642 Y63.18 E9.72822
G1 X106.759 Y63.067 E9.73363
G1 X107.292 Y62.608 E9.75703
G1 X107.874 Y62.212 E9.78044
G1 X108.497 Y61.884 E9.80386
G1 X109.154 Y61.629 E9.8273
G1 X109.834 Y61.451 E9.85067
G1 X110.531 Y61.35 E9.8741
G1 X111.084 Y61.327 E9.89251
G1 X111.432 Y61.328 E9.90408
G1 X112.135 Y61.37 E9.92751
G1 X112.828 Y61.491 E9.9509
G1 X113.503 Y61.691 E9.97432
G1 X114.151 Y61.965 E9.99772
G1 X114.764 Y62.311 E10.02113
G1 X115.334 Y62.725 E10.04456
G1 X115.74 Y63.087 E10.06265
G1 X115.856 Y63.2 E10.06804
G1 X116.332 Y63.719 E10.09146
G1 X116.745 Y64.289 E10.11488
G1 X117.092 Y64.901 E10.13827
G1 X117.367 Y65.55 E10.16172
G1 X117.566 Y66.225 E10.18512
G1 X117.688 Y66.918 E10.20853
G1 X117.729 Y67.505 E10.2281
G1 X117.838 Y72.503 E10.39437
G1 X117.951 Y79.812 E10.6375
G1 X117.922 Y80.516 E10.66094
G1 X117.814 Y81.211 E10.68433
G1 X117.627 Y81.89 E10.70775
G1 X117.364 Y82.543 E10.73117
G1 X117.029 Y83.162 E10.75458
G1 X116.626 Y83.74 E10.77801
G1 X116.173 Y84.255 E10.80083
G1 X116.056 Y84.374 E10.80638
G1 X115.535 Y84.847 E10.82978
G1 X114.963 Y85.258 E10.85321
G1 X114.349 Y85.602 E10.87662
G1 X113.699 Y85.873 E10.90004
G1 X113.023 Y86.07 E10.92346
G1 X112.329 Y86.188 E10.94687
G1 X111.635 Y86.227 E10.96999
G1 X110.845 Y86.227 E10.99627
G1 X110.142 Y86.187 E11.01969
G1 X109.448 Y86.068 E11.0431
G1 X108.773 Y85.87 E11.0665
G1 X108.124 Y85.598 E11.08991
G1 X107.51 Y85.253 E11.11333
G1 X106.939 Y84.842 E11.13673
G1 X106.424 Y84.374 E11.15988
G1 X106.307 Y84.255 E11.16543
G1 X105.843 Y83.726 E11.18883
G1 X105.441 Y83.147 E11.21227
G1 X105.108 Y82.527 E11.23568
G1 X104.848 Y81.873 E11.25909
G1 X104.663 Y81.194 E11.2825
G1 X104.556 Y80.498 E11.30592
G1 X104.529 Y79.812 E11.32875
G1 X104.555 Y78.158 E11.38377
G1 X104.442 Y78.048 E11.38902
G1 X103.852 Y77.291 E11.42094
G1 X103.652 Y76.989 E11.43299
G1 X103.297 Y76.381 E11.4564
G1 X103.013 Y75.737 E11.47981
G1 X102.805 Y75.065 E11.50321
G1 X102.664 Y74.299 E11.52911
G1 X102.622 Y73.946 E11.54094
G1 X102.579 Y73.243 E11.56436
G1 X102.616 Y72.54 E11.58778
G1 X102.732 Y71.845 E11.61121
G1 X102.926 Y71.169 E11.6346
G1 X103.195 Y70.518 E11.65803
G1 X103.537 Y69.903 E11.68144
G1 X103.946 Y69.33 E11.70485
G1 X104.417 Y68.807 E11.72826
G1 X104.728 Y68.533 E11.74205
G1 X104.75 Y67.505 E11.77625
G1 X104.806 Y66.803 E11.79967
G1 X104.94 Y66.112 E11.82308
G1 X105.152 Y65.441 E11.84649
G1 X105.439 Y64.798 E11.86991
G0 F6000 X105.836 Y64.902
G1 F1200 X106.192 Y64.322 E11.89254
G1 X106.614 Y63.787 E11.9152
G1 X106.92 Y63.468 E11.92991
G1 X107.037 Y63.355 E11.93532
G1 X107.553 Y62.912 E11.95794
G1 X108.118 Y62.532 E11.98058
G1 X108.724 Y62.221 E12.00324
G1 X109.362 Y61.983 E12.02589
G1 X110.024 Y61.821 E12.04855
G1 X110.699 Y61.739 E12.07117
G1 X111.083 Y61.727 E12.08395
G1 X111.431 Y61.728 E12.09552
G1 X112.11 Y61.77 E12.11815
G1 X112.78 Y61.891 E12.14079
G1 X113.431 Y62.09 E12.16344
G1 X114.055 Y62.364 E12.1861
G1 X114.642 Y62.709 E12.20875
G1 X115.184 Y63.121 E12.23139
G1 X115.461 Y63.373 E12.24385
G1 X115.577 Y63.486 E12.24923
G1 X116.036 Y63.989 E12.27188
G1 X116.433 Y64.543 E12.29455
G1 X116.762 Y65.139 E12.31719
G1 X117.02 Y65.769 E12.33984
G1 X117.201 Y66.425 E12.36247
G1 X117.305 Y67.098 E12.38512
G1 X117.329 Y67.514 E12.39898
G1 X117.438 Y72.509 E12.56515
G1 X117.551 Y79.818 E12.80828
G1 X117.522 Y80.499 E12.83095
G1 X117.413 Y81.171 E12.85359
G1 X117.226 Y81.825 E12.87622
G1 X116.963 Y82.454 E12.89889
G1 X116.629 Y83.047 E12.92153
G1 X116.228 Y83.597 E12.94417
G1 X115.888 Y83.974 E12.96105
G1 X115.771 Y84.093 E12.96661
G1 X115.266 Y84.55 E12.98926
G1 X114.711 Y84.944 E13.0119
G1 X114.113 Y85.271 E13.03457
G1 X113.482 Y85.525 E13.05719
G1 X112.825 Y85.704 E13.07984
G1 X112.151 Y85.804 E13.1025
G1 X111.635 Y85.827 E13.11968
G1 X110.845 Y85.827 E13.14595
G1 X110.165 Y85.787 E13.16861
G1 X109.495 Y85.668 E13.19124
G1 X108.843 Y85.471 E13.2139
G1 X108.219 Y85.199 E13.23654
G1 X107.631 Y84.855 E13.2592
G1 X107.087 Y84.445 E13.28185
G1 X106.709 Y84.093 E13.29903
G1 X106.592 Y83.974 E13.30458
G1 X106.144 Y83.462 E13.32721
G1 X105.759 Y82.9 E13.34987
G1 X105.443 Y82.297 E13.37251
G1 X105.199 Y81.661 E13.39517
G1 X105.032 Y81.001 E13.41781
G1 X104.943 Y80.326 E13.44046
G1 X104.929 Y79.818 E13.45736
G1 X104.957 Y77.999 E13.51787
G1 X104.883 Y77.932 E13.52119
G1 X104.436 Y77.42 E13.54379
G1 X104.185 Y77.07 E13.55812
G1 X103.985 Y76.768 E13.57016
G1 X103.643 Y76.18 E13.59279
G1 X103.373 Y75.555 E13.61543
G1 X103.177 Y74.903 E13.63808
G1 X103.062 Y74.251 E13.6601
G1 X103.02 Y73.898 E13.67192
G1 X102.979 Y73.219 E13.69455
G1 X103.018 Y72.539 E13.7172
G1 X103.137 Y71.868 E13.73987
G1 X103.333 Y71.216 E13.76251
G1 X103.605 Y70.592 E13.78515
G1 X103.948 Y70.004 E13.80779
