;FLAVOR:Marlin
;TIME:16546
;Filament used: 11.947m
;Layer height: 0.2
;MINX:45.2
;MINY:74.195
;MINZ:0.2
;MAXX:174.8
;MAXY:146.665
;MAXZ:44
;Generated with Creality Slicer 4.8.2-254
M140 S50
M105
M190 S50
M104 S200
M105
M109 S200
M82 ;absolute extrusion mode

G28 ;Home

G92 E0 ;Reset Extruder
G1 Z2.0 F3000 ;Move Z Axis up
G1 X10.1 Y20 Z0.28 F5000.0 ;Move to start position
G1 X10.1 Y200.0 Z0.28 F1500.0 E15 ;Draw the first line
G1 X10.4 Y200.0 Z0.28 F5000.0 ;Move to side a little
G1 X10.4 Y20 Z0.28 F1500.0 E30 ;Draw the second line
G92 E0 ;Reset Extruder
G1 Z2.0 F3000 ;Move Z Axis up

G92 E0
G92 E0
G1 F2700 E-5
;LAYER_COUNT:220
;LAYER:0
M107
G0 F6000 X59.513 Y134.713 Z0.2
;TYPE:SKIRT
G1 F2700 E0
G1 F1200 X59.522 Y134.754 E0.0014
G1 X59.465 Y134.75 E0.0033
G1 X59.513 Y134.713 E0.00531
G0 F6000 X59.436 Y135.151
G1 F1200 X58.949 Y135.204 E0.02161
G1 X58.531 Y135.32 E0.03603
G1 X58.601 Y134.909 E0.0499
G1 X58.602 Y134.735 E0.05569
G1 X58.663 Y134.717 E0.0578
G1 X59.104 Y134.505 E0.07408
G1 X59.505 Y134.225 E0.09034
G1 X59.758 Y133.978 E0.1021
G1 X60.012 Y135.114 E0.14082
G1 X60.009 Y135.189 E0.14332
G1 X59.925 Y135.178 E0.14614
G1 X59.436 Y135.151 E0.16242
G0 F6000 X59.164 Y133.985
G1 F1200 X59.502 Y133.678 E0.17761
G1 X59.78 Y133.318 E0.19274
G1 X59.949 Y132.995 E0.20486
G1 X60.417 Y135.087 E0.27616
G1 X60.389 Y135.571 E0.29229
G1 X60.392 Y135.646 E0.29479
G1 X59.87 Y135.574 E0.31231
G1 X59.415 Y135.552 E0.32746
G1 X58.963 Y135.609 E0.34262
G1 X58.528 Y135.745 E0.35777
G1 X58.265 Y135.871 E0.36747
G1 X57.717 Y136.172 E0.38827
G1 X57.934 Y135.822 E0.40197
G1 X58.102 Y135.398 E0.41713
G1 X58.195 Y134.952 E0.43229
G1 X58.207 Y134.497 E0.44743
G1 X58.195 Y134.434 E0.44956
G1 X58.357 Y134.399 E0.45507
G1 X58.779 Y134.227 E0.47023
G1 X59.164 Y133.985 E0.48535
G0 F6000 X58.855 Y133.715
G1 F1200 X59.174 Y133.443 E0.4993
G1 X59.435 Y133.115 E0.51324
G1 X59.629 Y132.744 E0.52716
G1 X59.698 Y132.514 E0.53515
G1 X60.007 Y132.531 E0.54544
G1 X60.248 Y132.499 E0.55353
G1 X60.821 Y135.066 E0.64101
G1 X60.818 Y135.079 E0.64145
G1 X60.788 Y135.553 E0.65725
G1 X60.814 Y136.108 E0.67573
G1 X59.816 Y135.971 E0.70923
G1 X59.397 Y135.953 E0.72318
G1 X58.983 Y136.016 E0.73711
G1 X58.457 Y136.222 E0.7559
G1 X57.763 Y136.603 E0.78223
G1 X57.417 Y136.838 E0.79614
G1 X57.121 Y137.135 E0.81009
G1 X56.888 Y137.483 E0.82402
G1 X56.724 Y137.869 E0.83797
G1 X56.637 Y138.279 E0.85191
G1 X56.632 Y138.493 E0.85903
G1 X56.554 Y138.53 E0.8619
G1 X55.842 Y138.627 E0.8858
G1 X55.849 Y138.389 E0.89372
G1 X55.686 Y136.841 E0.94549
G1 X55.825 Y136.841 E0.95011
G1 X56.236 Y136.761 E0.96404
G1 X56.625 Y136.604 E0.97799
G1 X56.977 Y136.377 E0.99192
G1 X57.279 Y136.086 E1.00587
G1 X57.521 Y135.744 E1.01981
G1 X57.694 Y135.362 E1.03375
G1 X57.791 Y134.955 E1.04767
G1 X57.809 Y134.536 E1.06162
G1 X57.728 Y134.105 E1.0762
G1 X58.094 Y134.056 E1.08849
G1 X58.491 Y133.922 E1.10242
G1 X58.855 Y133.715 E1.11635
G0 F6000 X58.582 Y133.418
G1 F1200 X58.874 Y133.177 E1.12894
G1 X59.11 Y132.881 E1.14153
G1 X59.279 Y132.541 E1.15416
G1 X59.373 Y132.174 E1.16676
G1 X59.378 Y132.042 E1.17116
G1 X59.455 Y132.072 E1.1739
G1 X59.829 Y132.131 E1.1865
G1 X60.208 Y132.11 E1.19912
G1 X60.561 Y132.013 E1.2113
G1 X60.576 Y132.134 E1.21535
G1 X61.234 Y135.074 E1.31556
G1 X61.209 Y135.166 E1.31873
G1 X61.188 Y135.534 E1.33099
G1 X61.236 Y136.57 E1.36548
G1 X59.761 Y136.367 E1.415
G1 X59.382 Y136.355 E1.42762
G1 X59.01 Y136.423 E1.44019
G1 X58.65 Y136.572 E1.45315
G1 X57.956 Y136.953 E1.47949
G1 X57.645 Y137.169 E1.49208
G1 X57.386 Y137.446 E1.50469
G1 X57.19 Y137.771 E1.51732
G1 X57.067 Y138.129 E1.52991
G1 X57.022 Y138.506 E1.54253
G1 X57.044 Y138.741 E1.55038
G1 X56.671 Y138.917 E1.5641
G1 X55.388 Y139.092 E1.60717
G1 X55.441 Y138.889 E1.61415
G1 X55.451 Y138.431 E1.62938
G1 X55.237 Y136.403 E1.69721
G1 X55.516 Y136.448 E1.70661
G1 X55.894 Y136.429 E1.7192
G1 X56.26 Y136.33 E1.73181
G1 X56.597 Y136.157 E1.74441
G1 X56.891 Y135.918 E1.75701
G1 X57.128 Y135.622 E1.76962
G1 X57.297 Y135.283 E1.78222
G1 X57.392 Y134.916 E1.79483
G1 X57.408 Y134.538 E1.80741
G1 X57.321 Y134.085 E1.82276
G1 X57.181 Y133.661 E1.83761
G1 X57.501 Y133.712 E1.84838
G1 X57.879 Y133.691 E1.86098
G1 X58.245 Y133.591 E1.87359
G1 X58.582 Y133.418 E1.88619
G0 F6000 X58.346 Y133.093
G1 F1200 X58.604 Y132.881 E1.8973
G1 X58.805 Y132.614 E1.90842
G1 X58.936 Y132.306 E1.91955
G1 X58.991 Y131.977 E1.93064
G1 X58.966 Y131.644 E1.94175
G1 X58.873 Y131.349 E1.95204
G1 X58.768 Y131.111 E1.96069
G1 X58.854 Y131.24 E1.96585
G1 X59.099 Y131.467 E1.97695
G1 X59.391 Y131.629 E1.98806
G1 X59.713 Y131.718 E1.99917
G1 X60.047 Y131.727 E2.01029
G1 X60.374 Y131.657 E2.02141
G1 X60.675 Y131.512 E2.03252
G1 X60.933 Y131.3 E2.04363
G1 X61.011 Y131.195 E2.04798
G1 X60.957 Y131.485 E2.05779
G1 X60.935 Y131.818 E2.06889
G1 X60.967 Y132.047 E2.07658
G1 X61.622 Y134.979 E2.1765
G1 X61.65 Y135.059 E2.17932
G1 X61.587 Y135.516 E2.19466
G1 X61.647 Y136.814 E2.23788
G1 X61.702 Y137.136 E2.24875
G1 X61.541 Y137.052 E2.25479
G1 X61.234 Y136.973 E2.26533
G1 X59.707 Y136.763 E2.3166
G1 X59.373 Y136.757 E2.32771
G1 X59.047 Y136.831 E2.33883
G1 X58.842 Y136.923 E2.3463
G1 X58.148 Y137.304 E2.37263
G1 X57.877 Y137.498 E2.38372
G1 X57.659 Y137.752 E2.39485
G1 X57.507 Y138.049 E2.40595
G1 X57.431 Y138.375 E2.41708
G1 X57.433 Y138.709 E2.42819
G1 X57.493 Y138.97 E2.4371
G1 X56.784 Y139.306 E2.46319
G1 X55.145 Y139.529 E2.51821
G1 X54.821 Y139.613 E2.52934
G1 X54.509 Y139.784 E2.54117
G1 X54.26 Y139.965 E2.55141
G1 X54.068 Y139.955 E2.55781
G1 X54.341 Y139.844 E2.56761
G1 X54.612 Y139.648 E2.57873
G1 X54.828 Y139.393 E2.58985
G1 X54.978 Y139.094 E2.60097
G1 X55.053 Y138.769 E2.61207
G1 X55.053 Y138.473 E2.62191
G1 X54.77 Y135.793 E2.71155
G1 X54.971 Y135.896 E2.71906
G1 X55.284 Y136.012 E2.73016
G1 X55.616 Y136.051 E2.74128
G1 X55.948 Y136.01 E2.7524
G1 X56.26 Y135.892 E2.7635
G1 X56.536 Y135.703 E2.77462
G1 X56.759 Y135.454 E2.78574
G1 X56.916 Y135.16 E2.79683
G1 X57 Y134.836 E2.80796
G1 X57.004 Y134.502 E2.81907
G1 X56.941 Y134.211 E2.82897
G1 X56.436 Y132.685 E2.88243
G1 X56.526 Y132.821 E2.88786
G1 X56.771 Y133.048 E2.89897
G1 X57.063 Y133.21 E2.91007
G1 X57.385 Y133.299 E2.92119
G1 X57.719 Y133.308 E2.9323
G1 X58.046 Y133.239 E2.94341
G1 X58.346 Y133.093 E2.95451
G0 F6000 X58.151 Y132.743
G1 F1200 X58.36 Y132.554 E2.96388
G1 X58.509 Y132.314 E2.97328
G1 X58.584 Y132.042 E2.98266
G1 X58.58 Y131.76 E2.99204
G1 X58.507 Y131.511 E3.00067
G1 X57.658 Y129.586 E3.07065
G1 X57.688 Y129.496 E3.0738
G1 X57.778 Y129.431 E3.0775
G1 X58.015 Y129.447 E3.0854
G1 X58.716 Y130.164 E3.11875
G1 X59.027 Y130.782 E3.14176
G1 X59.188 Y131.014 E3.15115
G1 X59.407 Y131.191 E3.16052
G1 X59.667 Y131.3 E3.16989
G1 X59.947 Y131.333 E3.17927
G1 X60.225 Y131.285 E3.18866
G1 X60.479 Y131.162 E3.19804
G1 X60.689 Y130.973 E3.20744
G1 X60.837 Y130.733 E3.21682
G1 X60.903 Y130.516 E3.22436
G1 X61.043 Y129.763 E3.24983
G1 X61.055 Y129.481 E3.25922
G1 X60.988 Y129.207 E3.2686
G1 X60.847 Y128.963 E3.27798
G1 X60.649 Y128.772 E3.28713
G1 X60.488 Y128.654 E3.29377
G1 X60.407 Y128.354 E3.3041
G1 X60.503 Y128.06 E3.31439
G1 X60.859 Y127.637 E3.33278
G1 X61.009 Y127.397 E3.34219
G1 X61.085 Y127.126 E3.35155
G1 X61.083 Y126.844 E3.36093
G1 X61.002 Y126.573 E3.37034
G1 X60.848 Y126.337 E3.37971
G1 X60.635 Y126.152 E3.38909
G1 X60.27 Y126.009 E3.40213
G1 X57.605 Y125.532 E3.49218
G1 X57.313 Y125.523 E3.5019
G1 X55.754 Y125.704 E3.5541
G1 X53.361 Y125.05 E3.63661
G1 X52.565 Y124.325 E3.67242
G1 X52.332 Y124.166 E3.6818
G1 X52.063 Y124.079 E3.6912
G1 X51.781 Y124.07 E3.70059
G1 X51.508 Y124.14 E3.70996
G1 X51.265 Y124.284 E3.71936
G1 X51.072 Y124.49 E3.72875
G1 X50.944 Y124.741 E3.73812
G1 X50.892 Y125.019 E3.74752
G1 X50.896 Y125.166 E3.75241
G1 X51.224 Y128.374 E3.85967
G1 X51.256 Y128.542 E3.86536
G1 X52.103 Y131.556 E3.96949
G1 X52.227 Y134.627 E4.07171
G1 X52.435 Y137.772 E4.17654
G1 X52.361 Y138.182 E4.1904
G1 X52.35 Y138.464 E4.19979
G1 X52.419 Y138.738 E4.20918
G1 X52.562 Y138.982 E4.21859
G1 X52.71 Y139.132 E4.2256
G1 X53.026 Y139.392 E4.23921
G1 X53.267 Y139.539 E4.2486
G1 X53.539 Y139.613 E4.25797
G1 X53.821 Y139.607 E4.26736
G1 X54.09 Y139.523 E4.27673
G1 X54.326 Y139.367 E4.28614
G1 X54.508 Y139.152 E4.29551
G1 X54.623 Y138.894 E4.3049
G1 X54.655 Y138.515 E4.31755
G1 X54.358 Y135.696 E4.41183
G1 X54.44 Y135.444 E4.42065
G1 X54.562 Y135.355 E4.42567
G1 X54.795 Y135.355 E4.43342
G1 X55.154 Y135.54 E4.44685
G1 X55.421 Y135.633 E4.45626
G1 X55.703 Y135.647 E4.46565
G1 X55.977 Y135.582 E4.47501
G1 X56.223 Y135.443 E4.48441
G1 X56.42 Y135.241 E4.49379
G1 X56.552 Y134.992 E4.50317
G1 X56.61 Y134.716 E4.51255
G1 X56.561 Y134.337 E4.52526
G1 X55.618 Y131.49 E4.62501
G1 X55.493 Y131.237 E4.6344
G1 X55.367 Y131.088 E4.64089
G1 X54.44 Y130.184 E4.68395
G1 X54.369 Y129.968 E4.69151
G1 X54.416 Y129.825 E4.69652
G1 X54.535 Y129.739 E4.7014
G1 X54.783 Y129.741 E4.70965
G1 X55.94 Y130.855 E4.76307
G1 X56.698 Y132.363 E4.81921
G1 X56.859 Y132.595 E4.8286
G1 X57.079 Y132.772 E4.83799
G1 X57.339 Y132.881 E4.84737
G1 X57.619 Y132.914 E4.85675
G1 X57.897 Y132.866 E4.86613
G1 X58.151 Y132.743 E4.87552
G0 F6000 X57.989 Y132.364
G1 F1200 X58.124 Y132.192 E4.88279
G1 X58.188 Y131.984 E4.89003
G1 X58.141 Y131.672 E4.90052
G1 X57.23 Y129.606 E4.97562
G1 X57.347 Y129.25 E4.98808
G1 X57.66 Y129.021 E5.00098
G1 X58.195 Y129.059 E5.01882
G1 X59.045 Y129.928 E5.05925
G1 X59.384 Y130.602 E5.08435
G1 X59.516 Y130.776 E5.09161
G1 X59.701 Y130.892 E5.09887
G1 X59.915 Y130.933 E5.10612
G1 X60.13 Y130.895 E5.11338
G1 X60.317 Y130.783 E5.12063
G1 X60.452 Y130.611 E5.1279
G1 X60.51 Y130.443 E5.13382
G1 X60.65 Y129.69 E5.15929
G1 X60.65 Y129.472 E5.16654
G1 X60.572 Y129.268 E5.1738
G1 X60.414 Y129.095 E5.1816
G1 X60.138 Y128.894 E5.19295
G1 X59.99 Y128.341 E5.21199
G1 X60.146 Y127.863 E5.22872
G1 X60.553 Y127.379 E5.24975
G1 X60.661 Y127.19 E5.25699
G1 X60.694 Y126.974 E5.26426
G1 X60.647 Y126.761 E5.27151
G1 X60.528 Y126.578 E5.27877
G1 X60.351 Y126.451 E5.28602
G1 X60.2 Y126.402 E5.2913
G1 X57.535 Y125.925 E5.38135
G1 X57.36 Y125.92 E5.38717
G1 X55.722 Y126.111 E5.44202
G1 X53.161 Y125.411 E5.53032
G1 X52.295 Y124.621 E5.56931
G1 X52.11 Y124.505 E5.57657
G1 X51.896 Y124.464 E5.58382
G1 X51.681 Y124.502 E5.59108
G1 X51.494 Y124.614 E5.59833
G1 X51.359 Y124.786 E5.6056
G1 X51.294 Y125.125 E5.61708
G1 X51.622 Y128.333 E5.72434
G1 X51.641 Y128.434 E5.72776
G1 X52.5 Y131.491 E5.83337
G1 X52.626 Y134.601 E5.93689
G1 X52.837 Y137.796 E6.04339
G1 X52.755 Y138.253 E6.05883
G1 X52.755 Y138.472 E6.06612
G1 X52.834 Y138.675 E6.07336
G1 X52.964 Y138.823 E6.07992
G1 X53.28 Y139.083 E6.09353
G1 X53.471 Y139.189 E6.10079
G1 X53.687 Y139.219 E6.10804
G1 X53.899 Y139.171 E6.11527
G1 X54.08 Y139.049 E6.12253
G1 X54.206 Y138.871 E6.12979
G1 X54.258 Y138.557 E6.14037
G1 X53.951 Y135.65 E6.2376
G1 X54.099 Y135.198 E6.25342
G1 X54.432 Y134.955 E6.26713
G1 X54.892 Y134.955 E6.28243
G1 X55.337 Y135.184 E6.29907
G1 X55.546 Y135.247 E6.30633
G1 X55.764 Y135.231 E6.3136
G1 X55.961 Y135.139 E6.32084
G1 X56.113 Y134.982 E6.3281
G1 X56.198 Y134.781 E6.33536
G1 X56.182 Y134.462 E6.34599
G1 X55.239 Y131.615 E6.44574
G1 X55.088 Y131.374 E6.4552
G1 X54.089 Y130.4 E6.5016
G1 X53.948 Y129.968 E6.51672
G1 X54.075 Y129.579 E6.53033
G1 X54.406 Y129.338 E6.54394
G1 X54.946 Y129.342 E6.5619
G1 X56.268 Y130.615 E6.62295
G1 X57.056 Y132.183 E6.68131
G1 X57.188 Y132.357 E6.68858
G1 X57.373 Y132.473 E6.69584
G1 X57.587 Y132.514 E6.70309
G1 X57.802 Y132.476 E6.71035
G1 X57.989 Y132.364 E6.7176
G0 F6000 X57.735 Y132.053
G1 F1200 X57.79 Y131.941 E6.72175
G1 X57.775 Y131.833 E6.72538
G1 X56.803 Y129.628 E6.80552
G1 X57.007 Y129.003 E6.82739
G1 X57.544 Y128.612 E6.84948
G1 X58.375 Y128.671 E6.87719
G1 X59.373 Y129.69 E6.92463
G1 X59.741 Y130.423 E6.95191
G1 X59.829 Y130.511 E6.95605
G1 X59.953 Y130.53 E6.96022
G1 X60.064 Y130.472 E6.96439
G1 X60.117 Y130.37 E6.96821
G1 X60.257 Y129.617 E6.99369
G1 X60.24 Y129.493 E6.99785
G1 X60.178 Y129.418 E7.00108
G1 X59.788 Y129.133 E7.01715
G1 X59.572 Y128.332 E7.04474
G1 X59.79 Y127.665 E7.06808
G1 X60.247 Y127.122 E7.09169
G1 X60.294 Y127.006 E7.09585
G1 X60.262 Y126.885 E7.10001
G1 X60.129 Y126.796 E7.10534
G1 X57.464 Y126.319 E7.19538
G1 X57.406 Y126.317 E7.19731
G1 X55.69 Y126.517 E7.25477
G1 X52.965 Y125.772 E7.34873
G1 X52.026 Y124.916 E7.391
G1 X51.912 Y124.865 E7.39515
G1 X51.79 Y124.892 E7.39931
G1 X51.707 Y124.985 E7.40345
G1 X51.692 Y125.084 E7.40678
G1 X52.02 Y128.292 E7.51404
G1 X52.026 Y128.326 E7.51518
G1 X52.898 Y131.43 E7.62242
G1 X53.025 Y134.574 E7.72708
G1 X53.239 Y137.817 E7.83517
G1 X53.148 Y138.324 E7.85231
G1 X53.165 Y138.448 E7.85647
G1 X53.218 Y138.514 E7.85928
G1 X53.534 Y138.774 E7.87289
G1 X53.65 Y138.82 E7.87704
G1 X53.771 Y138.787 E7.88122
G1 X53.849 Y138.689 E7.88538
G1 X53.86 Y138.599 E7.8884
G1 X53.544 Y135.608 E7.98843
G1 X53.759 Y134.951 E8.01142
G1 X54.303 Y134.555 E8.0338
G1 X54.988 Y134.555 E8.05659
G1 X55.52 Y134.829 E8.07649
G1 X55.644 Y134.848 E8.08066
G1 X55.755 Y134.791 E8.08481
G1 X55.81 Y134.679 E8.08896
G1 X55.802 Y134.588 E8.092
G1 X54.859 Y131.741 E8.19175
G1 X54.809 Y131.661 E8.19489
G1 X53.74 Y130.619 E8.24454
G1 X53.527 Y129.968 E8.26732
G1 X53.735 Y129.332 E8.28958
G1 X54.278 Y128.937 E8.31191
G1 X55.108 Y128.943 E8.33952
G1 X56.594 Y130.374 E8.40813
G1 X57.413 Y132.004 E8.46881
G1 X57.501 Y132.092 E8.47295
G1 X57.625 Y132.111 E8.47712
G1 X57.735 Y132.053 E8.48126
G0 F6000 X61.447 Y129.674
G1 F1200 X61.458 Y129.503 E8.48695
G1 X61.4 Y129.174 E8.49807
G1 X61.265 Y128.868 E8.50919
G1 X61.062 Y128.602 E8.52032
G1 X60.837 Y128.414 E8.53007
G1 X60.859 Y128.258 E8.53531
G1 X61.165 Y127.894 E8.55113
G1 X61.348 Y127.615 E8.56223
G1 X61.46 Y127.3 E8.57334
G1 X61.494 Y126.968 E8.58444
G1 X61.448 Y126.637 E8.59556
G1 X61.325 Y126.326 E8.60668
G1 X61.295 Y126.284 E8.6084
G1 X63.932 Y126.991 E8.6992
G1 X64.243 Y127.038 E8.70967
G1 X64.701 Y127.055 E8.72491
G1 X65.034 Y127.028 E8.73602
G1 X65.351 Y126.922 E8.74714
G1 X65.634 Y126.744 E8.75826
G1 X65.867 Y126.505 E8.76936
G1 X66.036 Y126.217 E8.78047
G1 X66.132 Y125.897 E8.79158
G1 X66.15 Y125.563 E8.8027
G1 X66.088 Y125.235 E8.81381
G1 X65.95 Y124.93 E8.82494
G1 X65.744 Y124.667 E8.83605
G1 X65.362 Y124.395 E8.85165
G1 X63.04 Y123.274 E8.93741
G1 X62.643 Y123.001 E8.95343
G1 X62.347 Y122.846 E8.96455
G1 X62.023 Y122.765 E8.97565
G1 X61.689 Y122.763 E8.98676
G1 X61.364 Y122.841 E8.99788
G1 X61.067 Y122.993 E9.00898
G1 X60.736 Y123.305 E9.0241
G1 X60.537 Y123.565 E9.03499
G1 X60.525 Y123.517 E9.03664
G1 X60.369 Y123.221 E9.04777
G1 X60.148 Y122.971 E9.05887
G1 X59.873 Y122.781 E9.06998
G1 X59.568 Y122.662 E9.08087
G1 X59.455 Y122.633 E9.08475
G1 X59.734 Y122.571 E9.09426
G1 X60.034 Y122.423 E9.10539
G1 X60.29 Y122.209 E9.11648
G1 X60.488 Y121.94 E9.12759
G1 X60.601 Y121.684 E9.1369
G1 X60.67 Y121.472 E9.14432
G1 X60.956 Y121.713 E9.15675
G1 X61.235 Y121.896 E9.16785
G1 X61.55 Y122.008 E9.17897
G1 X61.883 Y122.042 E9.19011
G1 X62.213 Y121.996 E9.20119
G1 X62.549 Y121.859 E9.21326
G1 X63.24 Y121.466 E9.2397
G1 X63.246 Y121.481 E9.24023
G1 X63.443 Y121.75 E9.25132
G1 X63.698 Y121.966 E9.26244
G1 X64.153 Y122.16 E9.27889
G1 X66.822 Y122.775 E9.36999
G1 X67.154 Y122.811 E9.38109
G1 X67.485 Y122.767 E9.3922
G1 X67.796 Y122.646 E9.4033
G1 X68.07 Y122.454 E9.41443
G1 X68.33 Y122.142 E9.42793
G1 X68.64 Y121.636 E9.44767
G1 X68.779 Y121.333 E9.45876
G1 X68.842 Y121.005 E9.46987
G1 X68.826 Y120.671 E9.48099
G1 X68.759 Y120.443 E9.48889
G1 X68.901 Y120.525 E9.49435
G1 X69.208 Y120.656 E9.50545
