;FLAVOR:Marlin
;TIME:23035
;Filament used: 20.0562m
;Layer height: 0.2
;MINX:43.835
;MINY:73.317
;MINZ:0.2
;MAXX:175.3
;MAXY:146.683
;MAXZ:50
;Generated with Creality Slicer 4.8.2-254
M140 S62
M105
M190 S62
M104 S215
M105
M109 S215
M82 ;absolute extrusion mode

G28 ;Home

G92 E0 ;Reset Extruder
G1 Z2.0 F3000 ;Move Z Axis up
G1 X10.1 Y20 Z0.28 F5000.0 ;Move to start position
G1 X10.1 Y200.0 Z0.28 F1500.0 E15 ;Draw the first line
G1 X10.4 Y200.0 Z0.28 F5000.0 ;Move to side a little
G1 X10.4 Y20 Z0.28 F1500.0 E30 ;Draw the second line
G92 E0 ;Reset Extruder
G1 Z2.0 F3000 ;Move Z Axis up

G92 E0
G92 E0
G1 F2700 E-5
;LAYER_COUNT:250
;LAYER:0
M107
G0 F6000 X55.106 Y81.618 Z0.2
;TYPE:SKIRT
G1 F2700 E0
G1 F1200 X78.2 Y81.618 E0.92173
G1 X78.2 Y138.418 E3.18874
G1 X54.527 Y138.418 E4.13358
G1 X54.457 Y138.31 E4.13872
G1 X53.961 Y137.664 E4.17123
G1 X53.582 Y137.24 E4.19392
G1 X53.021 Y136.7 E4.225
G1 X52.6 Y136.352 E4.2468
G1 X52.6 Y84.677 E6.30926
G1 X52.71 Y84.596 E6.31472
G1 X53.166 Y84.203 E6.33874
G1 X53.755 Y83.608 E6.37216
G1 X54.149 Y83.14 E6.39657
G1 X54.645 Y82.444 E6.43069
G1 X54.958 Y81.919 E6.45508
G1 X55.106 Y81.618 E6.46847
G0 F6000 X54.858 Y81.218
G1 F1200 X78.6 Y81.218 E7.41606
G1 X78.6 Y138.818 E9.715
G1 X54.312 Y138.818 E10.68439
G1 X54.14 Y138.553 E10.697
G1 X53.644 Y137.907 E10.72951
G1 X53.305 Y137.528 E10.7498
G1 X52.744 Y136.988 E10.78088
G1 X52.344 Y136.658 E10.80158
G1 X52.2 Y136.557 E10.8086
G1 X52.2 Y84.474 E12.88734
G1 X52.474 Y84.273 E12.9009
G1 X52.881 Y83.922 E12.92235
G1 X53.47 Y83.327 E12.95577
G1 X53.823 Y82.908 E12.97764
G1 X54.319 Y82.212 E13.01175
G1 X54.6 Y81.742 E13.0336
G1 X54.858 Y81.218 E13.05692
G0 F6000 X54.241 Y81.565
G1 F1200 X54.609 Y80.818 E13.09015
G1 X79 Y80.818 E14.06365
G1 X79 Y139.218 E16.39452
G1 X54.093 Y139.218 E17.38861
G1 X54.078 Y139.191 E17.38984
G1 X53.823 Y138.797 E17.40858
G1 X53.327 Y138.151 E17.44108
G1 X53.027 Y137.817 E17.459
G1 X52.466 Y137.277 E17.49008
G1 X52.114 Y136.985 E17.50833
G1 X51.8 Y136.764 E17.52366
G1 X51.8 Y84.27 E19.61881
G1 X52.237 Y83.95 E19.64043
G1 X52.597 Y83.641 E19.65936
G1 X53.186 Y83.046 E19.69278
G1 X53.497 Y82.676 E19.71207
G1 X53.993 Y81.98 E19.74618
G1 X54.241 Y81.565 E19.76547
G0 F6000 X53.882 Y81.388
G1 F1200 X54.264 Y80.613 E19.79996
G1 X54.341 Y80.418 E19.80833
G1 X79.4 Y80.418 E20.80849
G1 X79.4 Y139.618 E23.17129
G1 X53.855 Y139.618 E24.19084
G1 X53.727 Y139.382 E24.20156
G1 X53.505 Y139.041 E24.2178
G1 X53.009 Y138.395 E24.2503
G1 X52.75 Y138.105 E24.26582
G1 X52.189 Y137.565 E24.2969
G1 X51.883 Y137.312 E24.31275
G1 X51.4 Y136.972 E24.33632
G1 X51.4 Y84.068 E26.44784
G1 X52.001 Y83.628 E26.47756
G1 X52.313 Y83.359 E26.49401
G1 X52.902 Y82.764 E26.52742
G1 X53.171 Y82.444 E26.54411
G1 X53.667 Y81.748 E26.57822
G1 X53.882 Y81.388 E26.59495
G0 F6000 X53.523 Y81.212
G1 F1200 X53.905 Y80.437 E26.62944
G1 X54.036 Y80.106 E26.64365
G1 X54.063 Y80.018 E26.64732
G1 X79.8 Y80.018 E27.67454
G1 X79.8 Y140.018 E30.06927
G1 X53.618 Y140.018 E31.11425
G1 X53.376 Y139.573 E31.13447
G1 X53.188 Y139.284 E31.14823
G1 X52.692 Y138.638 E31.18073
G1 X52.473 Y138.393 E31.19385
G1 X51.912 Y137.853 E31.22493
G1 X51.653 Y137.639 E31.23834
G1 X51 Y137.179 E31.27022
G1 X51 Y83.861 E33.39825
G1 X51.104 Y83.789 E33.4033
G1 X51.765 Y83.305 E33.436
G1 X52.028 Y83.078 E33.44987
G1 X52.617 Y82.483 E33.48328
G1 X52.846 Y82.212 E33.49744
G1 X53.342 Y81.516 E33.53155
G1 X53.523 Y81.212 E33.54568
G0 F6000 X53.165 Y81.035
G1 F1200 X53.547 Y80.26 E33.58016
G1 X53.654 Y79.989 E33.59179
G1 X53.767 Y79.618 E33.60727
G1 X80.2 Y79.618 E34.66227
G1 X80.2 Y140.418 E37.08893
G1 X53.38 Y140.418 E38.15937
G1 X53.024 Y139.764 E38.18909
G1 X52.871 Y139.528 E38.20032
G1 X52.375 Y138.882 E38.23282
G1 X52.195 Y138.681 E38.24359
G1 X51.634 Y138.141 E38.27467
G1 X51.423 Y137.966 E38.28561
G1 X50.76 Y137.499 E38.31798
G1 X50.6 Y137.399 E38.32551
G1 X50.6 Y83.634 E40.47139
G1 X50.867 Y83.466 E40.48398
G1 X51.528 Y82.982 E40.51667
G1 X51.744 Y82.796 E40.52805
G1 X52.333 Y82.201 E40.56147
G1 X52.52 Y81.98 E40.57302
G1 X53.016 Y81.284 E40.60713
G1 X53.165 Y81.035 E40.61871
G0 F6000 X52.806 Y80.858
G1 F1200 X53.188 Y80.083 E40.6532
G1 X53.271 Y79.872 E40.66225
G1 X53.47 Y79.218 E40.68953
G1 X80.6 Y79.218 E41.77235
G1 X80.6 Y140.818 E44.23094
G1 X53.131 Y140.818 E45.32729
G1 X53.051 Y140.65 E45.33471
G1 X52.673 Y139.955 E45.36629
G1 X52.553 Y139.771 E45.37506
G1 X52.057 Y139.125 E45.40756
G1 X51.918 Y138.969 E45.4159
G1 X51.357 Y138.429 E45.44698
G1 X51.192 Y138.293 E45.45551
G1 X50.529 Y137.826 E45.48788
G1 X50.271 Y137.675 E45.49981
G1 X50.2 Y137.64 E45.50297
G1 X50.2 Y83.392 E47.66813
G1 X50.491 Y83.237 E47.68129
G1 X50.631 Y83.144 E47.688
G1 X51.292 Y82.66 E47.72069
G1 X51.46 Y82.515 E47.72955
G1 X52.049 Y81.92 E47.76297
G1 X52.194 Y81.747 E47.77198
G1 X52.69 Y81.051 E47.80609
G1 X52.806 Y80.858 E47.81507
G0 F6000 X52.447 Y80.681
G1 F1200 X52.829 Y79.906 E47.84956
G1 X52.889 Y79.756 E47.85601
G1 X53.132 Y78.959 E47.88926
G1 X53.164 Y78.818 E47.89503
G1 X81 Y78.818 E49.00603
G1 X81 Y141.218 E51.49655
G1 X52.854 Y141.218 E52.61992
G1 X52.762 Y140.97 E52.63047
G1 X52.699 Y140.841 E52.6362
G1 X52.321 Y140.146 E52.66778
G1 X52.236 Y140.015 E52.67401
G1 X51.74 Y139.369 E52.70652
G1 X51.64 Y139.258 E52.71248
G1 X51.079 Y138.718 E52.74356
G1 X50.962 Y138.62 E52.74965
G1 X50.299 Y138.153 E52.78202
G1 X50.095 Y138.034 E52.79144
G1 X49.8 Y137.889 E52.80456
G1 X49.8 Y83.145 E54.98951
G1 X50.182 Y82.953 E55.00658
G1 X50.395 Y82.821 E55.01658
G1 X51.056 Y82.337 E55.04928
G1 X51.176 Y82.234 E55.05559
G1 X51.765 Y81.639 E55.08901
G1 X51.868 Y81.515 E55.09544
G1 X52.364 Y80.819 E55.12955
G1 X52.447 Y80.681 E55.13598
G0 F6000 X52.088 Y80.504
G1 F1200 X52.47 Y79.729 E55.17046
G1 X52.506 Y79.639 E55.17433
G1 X52.749 Y78.842 E55.20759
G1 X52.817 Y78.418 E55.22473
G1 X81.4 Y78.418 E56.36554
G1 X81.4 Y141.618 E58.88798
G1 X52.572 Y141.618 E60.03857
G1 X52.42 Y141.191 E60.05666
G1 X52.348 Y141.032 E60.06363
G1 X51.97 Y140.337 E60.09521
G1 X51.919 Y140.259 E60.09892
G1 X51.423 Y139.613 E60.13143
G1 X51.363 Y139.546 E60.13502
G1 X50.802 Y139.006 E60.1661
G1 X50.732 Y138.947 E60.16975
G1 X50.069 Y138.48 E60.20212
G1 X49.918 Y138.393 E60.20908
G1 X49.4 Y138.139 E60.2321
G1 X49.4 Y82.897 E62.43693
G1 X50.003 Y82.595 E62.46385
G1 X50.158 Y82.498 E62.47114
G1 X50.819 Y82.014 E62.50384
G1 X50.891 Y81.952 E62.50763
G1 X51.48 Y81.357 E62.54105
G1 X51.543 Y81.283 E62.54493
G1 X52.039 Y80.587 E62.57904
G1 X52.088 Y80.504 E62.58289
G0 F6000 X51.729 Y80.327
G1 F1200 X52.111 Y79.552 E62.61737
G1 X52.123 Y79.522 E62.61866
G1 X52.372 Y78.703 E62.65283
G1 X52.388 Y78.612 E62.65652
G1 X52.466 Y78.018 E62.68043
G1 X81.8 Y78.018 E63.85121
G1 X81.8 Y142.018 E66.40559
G1 X52.289 Y142.018 E67.58344
G1 X52.036 Y141.308 E67.61352
G1 X51.997 Y141.223 E67.61725
G1 X51.619 Y140.528 E67.64883
G1 X51.602 Y140.502 E67.65007
G1 X51.106 Y139.856 E67.68257
G1 X51.086 Y139.834 E67.68376
G1 X50.525 Y139.294 E67.71484
G1 X50.501 Y139.274 E67.71609
G1 X49.838 Y138.807 E67.74845
G1 X49.742 Y138.752 E67.75287
G1 X49.037 Y138.406 E67.78421
G1 X49 Y138.393 E67.78578
G1 X49 Y82.639 E70.01104
G1 X49.078 Y82.612 E70.01434
G1 X49.824 Y82.238 E70.04764
G1 X49.922 Y82.175 E70.05229
G1 X50.583 Y81.691 E70.08499
G1 X50.607 Y81.671 E70.08624
G1 X51.196 Y81.076 E70.11965
G1 X51.217 Y81.051 E70.12096
G1 X51.713 Y80.355 E70.15507
G1 X51.729 Y80.327 E70.15635
G1 F2700 E65.15635
G0 F6000 X158.199 Y78.018
G1 F2700 E70.15635
G1 F1200 X167.533 Y78.018 E70.52889
G1 X167.621 Y78.674 E70.55531
G1 X167.628 Y78.705 E70.55658
G1 X167.877 Y79.522 E70.59067
G1 X167.889 Y79.552 E70.59196
G1 X168.271 Y80.327 E70.62644
G1 X168.287 Y80.355 E70.62773
G1 X168.783 Y81.051 E70.66184
G1 X168.804 Y81.076 E70.66314
G1 X169.386 Y81.663 E70.69614
G1 X169.46 Y81.725 E70.69999
G1 X170.127 Y82.21 E70.73291
G1 X170.155 Y82.227 E70.73421
G1 X170.905 Y82.605 E70.76773
G1 X171 Y82.638 E70.77175
G1 X171 Y138.393 E72.99705
G1 X170.963 Y138.406 E72.99862
G1 X170.226 Y138.767 E73.03137
G1 X170.2 Y138.783 E73.03259
G1 X169.54 Y139.242 E73.06467
G1 X169.516 Y139.261 E73.0659
G1 X168.913 Y139.836 E73.09915
G1 X168.892 Y139.859 E73.10039
G1 X168.4 Y140.502 E73.13271
G1 X168.353 Y140.579 E73.13631
G1 X167.977 Y141.273 E73.16781
G1 X167.965 Y141.301 E73.16903
G1 X167.71 Y142.018 E73.1994
G1 X158.199 Y142.018 E73.57901
G1 X158.199 Y78.018 E76.13338
G0 F6000 X158.599 Y78.418
G1 F1200 X167.183 Y78.418 E76.47599
G1 X167.224 Y78.727 E76.48843
G1 X167.245 Y78.822 E76.49231
G1 X167.494 Y79.639 E76.5264
G1 X167.53 Y79.729 E76.53027
G1 X167.912 Y80.504 E76.56476
G1 X167.961 Y80.587 E76.5686
G1 X168.457 Y81.283 E76.60272
G1 X168.52 Y81.357 E76.60659
G1 X169.089 Y81.932 E76.63888
G1 X169.225 Y82.048 E76.64602
G1 X169.892 Y82.533 E76.67893
G1 X169.975 Y82.584 E76.68282
G1 X170.6 Y82.899 E76.71075
G1 X170.6 Y138.139 E78.9155
G1 X170.05 Y138.408 E78.93994
G1 X169.971 Y138.454 E78.94359
G1 X169.311 Y138.913 E78.97567
G1 X169.24 Y138.972 E78.97936
G1 X168.637 Y139.547 E79.01261
G1 X168.575 Y139.616 E79.01631
G1 X168.094 Y140.243 E79.04785
G1 X168.001 Y140.388 E79.05473
G1 X167.625 Y141.082 E79.08623
G1 X167.588 Y141.167 E79.08993
G1 X167.427 Y141.618 E79.10905
G1 X158.599 Y141.618 E79.46139
G1 X158.599 Y78.418 E81.98384
G0 F6000 X158.999 Y78.818
G1 F1200 X166.836 Y78.818 E82.29663
G1 X166.862 Y78.939 E82.30157
G1 X167.111 Y79.756 E82.33566
G1 X167.171 Y79.906 E82.34211
G1 X167.553 Y80.681 E82.37659
G1 X167.636 Y80.819 E82.38302
G1 X168.132 Y81.515 E82.41713
G1 X168.235 Y81.638 E82.42353
G1 X168.804 Y82.213 E82.45582
G1 X168.99 Y82.372 E82.46559
G1 X169.657 Y82.857 E82.4985
G1 X169.795 Y82.941 E82.50495
G1 X170.2 Y83.145 E82.52305
G1 X170.2 Y137.889 E84.708
G1 X169.874 Y138.049 E84.72249
G1 X169.743 Y138.126 E84.72856
G1 X169.083 Y138.585 E84.76065
G1 X168.964 Y138.682 E84.76677
G1 X168.361 Y139.257 E84.80003
G1 X168.258 Y139.372 E84.80619
G1 X167.777 Y139.999 E84.83773
G1 X167.65 Y140.198 E84.84715
G1 X167.274 Y140.892 E84.87866
G1 X167.145 Y141.218 E84.89265
G1 X158.999 Y141.218 E85.21777
G1 X158.999 Y78.818 E87.70829
G0 F6000 X159.399 Y79.218
G1 F1200 X166.53 Y79.218 E87.99291
G1 X166.729 Y79.872 E88.02019
G1 X166.812 Y80.083 E88.02924
G1 X167.194 Y80.858 E88.06372
G1 X167.31 Y81.051 E88.07271
G1 X167.806 Y81.747 E88.10682
G1 X167.951 Y81.92 E88.11583
G1 X168.52 Y82.495 E88.14812
G1 X168.755 Y82.695 E88.16044
G1 X169.422 Y83.18 E88.19335
G1 X169.8 Y83.391 E88.21063
G1 X169.8 Y137.64 E90.37582
G1 X169.515 Y137.798 E90.38883
G1 X168.855 Y138.257 E90.42092
G1 X168.688 Y138.393 E90.42951
G1 X168.085 Y138.968 E90.46277
G1 X167.94 Y139.129 E90.47141
G1 X167.459 Y139.756 E90.50295
G1 X167.298 Y140.007 E90.51486
G1 X166.922 Y140.701 E90.54636
G1 X166.87 Y140.818 E90.55147
G1 X159.399 Y140.818 E90.84965
G1 X159.399 Y79.218 E93.30824
G0 F6000 X159.799 Y79.618
G1 F1200 X166.233 Y79.618 E93.56504
G1 X166.346 Y79.989 E93.58052
G1 X166.453 Y80.26 E93.59215
G1 X166.835 Y81.035 E93.62663
G1 X166.984 Y81.284 E93.63821
G1 X167.48 Y81.98 E93.67232
G1 X167.667 Y82.201 E93.68388
G1 X168.236 Y82.776 E93.71616
G1 X168.519 Y83.019 E93.73105
G1 X169.186 Y83.504 E93.76397
G1 X169.4 Y83.634 E93.77396
G1 X169.4 Y137.402 E95.91996
G1 X169.286 Y137.469 E95.92524
G1 X168.626 Y137.928 E95.95732
G1 X168.412 Y138.103 E95.96836
G1 X167.809 Y138.678 E96.00161
G1 X167.623 Y138.885 E96.01272
G1 X167.142 Y139.512 E96.04426
G1 X167 Y139.724 E96.05444
G1 X166.946 Y139.817 E96.05873
G1 X166.62 Y140.418 E96.08602
G1 X159.799 Y140.418 E96.35826
G1 X159.799 Y79.618 E98.78492
G0 F6000 X160.199 Y80.018
G1 F1200 X165.937 Y80.018 E99.01394
G1 X165.964 Y80.105 E99.01758
G1 X166.095 Y80.437 E99.03182
G1 X166.477 Y81.212 E99.06631
G1 X166.658 Y81.516 E99.08043
G1 X167.154 Y82.212 E99.11454
G1 X167.382 Y82.482 E99.12864
G1 X167.951 Y83.057 E99.16093
G1 X168.162 Y83.246 E99.17223
G1 X168.284 Y83.342 E99.17843
G1 X168.951 Y83.827 E99.21135
G1 X169 Y83.857 E99.21364
G1 X169 Y137.181 E101.34192
G1 X168.398 Y137.6 E101.37119
G1 X168.136 Y137.814 E101.38469
G1 X167.533 Y138.389 E101.41795
G1 X167.305 Y138.642 E101.43154
G1 X166.824 Y139.269 E101.46308
G1 X166.66 Y139.513 E101.47481
G1 X166.595 Y139.626 E101.48002
G1 X166.383 Y140.018 E101.4978
G1 X160.199 Y140.018 E101.74462
G1 X160.199 Y80.018 E104.13935
G0 F6000 X160.599 Y80.418
G1 F1200 X165.659 Y80.418 E104.34131
G1 X165.736 Y80.613 E104.34967
G1 X166.118 Y81.388 E104.38416
G1 X166.333 Y81.748 E104.40089
G1 X166.829 Y82.444 E104.43501
G1 X167.098 Y82.764 E104.45169
G1 X167.667 Y83.339 E104.48398
G1 X167.904 Y83.553 E104.49672
G1 X168.049 Y83.666 E104.50406
G1 X168.6 Y84.067 E104.53126
G1 X168.6 Y136.972 E106.64281
G1 X168.17 Y137.271 E106.66371
G1 X167.86 Y137.524 E106.67968
G1 X167.257 Y138.099 E106.71294
G1 X166.988 Y138.398 E106.72899
G1 X166.507 Y139.025 E106.76053
G1 X166.361 Y139.236 E106.77077
G1 X166.144 Y139.618 E106.78831
G1 X160.599 Y139.618 E107.00962
G1 X160.599 Y80.418 E109.37242
G0 F6000 X160.999 Y80.818
G1 F1200 X165.391 Y80.818 E109.54772
G1 X165.759 Y81.565 E109.58095
G1 X166.007 Y81.98 E109.60025
G1 X166.503 Y82.676 E109.63436
G1 X166.814 Y83.045 E109.65362
G1 X167.383 Y83.62 E109.68591
G1 X167.584 Y83.806 E109.69684
G1 X167.814 Y83.989 E109.70857
G1 X168.2 Y84.27 E109.72762
G1 X168.2 Y136.763 E111.82273
G1 X167.941 Y136.943 E111.83532
G1 X167.584 Y137.235 E111.85373
G1 X166.981 Y137.81 E111.88698
G1 X166.671 Y138.155 E111.9055
G1 X166.19 Y138.782 E111.93704
G1 X166.022 Y139.025 E111.94883
G1 X165.907 Y139.218 E111.95779
G1 X160.999 Y139.218 E112.15368
G1 X160.999 Y80.818 E114.48455
G0 F6000 X161.399 Y81.218
G1 F1200 X165.142 Y81.218 E114.63394
G1 X165.4 Y81.742 E114.65726
G1 X165.681 Y82.212 E114.67911
G1 X166.177 Y82.908 E114.71322
G1 X166.529 Y83.327 E114.73506
G1 X167.098 Y83.902 E114.76735
G1 X167.326 Y84.112 E114.77972
G1 X167.578 Y84.313 E114.79259
G1 X167.8 Y84.474 E114.80353
G1 X167.8 Y136.554 E116.88216
G1 X167.713 Y136.615 E116.8864
G1 X167.308 Y136.945 E116.90725
G1 X166.705 Y137.52 E116.94051
G1 X166.353 Y137.912 E116.96153
G1 X165.872 Y138.539 E116.99307
G1 X165.68 Y138.818 E117.00659
G1 X161.399 Y138.818 E117.17745
G1 X161.399 Y81.218 E119.4764
G0 F6000 X161.799 Y81.618
G1 F1200 X164.894 Y81.618 E119.59992
G1 X165.042 Y81.919 E119.61331
G1 X165.355 Y82.444 E119.63771
G1 X165.851 Y83.14 E119.67182
G1 X166.245 Y83.608 E119.69623
G1 X166.814 Y84.183 E119.72852
G1 X167.069 Y84.418 E119.74236
G1 X167.132 Y84.471 E119.74565
G1 X167.343 Y84.636 E119.75634
G1 X167.4 Y84.677 E119.75914
G1 X167.4 Y136.355 E121.82172
G1 X167.032 Y136.656 E121.8407
G1 X166.429 Y137.231 E121.87395
G1 X166.036 Y137.668 E121.89741
G1 X165.555 Y138.295 E121.92895
G1 X165.47 Y138.418 E121.93492
G1 X161.799 Y138.418 E122.08143
G1 X161.799 Y81.618 E124.34844
G0 F6000 X162.199 Y82.018
;TYPE:SUPPORT
G1 F1200 X164.645 Y82.018 E124.44607
G1 X164.833 Y82.4 E124.46306
G1 X165.722 Y83.648 E124.52422
G1 X166.664 Y84.6 E124.57767
G1 X167 Y84.882 E124.59518
G1 X167 Y136.136 E126.64084
G1 X166.99 Y136.143 E126.64132
G1 X165.917 Y137.166 E126.70049
G1 X165.263 Y138.018 E126.74336
G1 X162.199 Y138.018 E126.86565
G1 X162.199 Y82.018 E129.10074
G0 F6000 X163.576 Y82.098
G1 F1200 X163.576 Y137.938 E131.32943
G0 F6000 X162.279 Y136.906
G1 F1200 X166.074 Y136.906 E131.4809
G0 F6000 X165.354 Y137.768
G1 F1200 X165.354 Y83.269 E133.65607
G0 F6000 X165.567 Y83.566
G1 F1200 X162.279 Y83.566 E133.7873
G0 F6000 X162.279 Y85.344
G1 F1200 X166.92 Y85.344 E133.97253
G0 F6000 X166.92 Y87.122
G1 F1200 X162.279 Y87.122 E134.15777
G0 F6000 X162.279 Y88.9
G1 F1200 X166.92 Y88.9 E134.343
