;FLAVOR:Marlin
;TIME:1457
;Filament used: 0.584513m
;Layer height: 0.2
;MINX:80.486
;MINY:98.479
;MINZ:0.2
;MAXX:147.65
;MAXY:135.525
;MAXZ:12.4
;Generated with Creality Slicer 4.8.2-254
M140 S50
M105
M190 S50
M104 S200
M105
M109 S200
M82 ;absolute extrusion mode

G28 ;Home

G92 E0 ;Reset Extruder
G1 Z2.0 F3000 ;Move Z Axis up
G1 X10.1 Y20 Z0.28 F5000.0 ;Move to start position
G1 X10.1 Y200.0 Z0.28 F1500.0 E15 ;Draw the first line
G1 X10.4 Y200.0 Z0.28 F5000.0 ;Move to side a little
G1 X10.4 Y20 Z0.28 F1500.0 E30 ;Draw the second line
G92 E0 ;Reset Extruder
G1 Z2.0 F3000 ;Move Z Axis up

G92 E0
G92 E0
G1 F2700 E-5
;LAYER_COUNT:62
;LAYER:0
M107
G0 F6000 X84.284 Y100.992 Z0.2
;TYPE:SKIRT
G1 F2700 E0
G1 F1200 X84.495 Y100.816 E0.00914
G1 X85.126 Y100.342 E0.03539
G1 X85.357 Y100.186 E0.04466
G1 X86.087 Y99.749 E0.07296
G1 X86.33 Y99.621 E0.08209
G1 X87.005 Y99.305 E0.10688
G1 X87.261 Y99.2 E0.11608
G1 X88.082 Y98.916 E0.14498
G1 X88.345 Y98.841 E0.15407
G1 X89.138 Y98.659 E0.18113
G1 X89.412 Y98.611 E0.19039
G1 X90.19 Y98.515 E0.21646
G1 X90.464 Y98.495 E0.2256
G1 X91.315 Y98.479 E0.25391
G1 X91.59 Y98.489 E0.26306
G1 X92.375 Y98.557 E0.28927
G1 X92.65 Y98.595 E0.2985
G1 X93.487 Y98.758 E0.32686
G1 X93.753 Y98.825 E0.33598
G1 X94.541 Y99.068 E0.36341
G1 X94.802 Y99.164 E0.37266
G1 X95.482 Y99.452 E0.39722
G1 X95.728 Y99.57 E0.4063
G1 X95.791 Y99.605 E0.40869
G1 X95.977 Y99.529 E0.41538
G1 X96.79 Y99.247 E0.444
G1 X97.052 Y99.172 E0.45306
G1 X97.858 Y98.987 E0.48057
G1 X98.133 Y98.939 E0.48985
G1 X98.934 Y98.842 E0.51669
G1 X99.208 Y98.823 E0.52582
G1 X100.003 Y98.808 E0.55227
G1 X100.278 Y98.817 E0.56142
G1 X101.118 Y98.89 E0.58946
G1 X101.393 Y98.929 E0.5987
G1 X102.203 Y99.088 E0.62616
G1 X102.469 Y99.155 E0.63528
G1 X103.232 Y99.389 E0.66183
G1 X103.493 Y99.484 E0.67106
G1 X104.222 Y99.792 E0.69739
G1 X104.468 Y99.911 E0.70647
G1 X105.228 Y100.333 E0.73539
G1 X105.463 Y100.481 E0.74462
G1 X106.103 Y100.93 E0.77063
G1 X106.321 Y101.1 E0.77982
G1 X106.924 Y101.622 E0.80635
G1 X107.121 Y101.811 E0.81543
G1 X107.708 Y102.441 E0.84407
G1 X107.792 Y102.541 E0.84841
G1 X107.976 Y102.374 E0.85668
G1 X108.845 Y101.728 E0.89269
G1 X109.062 Y101.589 E0.90126
G1 X109.865 Y101.139 E0.93188
G1 X109.999 Y101.074 E0.93683
G1 X110.791 Y100.742 E0.96539
G1 X111.033 Y100.656 E0.97394
G1 X111.79 Y100.43 E1.00021
G1 X112.232 Y100.335 E1.01525
G1 X112.308 Y100.321 E1.01782
G1 X112.84 Y100.242 E1.03571
G1 X113.095 Y100.213 E1.04424
G1 X114.083 Y100.164 E1.07715
G1 X114.156 Y100.165 E1.07957
G1 X114.87 Y100.207 E1.10336
G1 X115.125 Y100.234 E1.11189
G1 X115.911 Y100.358 E1.13836
G1 X115.987 Y100.374 E1.14094
G1 X116.938 Y100.638 E1.17377
G1 X117.18 Y100.722 E1.18229
G1 X118.11 Y101.114 E1.21585
G1 X118.242 Y101.18 E1.22076
G1 X118.885 Y101.541 E1.24529
G1 X119.106 Y101.679 E1.25395
G1 X119.754 Y102.131 E1.28023
G1 X120.431 Y102.721 E1.3101
G1 X120.666 Y102.951 E1.32104
G1 X121.163 Y103.489 E1.3454
G1 X121.245 Y103.405 E1.3493
G1 X121.744 Y102.938 E1.37203
G1 X121.8 Y102.89 E1.37449
G1 X122.69 Y102.23 E1.41134
G1 X122.907 Y102.092 E1.41989
G1 X123.689 Y101.656 E1.44967
G1 X123.823 Y101.591 E1.45463
G1 X124.615 Y101.259 E1.48319
G1 X124.857 Y101.173 E1.49173
G1 X125.614 Y100.947 E1.51801
G1 X126.056 Y100.852 E1.53304
G1 X126.132 Y100.838 E1.53561
G1 X126.634 Y100.762 E1.5525
G1 X126.889 Y100.732 E1.56104
G1 X127.907 Y100.68 E1.59494
G1 X127.98 Y100.681 E1.59737
G1 X128.724 Y100.727 E1.62216
G1 X128.979 Y100.755 E1.6307
G1 X129.735 Y100.875 E1.65616
G1 X129.811 Y100.891 E1.65874
G1 X130.762 Y101.155 E1.69157
G1 X131.004 Y101.239 E1.70009
G1 X131.934 Y101.631 E1.73365
G1 X132.066 Y101.697 E1.73856
G1 X132.685 Y102.043 E1.76215
G1 X132.903 Y102.178 E1.77068
G1 X133.552 Y102.627 E1.79692
G1 X133.953 Y102.966 E1.81439
G1 X134.006 Y102.934 E1.81645
G1 X134.247 Y102.804 E1.82556
G1 X134.96 Y102.465 E1.85181
G1 X135.685 Y102.205 E1.87743
G1 X135.942 Y102.127 E1.88636
G1 X136.708 Y101.936 E1.91262
G1 X137.48 Y101.825 E1.93856
G1 X137.747 Y101.8 E1.94748
G1 X138.536 Y101.766 E1.97375
G1 X139.165 Y101.797 E1.99469
G1 X139.435 Y101.821 E2.00371
G1 X140.217 Y101.93 E2.02997
G1 X141.009 Y102.126 E2.05711
G1 X141.266 Y102.204 E2.06604
G1 X142.009 Y102.471 E2.0923
G1 X142.704 Y102.803 E2.11792
G1 X142.945 Y102.933 E2.12703
G1 X143.62 Y103.343 E2.15329
G1 X144.183 Y103.762 E2.17663
G1 X144.387 Y103.929 E2.1854
G1 X144.972 Y104.46 E2.21168
G1 X145.46 Y104.997 E2.23581
G1 X145.631 Y105.204 E2.24475
G1 X146.102 Y105.838 E2.27101
G1 X146.483 Y106.471 E2.29559
G1 X146.614 Y106.714 E2.30477
G1 X146.953 Y107.427 E2.33103
G1 X147.213 Y108.152 E2.35664
G1 X147.29 Y108.406 E2.36547
G1 X147.48 Y109.172 E2.39172
G1 X147.591 Y109.942 E2.4176
G1 X147.616 Y110.209 E2.42652
G1 X147.65 Y110.998 E2.45278
G1 X147.617 Y111.647 E2.4744
G1 X147.592 Y111.92 E2.48351
G1 X147.481 Y112.702 E2.50978
G1 X147.295 Y113.453 E2.53552
G1 X147.219 Y113.706 E2.5443
G1 X146.954 Y114.45 E2.57057
G1 X146.608 Y115.175 E2.59729
G1 X146.477 Y115.417 E2.60644
G1 X146.067 Y116.092 E2.63271
G1 X145.674 Y116.619 E2.65458
G1 X145.506 Y116.826 E2.66344
G1 X144.978 Y117.413 E2.6897
G1 X144.486 Y117.862 E2.71186
G1 X144.829 Y118.173 E2.72726
G1 X145.327 Y118.72 E2.75186
G1 X145.498 Y118.927 E2.76079
G1 X145.969 Y119.561 E2.78706
G1 X146.349 Y120.192 E2.81156
G1 X146.479 Y120.433 E2.82067
G1 X146.818 Y121.146 E2.84693
G1 X147.075 Y121.863 E2.87226
G1 X147.153 Y122.119 E2.88116
G1 X147.345 Y122.885 E2.90742
G1 X147.458 Y123.665 E2.93364
G1 X147.483 Y123.932 E2.94256
G1 X147.517 Y124.721 E2.96882
G1 X147.487 Y125.347 E2.98967
G1 X147.463 Y125.618 E2.99872
G1 X147.353 Y126.4 E3.02498
G1 X147.157 Y127.195 E3.05222
G1 X147.079 Y127.452 E3.06115
G1 X146.812 Y128.195 E3.08741
G1 X146.473 Y128.902 E3.11349
G1 X146.343 Y129.142 E3.12257
G1 X145.933 Y129.816 E3.14881
G1 X145.532 Y130.353 E3.1711
G1 X145.365 Y130.558 E3.17989
G1 X144.836 Y131.145 E3.20617
G1 X144.303 Y131.631 E3.23016
G1 X144.096 Y131.803 E3.23911
G1 X143.464 Y132.277 E3.26539
G1 X142.79 Y132.682 E3.29154
G1 X142.547 Y132.812 E3.30071
G1 X141.833 Y133.148 E3.32696
G1 X141.123 Y133.401 E3.35202
G1 X140.868 Y133.478 E3.36088
G1 X140.101 Y133.668 E3.38717
G1 X139.366 Y133.775 E3.41187
G1 X139.098 Y133.801 E3.42083
G1 X138.309 Y133.837 E3.44709
G1 X137.6 Y133.801 E3.47071
G1 X137.329 Y133.775 E3.47976
G1 X136.548 Y133.66 E3.50602
G1 X135.83 Y133.481 E3.53063
G1 X135.577 Y133.405 E3.53942
G1 X134.833 Y133.14 E3.56568
G1 X134.142 Y132.813 E3.59111
G1 X133.899 Y132.683 E3.60028
G1 X133.654 Y132.536 E3.60978
G1 X133.203 Y132.871 E3.62847
G1 X132.986 Y133.01 E3.63704
G1 X132.183 Y133.46 E3.66765
G1 X132.049 Y133.525 E3.67261
G1 X131.257 Y133.857 E3.70117
G1 X131.015 Y133.943 E3.70971
G1 X130.258 Y134.169 E3.73599
G1 X129.816 Y134.264 E3.75102
G1 X129.74 Y134.278 E3.75359
G1 X129.238 Y134.354 E3.77048
G1 X128.983 Y134.384 E3.77902
G1 X127.965 Y134.436 E3.81292
G1 X127.892 Y134.435 E3.81535
G1 X127.148 Y134.389 E3.84014
G1 X126.893 Y134.361 E3.84868
G1 X126.137 Y134.241 E3.87414
G1 X126.061 Y134.225 E3.87672
G1 X125.11 Y133.961 E3.90955
G1 X124.868 Y133.877 E3.91807
G1 X123.938 Y133.485 E3.95163
G1 X123.804 Y133.418 E3.95662
G1 X123.155 Y133.054 E3.98137
G1 X122.936 Y132.917 E3.98996
G1 X122.289 Y132.465 E4.01621
G1 X121.617 Y131.878 E4.04588
G1 X121.381 Y131.647 E4.05687
G1 X120.923 Y131.152 E4.0793
G1 X120.539 Y131.595 E4.0988
G1 X120.358 Y131.779 E4.10738
G1 X119.873 Y132.231 E4.12943
G1 X119.817 Y132.279 E4.13189
G1 X118.948 Y132.925 E4.1679
G1 X118.731 Y133.064 E4.17647
G1 X117.928 Y133.514 E4.20709
G1 X117.794 Y133.579 E4.21204
G1 X117.002 Y133.911 E4.2406
G1 X116.76 Y133.997 E4.24915
G1 X116.003 Y134.223 E4.27542
G1 X115.561 Y134.318 E4.29046
G1 X115.485 Y134.332 E4.29303
G1 X114.983 Y134.408 E4.30992
G1 X114.728 Y134.438 E4.31846
G1 X113.71 Y134.49 E4.35236
G1 X113.637 Y134.489 E4.35479
G1 X112.893 Y134.443 E4.37958
G1 X112.638 Y134.415 E4.38811
G1 X111.882 Y134.295 E4.41357
G1 X111.806 Y134.279 E4.41615
G1 X110.855 Y134.015 E4.44898
G1 X110.613 Y133.931 E4.4575
G1 X109.683 Y133.539 E4.49107
G1 X109.549 Y133.472 E4.49605
G1 X108.9 Y133.108 E4.5208
G1 X108.681 Y132.971 E4.52939
G1 X108.034 Y132.519 E4.55564
G1 X107.441 Y132.001 E4.58183
G1 X107.248 Y132.224 E4.59164
G1 X107.057 Y132.423 E4.60081
G1 X106.412 Y133.023 E4.63011
G1 X106.2 Y133.199 E4.63928
G1 X105.596 Y133.653 E4.66441
G1 X105.366 Y133.809 E4.67365
G1 X104.623 Y134.255 E4.70248
G1 X104.38 Y134.383 E4.71161
G1 X103.695 Y134.703 E4.73676
G1 X103.438 Y134.808 E4.74599
G1 X102.635 Y135.086 E4.77425
G1 X102.373 Y135.161 E4.78332
G1 X101.572 Y135.345 E4.81065
G1 X101.298 Y135.393 E4.81991
G1 X100.518 Y135.489 E4.84604
G1 X100.243 Y135.509 E4.85522
G1 X99.393 Y135.525 E4.88349
G1 X99.119 Y135.515 E4.89261
G1 X98.335 Y135.447 E4.91878
G1 X98.06 Y135.409 E4.92802
G1 X97.223 Y135.246 E4.95638
G1 X96.957 Y135.179 E4.9655
G1 X96.194 Y134.945 E4.99205
G1 X95.933 Y134.85 E5.00129
G1 X95.204 Y134.541 E5.02762
G1 X94.956 Y134.421 E5.03678
G1 X94.917 Y134.399 E5.03827
G1 X94.722 Y134.479 E5.04528
G1 X93.919 Y134.757 E5.07355
G1 X93.657 Y134.832 E5.08261
G1 X92.856 Y135.016 E5.10995
G1 X92.582 Y135.064 E5.1192
G1 X91.774 Y135.162 E5.14627
G1 X91.499 Y135.181 E5.15544
G1 X90.705 Y135.196 E5.18185
G1 X90.431 Y135.187 E5.19097
G1 X89.592 Y135.114 E5.21898
G1 X89.317 Y135.075 E5.22822
G1 X88.534 Y134.922 E5.25475
G1 X88.268 Y134.856 E5.26387
G1 X87.453 Y134.607 E5.29221
G1 X87.192 Y134.511 E5.30146
G1 X86.488 Y134.211 E5.32691
G1 X86.24 Y134.091 E5.33608
G1 X85.475 Y133.667 E5.36517
G1 X85.242 Y133.52 E5.37433
G1 X84.607 Y133.074 E5.40014
G1 X84.389 Y132.904 E5.40933
G1 X83.8 Y132.395 E5.43523
G1 X83.601 Y132.205 E5.44438
G1 X82.983 Y131.542 E5.47452
G1 X82.808 Y131.331 E5.48364
G1 X82.344 Y130.711 E5.5094
G1 X82.189 Y130.481 E5.51862
G1 X81.768 Y129.779 E5.54585
G1 X81.639 Y129.536 E5.555
G1 X81.311 Y128.839 E5.58062
G1 X81.206 Y128.583 E5.58982
G1 X80.923 Y127.766 E5.61858
G1 X80.847 Y127.5 E5.62778
G1 X80.662 Y126.69 E5.65542
G1 X80.615 Y126.419 E5.66456
G1 X80.519 Y125.628 E5.69107
G1 X80.5 Y125.355 E5.70017
G1 X80.486 Y124.531 E5.72758
G1 X80.496 Y124.255 E5.73676
G1 X80.564 Y123.469 E5.763
G1 X80.602 Y123.194 E5.77224
G1 X80.765 Y122.357 E5.8006
G1 X80.832 Y122.091 E5.80972
G1 X81.064 Y121.335 E5.83602
G1 X81.158 Y121.076 E5.84519
G1 X81.469 Y120.34 E5.87176
G1 X81.589 Y120.092 E5.88093
G1 X82.005 Y119.34 E5.90951
G1 X82.152 Y119.106 E5.9187
G1 X82.603 Y118.462 E5.94485
G1 X82.772 Y118.245 E5.954
G1 X83.299 Y117.637 E5.98076
G1 X83.49 Y117.438 E5.98994
G1 X84.118 Y116.852 E6.0185
G1 X84.224 Y116.763 E6.02311
G1 X83.948 Y116.524 E6.03525
G1 X83.749 Y116.333 E6.04442
G1 X83.158 Y115.699 E6.07325
G1 X82.983 Y115.489 E6.08234
G1 X82.498 Y114.842 E6.10924
G1 X82.343 Y114.611 E6.11849
G1 X81.937 Y113.934 E6.14475
G1 X81.808 Y113.692 E6.15387
G1 X81.47 Y112.973 E6.18029
G1 X81.365 Y112.716 E6.18953
G1 X81.088 Y111.916 E6.21768
G1 X81.012 Y111.651 E6.22685
G1 X80.824 Y110.829 E6.2549
G1 X80.777 Y110.557 E6.26408
G1 X80.682 Y109.771 E6.29041
G1 X80.663 Y109.498 E6.29951
G1 X80.648 Y108.702 E6.32599
G1 X80.657 Y108.426 E6.33518
G1 X80.73 Y107.585 E6.36326
G1 X80.769 Y107.31 E6.37249
G1 X80.923 Y106.52 E6.39926
G1 X80.989 Y106.255 E6.40835
G1 X81.232 Y105.463 E6.4359
G1 X81.327 Y105.203 E6.44511
G1 X81.637 Y104.471 E6.47155
G1 X81.757 Y104.224 E6.48068
G1 X82.168 Y103.484 E6.50884
G1 X82.315 Y103.25 E6.51803
G1 X82.755 Y102.62 E6.54359
G1 X82.924 Y102.402 E6.55276
G1 X83.462 Y101.78 E6.58011
G1 X83.653 Y101.581 E6.58929
G1 X84.284 Y100.992 E6.618
G0 F6000 X84.54 Y101.299
G1 F1200 X84.751 Y101.123 E6.62713
G1 X85.35 Y100.673 E6.65205
G1 X85.581 Y100.517 E6.66132
G1 X86.273 Y100.103 E6.68814
G1 X86.516 Y99.975 E6.69728
G1 X87.157 Y99.676 E6.7208
G1 X87.413 Y99.571 E6.73001
G1 X88.192 Y99.301 E6.75743
G1 X88.455 Y99.226 E6.76653
G1 X89.207 Y99.053 E6.79219
G1 X89.481 Y99.005 E6.80144
G1 X90.219 Y98.914 E6.82617
G1 X90.493 Y98.894 E6.83531
G1 X91.301 Y98.879 E6.86219
G1 X91.576 Y98.889 E6.87134
G1 X92.32 Y98.954 E6.89618
G1 X92.595 Y98.992 E6.90542
G1 X93.389 Y99.146 E6.93232
G1 X93.655 Y99.213 E6.94144
G1 X94.403 Y99.444 E6.96748
G1 X94.664 Y99.54 E6.97673
G1 X95.309 Y99.813 E7.00002
G1 X95.555 Y99.931 E7.0091
G1 X95.773 Y100.052 E7.01739
G1 X95.873 Y100.005 E7.02107
G1 X96.129 Y99.9 E7.03027
G1 X96.9 Y99.632 E7.05742
G1 X97.162 Y99.557 E7.06648
G1 X97.927 Y99.381 E7.09259
G1 X98.202 Y99.333 E7.10188
G1 X98.962 Y99.241 E7.12734
G1 X99.236 Y99.222 E7.13647
G1 X99.99 Y99.208 E7.16156
G1 X100.265 Y99.217 E7.17071
G1 X101.062 Y99.286 E7.19731
G1 X101.337 Y99.325 E7.20655
G1 X102.105 Y99.476 E7.23258
G1 X102.371 Y99.543 E7.24171
G1 X103.095 Y99.765 E7.2669
G1 X103.356 Y99.86 E7.27613
G1 X104.047 Y100.152 E7.30108
G1 X104.293 Y100.271 E7.31017
G1 X105.015 Y100.671 E7.33763
G1 X105.25 Y100.819 E7.34686
G1 X105.857 Y101.246 E7.37155
G1 X106.075 Y101.416 E7.38074
G1 X106.647 Y101.911 E7.4059
G1 X106.844 Y102.1 E7.41498
G1 X107.401 Y102.697 E7.44214
G1 X107.578 Y102.909 E7.45132
G1 X107.746 Y103.132 E7.46061
G1 X108.18 Y102.726 E7.48038
G1 X108.236 Y102.678 E7.48283
G1 X109.061 Y102.065 E7.51701
G1 X109.278 Y101.926 E7.52559
G1 X110.039 Y101.499 E7.55461
G1 X110.173 Y101.434 E7.55956
G1 X110.925 Y101.119 E7.58668
G1 X111.167 Y101.033 E7.59522
G1 X111.904 Y100.814 E7.62079
G1 X112.304 Y100.728 E7.6344
G1 X112.38 Y100.714 E7.63697
G1 X112.885 Y100.639 E7.65395
G1 X113.14 Y100.61 E7.66249
G1 X114.077 Y100.564 E7.69369
G1 X114.15 Y100.565 E7.69612
G1 X114.828 Y100.605 E7.71871
G1 X115.083 Y100.632 E7.72724
G1 X115.828 Y100.75 E7.75232
G1 X115.904 Y100.766 E7.75491
G1 X116.807 Y101.016 E7.78607
G1 X117.049 Y101.1 E7.79459
G1 X117.931 Y101.472 E7.82643
G1 X118.063 Y101.538 E7.83134
G1 X118.673 Y101.88 E7.8546
G1 X118.894 Y102.018 E7.86326
G1 X119.525 Y102.459 E7.88887
G1 X120.151 Y103.006 E7.91652
G1 X120.386 Y103.236 E7.92746
G1 X120.907 Y103.802 E7.95304
G1 X121.144 Y104.108 E7.96591
G1 X121.35 Y103.87 E7.97638
G1 X121.531 Y103.685 E7.98499
G1 X122.004 Y103.242 E8.00655
G1 X122.06 Y103.194 E8.009
G1 X122.905 Y102.568 E8.04398
G1 X123.122 Y102.43 E8.05253
G1 X123.863 Y102.016 E8.08076
G1 X123.997 Y101.951 E8.08572
G1 X124.749 Y101.636 E8.11283
G1 X124.991 Y101.55 E8.12137
G1 X125.728 Y101.331 E8.14695
G1 X126.128 Y101.245 E8.16055
G1 X126.204 Y101.231 E8.16313
G1 X126.68 Y101.16 E8.17913
G1 X126.935 Y101.13 E8.18767
G1 X127.901 Y101.08 E8.21984
G1 X127.974 Y101.081 E8.22227
G1 X128.681 Y101.124 E8.24583
G1 X128.936 Y101.152 E8.25436
G1 X129.652 Y101.267 E8.27848
G1 X129.728 Y101.283 E8.28107
G1 X130.631 Y101.533 E8.31223
G1 X130.873 Y101.617 E8.32075
G1 X131.755 Y101.989 E8.35259
G1 X131.887 Y102.055 E8.3575
G1 X132.474 Y102.383 E8.37986
G1 X132.692 Y102.518 E8.38839
G1 X133.324 Y102.956 E8.41396
G1 X133.831 Y103.386 E8.43608
G1 X133.909 Y103.459 E8.43963
G1 X134.196 Y103.286 E8.45077
G1 X134.437 Y103.156 E8.45988
G1 X135.132 Y102.827 E8.48546
G1 X135.801 Y102.588 E8.50909
G1 X136.058 Y102.51 E8.51802
G1 X136.805 Y102.325 E8.54361
G1 X137.517 Y102.223 E8.56754
G1 X137.784 Y102.198 E8.57646
G1 X138.553 Y102.166 E8.60206
G1 X139.129 Y102.195 E8.62124
G1 X139.399 Y102.219 E8.63025
G1 X140.161 Y102.327 E8.65585
G1 X140.893 Y102.509 E8.68094
G1 X141.15 Y102.587 E8.68987
G1 X141.874 Y102.848 E8.71547
G1 X142.514 Y103.155 E8.73908
G1 X142.755 Y103.285 E8.74818
G1 X143.412 Y103.685 E8.77377
G1 X143.929 Y104.072 E8.79525
G1 X144.133 Y104.239 E8.80402
G1 X144.703 Y104.756 E8.82961
G1 X145.151 Y105.252 E8.85184
G1 X145.322 Y105.459 E8.86077
G1 X145.78 Y106.077 E8.88636
