;FLAVOR:Marlin
;TIME:4205
;Filament used: 3.32017m
;Layer height: 0.2
;MINX:77.2
;MINY:93.2
;MINZ:0.2
;MAXX:142.8
;MAXY:126.8
;MAXZ:26
;Generated with Creality Slicer 4.8.2-254
M140 S62
M105
M190 S62
M104 S215
M105
M109 S215
M82 ;absolute extrusion mode

G28 ;Home

G92 E0 ;Reset Extruder
G1 Z2.0 F3000 ;Move Z Axis up
G1 X10.1 Y20 Z0.28 F5000.0 ;Move to start position
G1 X10.1 Y200.0 Z0.28 F1500.0 E15 ;Draw the first line
G1 X10.4 Y200.0 Z0.28 F5000.0 ;Move to side a little
G1 X10.4 Y20 Z0.28 F1500.0 E30 ;Draw the second line
G92 E0 ;Reset Extruder
G1 Z2.0 F3000 ;Move Z Axis up

G92 E0
G92 E0
G1 F2700 E-5
;LAYER_COUNT:130
;LAYER:0
M107
;MESH:thelio-io-holder v1.obj
G0 F6000 X142.4 Y126.4 Z0.2
;TYPE:WALL-INNER
G1 F2700 E0
G1 F1200 X77.6 Y126.4 E2.5432
G1 X77.6 Y93.6 E3.8305
G1 X142.4 Y93.6 E6.37371
G1 X142.4 Y126.4 E7.66101
G0 F6000 X142.8 Y126.8
;TYPE:WALL-OUTER
G1 F1200 X77.2 Y126.8 E10.23561
G1 X77.2 Y93.2 E11.5543
G1 X142.8 Y93.2 E14.12891
G1 X142.8 Y126.8 E15.4476
G0 F6000 X142.53 Y126.53
G0 X142.29 Y126.01
G0 X142.01 Y126.01
;TYPE:SKIN
G1 F1200 X77.99 Y126.01 E17.96019
G1 X77.99 Y93.99 E19.21688
G1 X142.01 Y93.99 E21.72947
G1 X142.01 Y126.01 E22.98616
G1 F2700 E17.98616
G0 F6000 X142.29 Y126.01
G0 X142.29 Y94.331
G0 X141.849 Y94.331
G1 F2700 E22.98616
G1 F1200 X141.668 Y94.15 E22.99621
G0 F6000 X141.102 Y94.15
G1 F1200 X141.849 Y94.897 E23.03767
G0 F6000 X141.849 Y95.462
G1 F1200 X140.536 Y94.15 E23.11051
G0 F6000 X139.971 Y94.15
G1 F1200 X141.849 Y96.028 E23.21475
G0 F6000 X141.849 Y96.594
G1 F1200 X139.405 Y94.15 E23.3504
G0 F6000 X138.839 Y94.15
G1 F1200 X141.849 Y97.16 E23.51747
G0 F6000 X141.849 Y97.725
G1 F1200 X138.274 Y94.15 E23.71589
G0 F6000 X137.708 Y94.15
G1 F1200 X141.849 Y98.291 E23.94573
G0 F6000 X141.849 Y98.857
G1 F1200 X137.142 Y94.15 E24.20699
G0 F6000 X136.576 Y94.15
G1 F1200 X141.849 Y99.422 E24.49963
G0 F6000 X141.849 Y99.988
G1 F1200 X136.011 Y94.15 E24.82366
G0 F6000 X135.445 Y94.15
G1 F1200 X141.849 Y100.554 E25.17911
G0 F6000 X141.849 Y101.119
G1 F1200 X134.879 Y94.15 E25.56594
G0 F6000 X134.314 Y94.15
G1 F1200 X141.849 Y101.685 E25.98416
G0 F6000 X141.849 Y102.251
G1 F1200 X133.748 Y94.15 E26.43379
G0 F6000 X133.182 Y94.15
G1 F1200 X141.849 Y102.816 E26.91481
G0 F6000 X141.849 Y103.382
G1 F1200 X132.617 Y94.15 E27.42722
G0 F6000 X132.051 Y94.15
G1 F1200 X141.849 Y103.948 E27.97105
G0 F6000 X141.849 Y104.513
G1 F1200 X131.485 Y94.15 E28.54626
G0 F6000 X130.92 Y94.15
G1 F1200 X141.849 Y105.079 E29.15286
G0 F6000 X141.849 Y105.645
G1 F1200 X130.354 Y94.15 E29.79087
G0 F6000 X129.788 Y94.15
G1 F1200 X141.849 Y106.21 E30.46027
G0 F6000 X141.849 Y106.776
G1 F1200 X129.223 Y94.15 E31.16106
G0 F6000 X128.657 Y94.15
G1 F1200 X141.849 Y107.342 E31.89326
G0 F6000 X141.849 Y107.908
G1 F1200 X128.091 Y94.15 E32.65688
G0 F6000 X127.526 Y94.15
G1 F1200 X141.849 Y108.473 E33.45186
G0 F6000 X141.849 Y109.039
G1 F1200 X126.96 Y94.15 E34.27825
G0 F6000 X126.394 Y94.15
G1 F1200 X141.849 Y109.605 E35.13606
G0 F6000 X141.849 Y110.17
G1 F1200 X125.828 Y94.15 E36.02525
G0 F6000 X125.263 Y94.15
G1 F1200 X141.849 Y110.736 E36.94584
G0 F6000 X141.849 Y111.302
G1 F1200 X124.697 Y94.15 E37.89783
G0 F6000 X124.131 Y94.15
G1 F1200 X141.849 Y111.867 E38.88122
G0 F6000 X141.849 Y112.433
G1 F1200 X123.566 Y94.15 E39.89599
G0 F6000 X123 Y94.15
G1 F1200 X141.849 Y112.999 E40.94218
G0 F6000 X141.849 Y113.564
G1 F1200 X122.434 Y94.15 E42.01975
G0 F6000 X121.869 Y94.15
G1 F1200 X141.849 Y114.13 E43.12871
G0 F6000 X141.849 Y114.696
G1 F1200 X121.303 Y94.15 E44.26909
G0 F6000 X120.737 Y94.15
G1 F1200 X141.849 Y115.261 E45.44085
G0 F6000 X141.849 Y115.827
G1 F1200 X120.172 Y94.15 E46.64401
G0 F6000 X119.606 Y94.15
G1 F1200 X141.849 Y116.393 E47.87857
G0 F6000 X141.849 Y116.958
G1 F1200 X119.04 Y94.15 E49.14453
G0 F6000 X118.475 Y94.15
G1 F1200 X141.849 Y117.524 E50.44187
G0 F6000 X141.849 Y118.09
G1 F1200 X117.909 Y94.15 E51.77062
G0 F6000 X117.343 Y94.15
G1 F1200 X141.849 Y118.656 E53.13079
G0 F6000 X141.849 Y119.221
G1 F1200 X116.777 Y94.15 E54.52235
G0 F6000 X116.212 Y94.15
G1 F1200 X141.849 Y119.787 E55.9453
G0 F6000 X141.849 Y120.353
G1 F1200 X115.646 Y94.15 E57.39966
G0 F6000 X115.08 Y94.15
G1 F1200 X141.849 Y120.918 E58.8854
G0 F6000 X141.849 Y121.484
G1 F1200 X114.515 Y94.15 E60.40254
G0 F6000 X113.949 Y94.15
G1 F1200 X141.849 Y122.05 E61.95109
G0 F6000 X141.849 Y122.615
G1 F1200 X113.383 Y94.15 E63.53103
G0 F6000 X112.818 Y94.15
G1 F1200 X141.849 Y123.181 E65.14235
G0 F6000 X141.849 Y123.747
G1 F1200 X112.252 Y94.15 E66.78509
G0 F6000 X111.686 Y94.15
G1 F1200 X141.849 Y124.312 E68.45922
G0 F6000 X141.849 Y124.878
G1 F1200 X111.121 Y94.15 E70.16473
G0 F6000 X110.555 Y94.15
G1 F1200 X141.849 Y125.444 E71.90166
G0 F6000 X141.688 Y125.849
G1 F1200 X109.989 Y94.149 E73.6611
G0 F6000 X109.423 Y94.149
G1 F1200 X141.122 Y125.849 E75.42053
G0 F6000 X140.557 Y125.849
G1 F1200 X108.857 Y94.149 E77.18
G0 F6000 X108.291 Y94.149
G1 F1200 X139.991 Y125.849 E78.93946
G0 F6000 X139.425 Y125.849
G1 F1200 X107.726 Y94.149 E80.69889
G0 F6000 X107.16 Y94.149
G1 F1200 X138.86 Y125.849 E82.45836
G0 F6000 X138.294 Y125.849
G1 F1200 X106.594 Y94.149 E84.21782
G0 F6000 X106.029 Y94.149
G1 F1200 X137.728 Y125.849 E85.97726
G0 F6000 X137.163 Y125.849
G1 F1200 X105.463 Y94.149 E87.73672
G0 F6000 X104.897 Y94.149
G1 F1200 X136.597 Y125.849 E89.49618
G0 F6000 X136.031 Y125.849
G1 F1200 X104.332 Y94.149 E91.25562
G0 F6000 X103.766 Y94.149
G1 F1200 X135.466 Y125.849 E93.01508
G0 F6000 X134.9 Y125.849
G1 F1200 X103.2 Y94.149 E94.77455
G0 F6000 X102.635 Y94.149
G1 F1200 X134.334 Y125.849 E96.53398
G0 F6000 X133.769 Y125.849
G1 F1200 X102.069 Y94.149 E98.29345
G0 F6000 X101.503 Y94.149
G1 F1200 X133.203 Y125.849 E100.05291
G0 F6000 X132.637 Y125.849
G1 F1200 X100.938 Y94.149 E101.81235
G0 F6000 X100.372 Y94.149
G1 F1200 X132.071 Y125.849 E103.57178
G0 F6000 X131.506 Y125.849
G1 F1200 X99.806 Y94.149 E105.33125
G0 F6000 X99.241 Y94.149
G1 F1200 X130.94 Y125.849 E107.09068
G0 F6000 X130.374 Y125.849
G1 F1200 X98.675 Y94.149 E108.85012
G0 F6000 X98.109 Y94.149
G1 F1200 X129.809 Y125.849 E110.60958
G0 F6000 X129.243 Y125.849
G1 F1200 X97.543 Y94.149 E112.36904
G0 F6000 X96.978 Y94.149
G1 F1200 X128.677 Y125.849 E114.12848
G0 F6000 X128.112 Y125.849
G1 F1200 X96.412 Y94.149 E115.88794
G0 F6000 X95.846 Y94.149
G1 F1200 X127.546 Y125.849 E117.64741
G0 F6000 X126.98 Y125.849
G1 F1200 X95.281 Y94.149 E119.40684
G0 F6000 X94.715 Y94.149
G1 F1200 X126.415 Y125.849 E121.16631
G0 F6000 X125.849 Y125.849
G1 F1200 X94.149 Y94.149 E122.92577
G0 F6000 X93.584 Y94.149
G1 F1200 X125.283 Y125.849 E124.68521
G0 F6000 X124.718 Y125.849
G1 F1200 X93.018 Y94.149 E126.44467
G0 F6000 X92.452 Y94.149
G1 F1200 X124.152 Y125.849 E128.20413
G0 F6000 X123.586 Y125.849
G1 F1200 X91.887 Y94.149 E129.96357
G0 F6000 X91.321 Y94.149
G1 F1200 X123.021 Y125.849 E131.72303
G0 F6000 X122.455 Y125.849
G1 F1200 X90.755 Y94.149 E133.4825
G0 F6000 X90.19 Y94.149
G1 F1200 X121.889 Y125.849 E135.24193
G0 F6000 X121.323 Y125.849
G1 F1200 X89.624 Y94.149 E137.00137
G0 F6000 X89.058 Y94.149
G1 F1200 X120.758 Y125.849 E138.76083
G0 F6000 X120.192 Y125.849
G1 F1200 X88.492 Y94.149 E140.5203
G0 F6000 X87.927 Y94.149
G1 F1200 X119.626 Y125.849 E142.27973
G0 F6000 X119.061 Y125.849
G1 F1200 X87.361 Y94.149 E144.03919
G0 F6000 X86.795 Y94.149
G1 F1200 X118.495 Y125.849 E145.79866
G0 F6000 X117.929 Y125.849
G1 F1200 X86.23 Y94.149 E147.55809
G0 F6000 X85.664 Y94.149
G1 F1200 X117.364 Y125.849 E149.31756
G0 F6000 X116.798 Y125.849
G1 F1200 X85.098 Y94.149 E151.07702
G0 F6000 X84.533 Y94.149
G1 F1200 X116.232 Y125.849 E152.83646
G0 F6000 X115.667 Y125.849
G1 F1200 X83.967 Y94.149 E154.59592
G0 F6000 X83.401 Y94.149
G1 F1200 X115.101 Y125.849 E156.35538
G0 F6000 X114.535 Y125.849
G1 F1200 X82.836 Y94.149 E158.11482
G0 F6000 X82.27 Y94.149
G1 F1200 X113.97 Y125.849 E159.87428
G0 F6000 X113.404 Y125.849
G1 F1200 X81.704 Y94.149 E161.63375
G0 F6000 X81.139 Y94.149
G1 F1200 X112.838 Y125.849 E163.39318
G0 F6000 X112.273 Y125.849
G1 F1200 X80.573 Y94.149 E165.15265
G0 F6000 X80.007 Y94.149
G1 F1200 X111.707 Y125.849 E166.91211
G0 F6000 X111.141 Y125.849
G1 F1200 X79.442 Y94.149 E168.67155
G0 F6000 X78.876 Y94.149
G1 F1200 X110.575 Y125.849 E170.43098
G0 F6000 X110.01 Y125.849
G1 F1200 X78.31 Y94.149 E172.19044
G0 F6000 X78.15 Y94.555
G1 F1200 X109.443 Y125.848 E173.92732
G0 F6000 X108.878 Y125.848
G1 F1200 X78.15 Y95.12 E175.63283
G0 F6000 X78.15 Y95.686
G1 F1200 X108.312 Y125.848 E177.30693
G0 F6000 X107.746 Y125.848
G1 F1200 X78.15 Y96.252 E178.94962
G0 F6000 X78.15 Y96.817
G1 F1200 X107.181 Y125.848 E180.56094
G0 F6000 X106.615 Y125.848
G1 F1200 X78.15 Y97.383 E182.14085
G0 F6000 X78.15 Y97.949
G1 F1200 X106.049 Y125.848 E183.68934
G0 F6000 X105.484 Y125.848
G1 F1200 X78.15 Y98.514 E185.20648
G0 F6000 X78.15 Y99.08
G1 F1200 X104.918 Y125.848 E186.6922
G0 F6000 X104.352 Y125.848
G1 F1200 X78.15 Y99.646 E188.1465
G0 F6000 X78.15 Y100.211
G1 F1200 X103.787 Y125.848 E189.56945
G0 F6000 X103.221 Y125.848
G1 F1200 X78.15 Y100.777 E190.96098
G0 F6000 X78.15 Y101.343
G1 F1200 X102.655 Y125.848 E192.32109
G0 F6000 X102.089 Y125.848
G1 F1200 X78.15 Y101.908 E193.64982
G0 F6000 X78.15 Y102.474
G1 F1200 X101.524 Y125.848 E194.94716
G0 F6000 X100.958 Y125.848
G1 F1200 X78.15 Y103.04 E196.21309
G0 F6000 X78.15 Y103.605
G1 F1200 X100.392 Y125.848 E197.44763
G0 F6000 X99.827 Y125.848
G1 F1200 X78.15 Y104.171 E198.65078
G0 F6000 X78.15 Y104.737
G1 F1200 X99.261 Y125.848 E199.82251
G0 F6000 X98.695 Y125.848
G1 F1200 X78.15 Y105.303 E200.96284
G0 F6000 X78.15 Y105.868
G1 F1200 X98.13 Y125.848 E202.0718
G0 F6000 X97.564 Y125.848
G1 F1200 X78.15 Y106.434 E203.14934
G0 F6000 X78.15 Y107
G1 F1200 X96.998 Y125.848 E204.19548
G0 F6000 X96.433 Y125.848
G1 F1200 X78.15 Y107.565 E205.21025
G0 F6000 X78.15 Y108.131
G1 F1200 X95.867 Y125.848 E206.1936
G0 F6000 X95.301 Y125.848
G1 F1200 X78.15 Y108.697 E207.14555
G0 F6000 X78.15 Y109.262
G1 F1200 X94.736 Y125.848 E208.06613
G0 F6000 X94.17 Y125.848
G1 F1200 X78.15 Y109.828 E208.9553
G0 F6000 X78.15 Y110.394
G1 F1200 X93.604 Y125.848 E209.81305
G0 F6000 X93.038 Y125.848
G1 F1200 X78.15 Y110.959 E210.63941
G0 F6000 X78.15 Y111.525
G1 F1200 X92.473 Y125.848 E211.43439
G0 F6000 X91.907 Y125.848
G1 F1200 X78.15 Y112.091 E212.19795
G0 F6000 X78.15 Y112.656
G1 F1200 X91.341 Y125.848 E212.93013
G0 F6000 X90.776 Y125.848
G1 F1200 X78.15 Y113.222 E213.63092
G0 F6000 X78.15 Y113.788
G1 F1200 X90.21 Y125.848 E214.30029
G0 F6000 X89.644 Y125.848
G1 F1200 X78.15 Y114.354 E214.93825
G0 F6000 X78.15 Y114.919
G1 F1200 X89.079 Y125.848 E215.54485
G0 F6000 X88.513 Y125.848
G1 F1200 X78.15 Y115.485 E216.12003
G0 F6000 X78.15 Y116.051
G1 F1200 X87.947 Y125.848 E216.6638
G0 F6000 X87.382 Y125.848
G1 F1200 X78.15 Y116.616 E217.17621
G0 F6000 X78.15 Y117.182
G1 F1200 X86.816 Y125.848 E217.6572
G0 F6000 X86.25 Y125.848
G1 F1200 X78.15 Y117.748 E218.10678
G0 F6000 X78.15 Y118.313
G1 F1200 X85.685 Y125.848 E218.525
G0 F6000 X85.119 Y125.848
G1 F1200 X78.15 Y118.879 E218.91181
G0 F6000 X78.15 Y119.445
G1 F1200 X84.553 Y125.848 E219.2672
G0 F6000 X83.988 Y125.848
G1 F1200 X78.15 Y120.01 E219.59123
G0 F6000 X78.15 Y120.576
G1 F1200 X83.422 Y125.848 E219.88384
G0 F6000 X82.856 Y125.848
G1 F1200 X78.15 Y121.142 E220.14504
G0 F6000 X78.15 Y121.707
G1 F1200 X82.29 Y125.848 E220.37485
G0 F6000 X81.725 Y125.848
G1 F1200 X78.15 Y122.273 E220.57328
G0 F6000 X78.15 Y122.839
G1 F1200 X81.159 Y125.848 E220.74029
G0 F6000 X80.593 Y125.848
G1 F1200 X78.15 Y123.404 E220.87591
G0 F6000 X78.15 Y123.97
G1 F1200 X80.028 Y125.848 E220.98015
G0 F6000 X79.462 Y125.848
G1 F1200 X78.15 Y124.536 E221.05297
G0 F6000 X78.15 Y125.102
G1 F1200 X78.896 Y125.848 E221.09437
G0 F6000 X78.331 Y125.848
G1 F1200 X78.15 Y125.667 E221.10442
G0 F6000 X77.8 Y125.667
G1 F2700 E216.10442
;MESH:NONMESH
G0 F300 X77.8 Y125.667 Z0.4
G0 F6000 X77.71 Y125.667
G0 X77.782 Y126.218
G0 X142.4 Y126.4
;TIME_ELAPSED:300.386619
;LAYER:1
M106 S85
;TYPE:WALL-INNER
;MESH:thelio-io-holder v1.obj
G1 F2700 E221.10442
G1 F1425 X77.6 Y126.4 E223.64762
G1 X77.6 Y93.6 E224.93492
G1 X142.4 Y93.6 E227.47813
G1 X142.4 Y126.4 E228.76543
G0 F6600 X142.8 Y126.8
;TYPE:WALL-OUTER
G1 F1425 X77.2 Y126.8 E231.34003
G1 X77.2 Y93.2 E232.65872
G1 X142.8 Y93.2 E235.23333
G1 X142.8 Y126.8 E236.55202
G0 F6600 X142.53 Y126.53
G0 X142.29 Y126.01
G0 X142.01 Y126.01
;TYPE:SKIN
G1 F1425 X77.99 Y126.01 E239.06461
G1 X77.99 Y93.99 E240.3213
G1 X142.01 Y93.99 E242.83389
G1 X142.01 Y126.01 E244.09058
G0 F6600 X141.849 Y125.72
G1 F1425 X141.719 Y125.85 E244.09779
G0 F6600 X141.153 Y125.85
G1 F1425 X141.849 Y125.154 E244.13642
G0 F6600 X141.849 Y124.588
G1 F1425 X140.587 Y125.85 E244.20647
G0 F6600 X140.021 Y125.85
G1 F1425 X141.849 Y124.022 E244.30793
G0 F6600 X141.849 Y123.457
G1 F1425 X139.456 Y125.85 E244.44075
G0 F6600 X138.89 Y125.85
G1 F1425 X141.849 Y122.891 E244.60499
G0 F6600 X141.849 Y122.325
G1 F1425 X138.324 Y125.85 E244.80064
G0 F6600 X137.759 Y125.85
G1 F1425 X141.849 Y121.76 E245.02765
G0 F6600 X141.849 Y121.194
G1 F1425 X137.193 Y125.85 E245.28607
G0 F6600 X136.627 Y125.85
G1 F1425 X141.849 Y120.628 E245.57591
G0 F6600 X141.849 Y120.063
G1 F1425 X136.062 Y125.85 E245.89711
G0 F6600 X135.496 Y125.85
G1 F1425 X141.849 Y119.497 E246.24972
G0 F6600 X141.849 Y118.931
G1 F1425 X134.93 Y125.85 E246.63375
G0 F6600 X134.365 Y125.85
G1 F1425 X141.849 Y118.366 E247.04914
G0 F6600 X141.849 Y117.8
G1 F1425 X133.799 Y125.85 E247.49595
G0 F6600 X133.233 Y125.85
G1 F1425 X141.849 Y117.234 E247.97416
G0 F6600 X141.849 Y116.669
G1 F1425 X132.668 Y125.85 E248.48374
G0 F6600 X132.102 Y125.85
G1 F1425 X141.849 Y116.103 E249.02474
G0 F6600 X141.849 Y115.537
G1 F1425 X131.536 Y125.85 E249.59714
G0 F6600 X130.971 Y125.85
G1 F1425 X141.849 Y114.972 E250.20091
G0 F6600 X141.849 Y114.406
G1 F1425 X130.405 Y125.85 E250.8361
G0 F6600 X129.839 Y125.85
G1 F1425 X141.849 Y113.84 E251.50269
G0 F6600 X141.849 Y113.274
G1 F1425 X129.273 Y125.85 E252.20071
G0 F6600 X128.708 Y125.85
G1 F1425 X141.849 Y112.709 E252.93008
G0 F6600 X141.849 Y112.143
G1 F1425 X128.142 Y125.85 E253.69087
G0 F6600 X127.576 Y125.85
G1 F1425 X141.849 Y111.577 E254.48307
G0 F6600 X141.849 Y111.012
G1 F1425 X127.011 Y125.85 E255.30663
G0 F6600 X126.445 Y125.85
G1 F1425 X141.849 Y110.446 E256.16161
G0 F6600 X141.849 Y109.88
G1 F1425 X125.879 Y125.85 E257.048
G0 F6600 X125.314 Y125.85
G1 F1425 X141.849 Y109.315 E257.96575
G0 F6600 X141.849 Y108.749
G1 F1425 X124.748 Y125.85 E258.91492
G0 F6600 X124.182 Y125.85
G1 F1425 X141.849 Y108.183 E259.8955
G0 F6600 X141.849 Y107.618
G1 F1425 X123.617 Y125.85 E260.90744
G0 F6600 X123.051 Y125.85
G1 F1425 X141.849 Y107.052 E261.9508
G0 F6600 X141.849 Y106.486
G1 F1425 X122.485 Y125.85 E263.02557
G0 F6600 X121.92 Y125.85
G1 F1425 X141.849 Y105.921 E264.1317
G0 F6600 X141.849 Y105.355
G1 F1425 X121.354 Y125.85 E265.26925
G0 F6600 X120.788 Y125.85
G1 F1425 X141.849 Y104.789 E266.43821
G0 F6600 X141.849 Y104.224
G1 F1425 X120.223 Y125.85 E267.63853
G0 F6600 X119.657 Y125.85
G1 F1425 X141.849 Y103.658 E268.87026
G0 F6600 X141.849 Y103.092
G1 F1425 X119.091 Y125.85 E270.13341
G0 F6600 X118.525 Y125.85
G1 F1425 X141.849 Y102.526 E271.42798
G0 F6600 X141.849 Y101.961
G1 F1425 X117.96 Y125.85 E272.75391
G0 F6600 X117.394 Y125.85
G1 F1425 X141.849 Y101.395 E274.11125
G0 F6600 X141.849 Y100.829
G1 F1425 X116.828 Y125.85 E275.5
G0 F6600 X116.263 Y125.85
G1 F1425 X141.849 Y100.264 E276.92012
G0 F6600 X141.849 Y99.698
G1 F1425 X115.697 Y125.85 E278.37164
G0 F6600 X115.131 Y125.85
